frontend/public/luts/cyberpunk.cube
TITLE "ZipZop cyberpunk"
LUT_3D_SIZE 17
DOMAIN_MIN 0.0 0.0 0.0
DOMAIN_MAX 1.0 1.0 1.0
0.000000 0.131633 0.249905
0.000000 0.131633 0.249905
0.000000 0.131633 0.249905
0.013941 0.126256 0.241596
0.069968 0.119609 0.231475
0.136354 0.112063 0.220185
0.211890 0.103848 0.208133
0.295004 0.095199 0.195708
0.383731 0.086351 0.183274
0.475736 0.077540 0.171168
0.568353 0.068998 0.159694
0.658657 0.060948 0.149121
0.743537 0.053609 0.139684
0.819780 0.047188 0.131589
0.882426 0.042025 0.125189
0.882426 0.042025 0.125189
0.882426 0.042025 0.125189
0.000000 0.131633 0.249905
0.000000 0.131633 0.249905
0.000000 0.131633 0.249905
0.013941 0.126256 0.241596
0.069968 0.119609 0.231475
0.136354 0.112063 0.220185
0.211890 0.103848 0.208133
0.295004 0.095199 0.195708
0.383731 0.086351 0.183274
0.475736 0.077540 0.171168
0.568353 0.068998 0.159694
0.658657 0.060948 0.149121
0.743537 0.053609 0.139684
0.819780 0.047188 0.131589
0.882426 0.042025 0.125189
0.882426 0.042025 0.125189
0.882426 0.042025 0.125189
0.000000 0.131633 0.249905
0.000000 0.131633 0.249905
0.000000 0.131633 0.249905
0.013941 0.126256 0.241596
0.069968 0.119609 0.231475
0.136354 0.112063 0.220185
0.211890 0.103848 0.208133
0.295004 0.095199 0.195708
0.383731 0.086351 0.183274
0.475736 0.077540 0.171168
0.568353 0.068998 0.159694
0.658657 0.060948 0.149121
0.743537 0.053609 0.139684
0.819780 0.047188 0.131589
0.882426 0.042025 0.125189
0.882426 0.042025 0.125189
0.882426 0.042025 0.125189
0.000000 0.160210 0.222363
0.000000 0.160210 0.222363
0.000000 0.160210 0.222363
0.012456 0.155560 0.214406
0.071634 0.149796 0.204731
0.141383 0.143234 0.193963
0.220324 0.136069 0.182498
0.306736 0.128502 0.170714
0.398539 0.120738 0.158962
0.493305 0.112985 0.147561
0.588311 0.105447 0.136797
0.680605 0.098328 0.126917
0.767077 0.091823 0.118135
0.844536 0.086121 0.110630
0.908037 0.081529 0.104719
0.908037 0.081529 0.104719
0.908037 0.081529 0.104719
0.000000 0.202075 0.190037
0.000000 0.202075 0.190037
0.000000 0.202075 0.190037
0.011063 0.198191 0.182554
0.073828 0.193356 0.173479
0.147383 0.187826 0.163412
0.230151 0.181758 0.152735
0.320241 0.175317 0.141807
0.415432 0.168677 0.130962
0.513200 0.162013 0.120498
0.610760 0.155507 0.110675
0.705134 0.149336 0.101714
0.793225 0.143678 0.093796
0.871880 0.138703 0.087071
0.936190 0.134686 0.081803
0.936190 0.134686 0.081803
0.936190 0.134686 0.081803
0.000000 0.257188 0.155840
0.000000 0.257188 0.155840
0.000000 0.257188 0.155840
0.010292 0.253998 0.148949
0.076717 0.250001 0.140622
0.154127 0.245397 0.131425
0.240732 0.240306 0.121722
0.334461 0.234862 0.111853
0.432952 0.229206 0.102127
0.533579 0.223491 0.092814
0.633503 0.217873 0.084145
0.729734 0.212512 0.076307
0.819198 0.207568 0.069446
0.898801 0.203201 0.063672
0.963698 0.199662 0.059187
0.963698 0.199662 0.059187
0.963698 0.199662 0.059187
0.000000 0.324776 0.121903
0.000000 0.324776 0.121903
0.000000 0.324776 0.121903
0.010734 0.322130 0.115721
0.080650 0.318785 0.108288
0.161697 0.314892 0.100130
0.251870 0.310543 0.091588
0.348918 0.305843 0.082976
0.450341 0.300911 0.074574
0.553422 0.295878 0.066622
0.655276 0.290887 0.059314
0.752917 0.286084 0.052799
0.843316 0.281624 0.047179
0.923457 0.277658 0.042520
0.988593 0.274426 0.038954
0.988593 0.274426 0.038954
0.988593 0.274426 0.038954
0.000000 0.402587 0.090219
0.000000 0.402587 0.090219
0.000000 0.402587 0.090219
0.013019 0.400275 0.084858
0.086059 0.397322 0.078458
0.170307 0.393844 0.071498
0.263553 0.389913 0.064292
0.363374 0.385613 0.057123
0.467143 0.381050 0.050239
0.572064 0.376343 0.043843
0.675227 0.371627 0.038089
0.773666 0.367049 0.033080
0.864417 0.362763 0.028871
0.944566 0.358924 0.025480
1.000000 0.355778 0.022954
1.000000 0.355778 0.022954
1.000000 0.355778 0.022954
0.000000 0.487122 0.062511
0.000000 0.487122 0.062511
0.000000 0.487122 0.062511
0.017723 0.484899 0.058070
0.093372 0.482033 0.052827
0.180229 0.478624 0.047205
0.275892 0.474732 0.041488
0.377781 0.470433 0.035926
0.483161 0.465827 0.030729
0.589174 0.461033 0.026058
0.692904 0.456191 0.022022
0.791425 0.451454 0.018678
0.881863 0.446988 0.016027
0.961426 0.442966 0.014031
1.000000 0.439654 0.012652
1.000000 0.439654 0.012652
1.000000 0.439654 0.012652
0.000000 0.574083 0.040094
0.000000 0.574083 0.040094
0.000000 0.574083 0.040094
0.025254 0.571691 0.036653
0.102909 0.568592 0.032664
0.191691 0.564891 0.028492
0.289025 0.560644 0.024385
0.392197 0.555930 0.020556
0.498381 0.550855 0.017176
0.604682 0.545548 0.014361
0.708192 0.540164 0.012172
0.806051 0.534875 0.010612
0.895490 0.529868 0.009630
0.973864 0.525343 0.009128
1.000000 0.521606 0.008975
1.000000 0.521606 0.008975
1.000000 0.521606 0.008975
0.000000 0.658927 0.023754
0.000000 0.658927 0.023754
0.000000 0.658927 0.023754
0.035735 0.656121 0.021364
0.114765 0.652490 0.018691
0.204764 0.648155 0.016039
0.303011 0.643182 0.013618
0.406678 0.637664 0.011602
0.512871 0.631722 0.010119
0.618675 0.625505 0.009239
0.721216 0.619193 0.008972
0.817712 0.612985 0.009269
0.905520 0.607104 0.010020
0.982154 0.601782 0.011069
1.000000 0.597381 0.012186
1.000000 0.597381 0.012186
1.000000 0.597381 0.012186
0.000000 0.737444 0.013659
0.000000 0.737444 0.013659
0.000000 0.737444 0.013659
0.048911 0.734018 0.012335
0.128716 0.729602 0.010997
0.219270 0.724348 0.009883
0.317727 0.718343 0.009167
0.421174 0.711697 0.008982
0.526667 0.704558 0.009412
0.631293 0.697105 0.010482
0.732225 0.689547 0.012151
0.826775 0.682123 0.014314
0.912435 0.675094 0.016807
0.986890 0.668736 0.019411
1.000000 0.663481 0.021803
1.000000 0.663481 0.021803
1.000000 0.663481 0.021803
0.000000 0.806244 0.009323
0.000000 0.806244 0.009323
0.000000 0.806244 0.009323
0.064090 0.802055 0.009037
0.144152 0.796678 0.008998
0.234700 0.790309 0.009381
0.332790 0.783057 0.010321
0.435442 0.775064 0.011913
0.539687 0.766505 0.014200
0.642625 0.757595 0.017158
0.741488 0.748581 0.020699
0.833689 0.739744 0.024668
0.916862 0.731389 0.028843
0.988862 0.723840 0.032950
1.000000 0.717604 0.036572
1.000000 0.717604 0.036572
1.000000 0.717604 0.036572
0.015152 0.863071 0.009638
0.015152 0.863071 0.009638
0.015152 0.863071 0.009638
0.080132 0.858056 0.010315
0.160061 0.851641 0.011479
0.250194 0.844072 0.013247
0.347516 0.835487 0.015720
0.448999 0.826058 0.018955
0.551662 0.815994 0.022954
0.652631 0.805544 0.027655
0.749200 0.794999 0.032924
0.838887 0.784681 0.038555
0.919458 0.774940 0.044279
0.988934 0.766151 0.049769
1.000000 0.758898 0.054523
1.000000 0.758898 0.054523
1.000000 0.758898 0.054523
0.030261 0.905753 0.012866
0.030261 0.905753 0.012866
0.030261 0.905753 0.012866
0.095082 0.899963 0.014354
0.174656 0.892576 0.016534
0.264174 0.883888 0.019468
0.360568 0.874062 0.023231
0.460782 0.863300 0.027848
0.561833 0.851841 0.033289
0.660876 0.839972 0.039455
0.755267 0.828016 0.046173
0.842612 0.816336 0.053201
0.920797 0.805326 0.060225
0.987981 0.795402 0.066875
1.000000 0.787219 0.072577
1.000000 0.787219 0.072577
1.000000 0.787219 0.072577
0.030261 0.905753 0.012866
0.030261 0.905753 0.012866
0.030261 0.905753 0.012866
0.095082 0.899963 0.014354
0.174656 0.892576 0.016534
0.264174 0.883888 0.019468
0.360568 0.874062 0.023231
0.460782 0.863300 0.027848
0.561833 0.851841 0.033289
0.660876 0.839972 0.039455
0.755267 0.828016 0.046173
0.842612 0.816336 0.053201
0.920797 0.805326 0.060225
0.987981 0.795402 0.066875
1.000000 0.787219 0.072577
1.000000 0.787219 0.072577
1.000000 0.787219 0.072577
0.030261 0.905753 0.012866
0.030261 0.905753 0.012866
0.030261 0.905753 0.012866
0.095082 0.899963 0.014354
0.174656 0.892576 0.016534
0.264174 0.883888 0.019468
0.360568 0.874062 0.023231
0.460782 0.863300 0.027848
0.561833 0.851841 0.033289
0.660876 0.839972 0.039455
0.755267 0.828016 0.046173
0.842612 0.816336 0.053201
0.920797 0.805326 0.060225
0.987981 0.795402 0.066875
1.000000 0.787219 0.072577
1.000000 0.787219 0.072577
1.000000 0.787219 0.072577
0.000000 0.131633 0.249905
0.000000 0.131633 0.249905
0.000000 0.131633 0.249905
0.013941 0.126256 0.241596
0.069968 0.119609 0.231475
0.136354 0.112063 0.220185
0.211890 0.103848 0.208133
0.295004 0.095199 0.195708
0.383731 0.086351 0.183274
0.475736 0.077540 0.171168
0.568353 0.068998 0.159694
0.658657 0.060948 0.149121
0.743537 0.053609 0.139684
0.819780 0.047188 0.131589
0.882426 0.042025 0.125189
0.882426 0.042025 0.125189
0.882426 0.042025 0.125189
0.000000 0.131633 0.249905
0.000000 0.131633 0.249905
0.000000 0.131633 0.249905
0.013941 0.126256 0.241596
0.069968 0.119609 0.231475
0.136354 0.112063 0.220185
0.211890 0.103848 0.208133
0.295004 0.095199 0.195708
0.383731 0.086351 0.183274
0.475736 0.077540 0.171168
0.568353 0.068998 0.159694
0.658657 0.060948 0.149121
0.743537 0.053609 0.139684
0.819780 0.047188 0.131589
0.882426 0.042025 0.125189
0.882426 0.042025 0.125189
0.882426 0.042025 0.125189
0.000000 0.131633 0.249905
0.000000 0.131633 0.249905
0.000000 0.131633 0.249905
0.013941 0.126256 0.241596
0.069968 0.119609 0.231475
0.136354 0.112063 0.220185
0.211890 0.103848 0.208133
0.295004 0.095199 0.195708
0.383731 0.086351 0.183274
0.475736 0.077540 0.171168
0.568353 0.068998 0.159694
0.658657 0.060948 0.149121
0.743537 0.053609 0.139684
0.819780 0.047188 0.131589
0.882426 0.042025 0.125189
0.882426 0.042025 0.125189
0.882426 0.042025 0.125189
0.000000 0.160210 0.222363
0.000000 0.160210 0.222363
0.000000 0.160210 0.222363
0.012456 0.155560 0.214406
0.071634 0.149796 0.204731
0.141383 0.143234 0.193963
0.220324 0.136069 0.182498
0.306736 0.128502 0.170714
0.398539 0.120738 0.158962
0.493305 0.112985 0.147561
0.588311 0.105447 0.136797
0.680605 0.098328 0.126917
0.767077 0.091823 0.118135
0.844536 0.086121 0.110630
0.908037 0.081529 0.104719
0.908037 0.081529 0.104719
0.908037 0.081529 0.104719
0.000000 0.202075 0.190037
0.000000 0.202075 0.190037
0.000000 0.202075 0.190037
0.011063 0.198191 0.182554
0.073828 0.193356 0.173479
0.147383 0.187826 0.163412
0.230151 0.181758 0.152735
0.320241 0.175317 0.141807
0.415432 0.168677 0.130962
0.513200 0.162013 0.120498
0.610760 0.155507 0.110675
0.705134 0.149336 0.101714
0.793225 0.143678 0.093796
0.871880 0.138703 0.087071
0.936190 0.134686 0.081803
0.936190 0.134686 0.081803
0.936190 0.134686 0.081803
0.000000 0.257188 0.155840
0.000000 0.257188 0.155840
0.000000 0.257188 0.155840
0.010292 0.253998 0.148949
0.076717 0.250001 0.140622
0.154127 0.245397 0.131425
0.240732 0.240306 0.121722
0.334461 0.234862 0.111853
0.432952 0.229206 0.102127
0.533579 0.223491 0.092814
0.633503 0.217873 0.084145
0.729734 0.212512 0.076307
0.819198 0.207568 0.069446
0.898801 0.203201 0.063672
0.963698 0.199662 0.059187
0.963698 0.199662 0.059187
0.963698 0.199662 0.059187
0.000000 0.324776 0.121903
0.000000 0.324776 0.121903
0.000000 0.324776 0.121903
0.010734 0.322130 0.115721
0.080650 0.318785 0.108288
0.161697 0.314892 0.100130
0.251870 0.310543 0.091588
0.348918 0.305843 0.082976
0.450341 0.300911 0.074574
0.553422 0.295878 0.066622
0.655276 0.290887 0.059314
0.752917 0.286084 0.052799
0.843316 0.281624 0.047179
0.923457 0.277658 0.042520
0.988593 0.274426 0.038954
0.988593 0.274426 0.038954
0.988593 0.274426 0.038954
0.000000 0.402587 0.090219
0.000000 0.402587 0.090219
0.000000 0.402587 0.090219
0.013019 0.400275 0.084858
0.086059 0.397322 0.078458
0.170307 0.393844 0.071498
0.263553 0.389913 0.064292
0.363374 0.385613 0.057123
0.467143 0.381050 0.050239
0.572064 0.376343 0.043843
0.675227 0.371627 0.038089
0.773666 0.367049 0.033080
0.864417 0.362763 0.028871
0.944566 0.358924 0.025480
1.000000 0.355778 0.022954
1.000000 0.355778 0.022954
1.000000 0.355778 0.022954
0.000000 0.487122 0.062511
0.000000 0.487122 0.062511
0.000000 0.487122 0.062511
0.017723 0.484899 0.058070
0.093372 0.482033 0.052827
0.180229 0.478624 0.047205
0.275892 0.474732 0.041488
0.377781 0.470433 0.035926
0.483161 0.465827 0.030729
0.589174 0.461033 0.026058
0.692904 0.456191 0.022022
0.791425 0.451454 0.018678
0.881863 0.446988 0.016027
0.961426 0.442966 0.014031
1.000000 0.439654 0.012652
1.000000 0.439654 0.012652
1.000000 0.439654 0.012652
0.000000 0.574083 0.040094
0.000000 0.574083 0.040094
0.000000 0.574083 0.040094
0.025254 0.571691 0.036653
0.102909 0.568592 0.032664
0.191691 0.564891 0.028492
0.289025 0.560644 0.024385
0.392197 0.555930 0.020556
0.498381 0.550855 0.017176
0.604682 0.545548 0.014361
0.708192 0.540164 0.012172
0.806051 0.534875 0.010612
0.895490 0.529868 0.009630
0.973864 0.525343 0.009128
1.000000 0.521606 0.008975
1.000000 0.521606 0.008975
1.000000 0.521606 0.008975
0.000000 0.658927 0.023754
0.000000 0.658927 0.023754
0.000000 0.658927 0.023754
0.035735 0.656121 0.021364
0.114765 0.652490 0.018691
0.204764 0.648155 0.016039
0.303011 0.643182 0.013618
0.406678 0.637664 0.011602
0.512871 0.631722 0.010119
0.618675 0.625505 0.009239
0.721216 0.619193 0.008972
0.817712 0.612985 0.009269
0.905520 0.607104 0.010020
0.982154 0.601782 0.011069
1.000000 0.597381 0.012186
1.000000 0.597381 0.012186
1.000000 0.597381 0.012186
0.000000 0.737444 0.013659
0.000000 0.737444 0.013659
0.000000 0.737444 0.013659
0.048911 0.734018 0.012335
0.128716 0.729602 0.010997
0.219270 0.724348 0.009883
0.317727 0.718343 0.009167
0.421174 0.711697 0.008982
0.526667 0.704558 0.009412
0.631293 0.697105 0.010482
0.732225 0.689547 0.012151
0.826775 0.682123 0.014314
0.912435 0.675094 0.016807
0.986890 0.668736 0.019411
1.000000 0.663481 0.021803
1.000000 0.663481 0.021803
1.000000 0.663481 0.021803
0.000000 0.806244 0.009323
0.000000 0.806244 0.009323
0.000000 0.806244 0.009323
0.064090 0.802055 0.009037
0.144152 0.796678 0.008998
0.234700 0.790309 0.009381
0.332790 0.783057 0.010321
0.435442 0.775064 0.011913
0.539687 0.766505 0.014200
0.642625 0.757595 0.017158
0.741488 0.748581 0.020699
0.833689 0.739744 0.024668
0.916862 0.731389 0.028843
0.988862 0.723840 0.032950
1.000000 0.717604 0.036572
1.000000 0.717604 0.036572
1.000000 0.717604 0.036572
0.015152 0.863071 0.009638
0.015152 0.863071 0.009638
0.015152 0.863071 0.009638
0.080132 0.858056 0.010315
0.160061 0.851641 0.011479
0.250194 0.844072 0.013247
0.347516 0.835487 0.015720
0.448999 0.826058 0.018955
0.551662 0.815994 0.022954
0.652631 0.805544 0.027655
0.749200 0.794999 0.032924
0.838887 0.784681 0.038555
0.919458 0.774940 0.044279
0.988934 0.766151 0.049769
1.000000 0.758898 0.054523
1.000000 0.758898 0.054523
1.000000 0.758898 0.054523
0.030261 0.905753 0.012866
0.030261 0.905753 0.012866
0.030261 0.905753 0.012866
0.095082 0.899963 0.014354
0.174656 0.892576 0.016534
0.264174 0.883888 0.019468
0.360568 0.874062 0.023231
0.460782 0.863300 0.027848
0.561833 0.851841 0.033289
0.660876 0.839972 0.039455
0.755267 0.828016 0.046173
0.842612 0.816336 0.053201
0.920797 0.805326 0.060225
0.987981 0.795402 0.066875
1.000000 0.787219 0.072577
1.000000 0.787219 0.072577
1.000000 0.787219 0.072577
0.030261 0.905753 0.012866
0.030261 0.905753 0.012866
0.030261 0.905753 0.012866
0.095082 0.899963 0.014354
0.174656 0.892576 0.016534
0.264174 0.883888 0.019468
0.360568 0.874062 0.023231
0.460782 0.863300 0.027848
0.561833 0.851841 0.033289
0.660876 0.839972 0.039455
0.755267 0.828016 0.046173
0.842612 0.816336 0.053201
0.920797 0.805326 0.060225
0.987981 0.795402 0.066875
1.000000 0.787219 0.072577
1.000000 0.787219 0.072577
1.000000 0.787219 0.072577
0.030261 0.905753 0.012866
0.030261 0.905753 0.012866
0.030261 0.905753 0.012866
0.095082 0.899963 0.014354
0.174656 0.892576 0.016534
0.264174 0.883888 0.019468
0.360568 0.874062 0.023231
0.460782 0.863300 0.027848
0.561833 0.851841 0.033289
0.660876 0.839972 0.039455
0.755267 0.828016 0.046173
0.842612 0.816336 0.053201
0.920797 0.805326 0.060225
0.987981 0.795402 0.066875
1.000000 0.787219 0.072577
1.000000 0.787219 0.072577
1.000000 0.787219 0.072577
0.000000 0.131633 0.249905
0.000000 0.131633 0.249905
0.000000 0.131633 0.249905
0.013941 0.126256 0.241596
0.069968 0.119609 0.231475
0.136354 0.112063 0.220185
0.211890 0.103848 0.208133
0.295004 0.095199 0.195708
0.383731 0.086351 0.183274
0.475736 0.077540 0.171168
0.568353 0.068998 0.159694
0.658657 0.060948 0.149121
0.743537 0.053609 0.139684
0.819780 0.047188 0.131589
0.882426 0.042025 0.125189
0.882426 0.042025 0.125189
0.882426 0.042025 0.125189
0.000000 0.131633 0.249905
0.000000 0.131633 0.249905
0.000000 0.131633 0.249905
0.013941 0.126256 0.241596
0.069968 0.119609 0.231475
0.136354 0.112063 0.220185
0.211890 0.103848 0.208133
0.295004 0.095199 0.195708
0.383731 0.086351 0.183274
0.475736 0.077540 0.171168
0.568353 0.068998 0.159694
0.658657 0.060948 0.149121
0.743537 0.053609 0.139684
0.819780 0.047188 0.131589
0.882426 0.042025 0.125189
0.882426 0.042025 0.125189
0.882426 0.042025 0.125189
0.000000 0.131633 0.249905
0.000000 0.131633 0.249905
0.000000 0.131633 0.249905
0.013941 0.126256 0.241596
0.069968 0.119609 0.231475
0.136354 0.112063 0.220185
0.211890 0.103848 0.208133
0.295004 0.095199 0.195708
0.383731 0.086351 0.183274
0.475736 0.077540 0.171168
0.568353 0.068998 0.159694
0.658657 0.060948 0.149121
0.743537 0.053609 0.139684
0.819780 0.047188 0.131589
0.882426 0.042025 0.125189
0.882426 0.042025 0.125189
0.882426 0.042025 0.125189
0.000000 0.160210 0.222363
0.000000 0.160210 0.222363
0.000000 0.160210 0.222363
0.012456 0.155560 0.214406
0.071634 0.149796 0.204731
0.141383 0.143234 0.193963
0.220324 0.136069 0.182498
0.306736 0.128502 0.170714
0.398539 0.120738 0.158962
0.493305 0.112985 0.147561
0.588311 0.105447 0.136797
0.680605 0.098328 0.126917
0.767077 0.091823 0.118135
0.844536 0.086121 0.110630
0.908037 0.081529 0.104719
0.908037 0.081529 0.104719
0.908037 0.081529 0.104719
0.000000 0.202075 0.190037
0.000000 0.202075 0.190037
0.000000 0.202075 0.190037
0.011063 0.198191 0.182554
0.073828 0.193356 0.173479
0.147383 0.187826 0.163412
0.230151 0.181758 0.152735
0.320241 0.175317 0.141807
0.415432 0.168677 0.130962
0.513200 0.162013 0.120498
0.610760 0.155507 0.110675
0.705134 0.149336 0.101714
0.793225 0.143678 0.093796
0.871880 0.138703 0.087071
0.936190 0.134686 0.081803
0.936190 0.134686 0.081803
0.936190 0.134686 0.081803
0.000000 0.257188 0.155840
0.000000 0.257188 0.155840
0.000000 0.257188 0.155840
0.010292 0.253998 0.148949
0.076717 0.250001 0.140622
0.154127 0.245397 0.131425
0.240732 0.240306 0.121722
0.334461 0.234862 0.111853
0.432952 0.229206 0.102127
0.533579 0.223491 0.092814
0.633503 0.217873 0.084145
0.729734 0.212512 0.076307
0.819198 0.207568 0.069446
0.898801 0.203201 0.063672
0.963698 0.199662 0.059187
0.963698 0.199662 0.059187
0.963698 0.199662 0.059187
0.000000 0.324776 0.121903
0.000000 0.324776 0.121903
0.000000 0.324776 0.121903
0.010734 0.322130 0.115721
0.080650 0.318785 0.108288
0.161697 0.314892 0.100130
0.251870 0.310543 0.091588
0.348918 0.305843 0.082976
0.450341 0.300911 0.074574
0.553422 0.295878 0.066622
0.655276 0.290887 0.059314
0.752917 0.286084 0.052799
0.843316 0.281624 0.047179
0.923457 0.277658 0.042520
0.988593 0.274426 0.038954
0.988593 0.274426 0.038954
0.988593 0.274426 0.038954
0.000000 0.402587 0.090219
0.000000 0.402587 0.090219
0.000000 0.402587 0.090219
0.013019 0.400275 0.084858
0.086059 0.397322 0.078458
0.170307 0.393844 0.071498
0.263553 0.389913 0.064292
0.363374 0.385613 0.057123
0.467143 0.381050 0.050239
0.572064 0.376343 0.043843
0.675227 0.371627 0.038089
0.773666 0.367049 0.033080
0.864417 0.362763 0.028871
0.944566 0.358924 0.025480
1.000000 0.355778 0.022954
1.000000 0.355778 0.022954
1.000000 0.355778 0.022954
0.000000 0.487122 0.062511
0.000000 0.487122 0.062511
0.000000 0.487122 0.062511
0.017723 0.484899 0.058070
0.093372 0.482033 0.052827
0.180229 0.478624 0.047205
0.275892 0.474732 0.041488
0.377781 0.470433 0.035926
0.483161 0.465827 0.030729
0.589174 0.461033 0.026058
0.692904 0.456191 0.022022
0.791425 0.451454 0.018678
0.881863 0.446988 0.016027
0.961426 0.442966 0.014031
1.000000 0.439654 0.012652
1.000000 0.439654 0.012652
1.000000 0.439654 0.012652
0.000000 0.574083 0.040094
0.000000 0.574083 0.040094
0.000000 0.574083 0.040094
0.025254 0.571691 0.036653
0.102909 0.568592 0.032664
0.191691 0.564891 0.028492
0.289025 0.560644 0.024385
0.392197 0.555930 0.020556
0.498381 0.550855 0.017176
0.604682 0.545548 0.014361
0.708192 0.540164 0.012172
0.806051 0.534875 0.010612
0.895490 0.529868 0.009630
0.973864 0.525343 0.009128
1.000000 0.521606 0.008975
1.000000 0.521606 0.008975
1.000000 0.521606 0.008975
0.000000 0.658927 0.023754
0.000000 0.658927 0.023754
0.000000 0.658927 0.023754
0.035735 0.656121 0.021364
0.114765 0.652490 0.018691
0.204764 0.648155 0.016039
0.303011 0.643182 0.013618
0.406678 0.637664 0.011602
0.512871 0.631722 0.010119
0.618675 0.625505 0.009239
0.721216 0.619193 0.008972
0.817712 0.612985 0.009269
0.905520 0.607104 0.010020
0.982154 0.601782 0.011069
1.000000 0.597381 0.012186
1.000000 0.597381 0.012186
1.000000 0.597381 0.012186
0.000000 0.737444 0.013659
0.000000 0.737444 0.013659
0.000000 0.737444 0.013659
0.048911 0.734018 0.012335
0.128716 0.729602 0.010997
0.219270 0.724348 0.009883
0.317727 0.718343 0.009167
0.421174 0.711697 0.008982
0.526667 0.704558 0.009412
0.631293 0.697105 0.010482
0.732225 0.689547 0.012151
0.826775 0.682123 0.014314
0.912435 0.675094 0.016807
0.986890 0.668736 0.019411
1.000000 0.663481 0.021803
1.000000 0.663481 0.021803
1.000000 0.663481 0.021803
0.000000 0.806244 0.009323
0.000000 0.806244 0.009323
0.000000 0.806244 0.009323
0.064090 0.802055 0.009037
0.144152 0.796678 0.008998
0.234700 0.790309 0.009381
0.332790 0.783057 0.010321
0.435442 0.775064 0.011913
0.539687 0.766505 0.014200
0.642625 0.757595 0.017158
0.741488 0.748581 0.020699
0.833689 0.739744 0.024668
0.916862 0.731389 0.028843
0.988862 0.723840 0.032950
1.000000 0.717604 0.036572
1.000000 0.717604 0.036572
1.000000 0.717604 0.036572
0.015152 0.863071 0.009638
0.015152 0.863071 0.009638
0.015152 0.863071 0.009638
0.080132 0.858056 0.010315
0.160061 0.851641 0.011479
0.250194 0.844072 0.013247
0.347516 0.835487 0.015720
0.448999 0.826058 0.018955
0.551662 0.815994 0.022954
0.652631 0.805544 0.027655
0.749200 0.794999 0.032924
0.838887 0.784681 0.038555
0.919458 0.774940 0.044279
0.988934 0.766151 0.049769
1.000000 0.758898 0.054523
1.000000 0.758898 0.054523
1.000000 0.758898 0.054523
0.030261 0.905753 0.012866
0.030261 0.905753 0.012866
0.030261 0.905753 0.012866
0.095082 0.899963 0.014354
0.174656 0.892576 0.016534
0.264174 0.883888 0.019468
0.360568 0.874062 0.023231
0.460782 0.863300 0.027848
0.561833 0.851841 0.033289
0.660876 0.839972 0.039455
0.755267 0.828016 0.046173
0.842612 0.816336 0.053201
0.920797 0.805326 0.060225
0.987981 0.795402 0.066875
1.000000 0.787219 0.072577
1.000000 0.787219 0.072577
1.000000 0.787219 0.072577
0.030261 0.905753 0.012866
0.030261 0.905753 0.012866
0.030261 0.905753 0.012866
0.095082 0.899963 0.014354
0.174656 0.892576 0.016534
0.264174 0.883888 0.019468
0.360568 0.874062 0.023231
0.460782 0.863300 0.027848
0.561833 0.851841 0.033289
0.660876 0.839972 0.039455
0.755267 0.828016 0.046173
0.842612 0.816336 0.053201
0.920797 0.805326 0.060225
0.987981 0.795402 0.066875
1.000000 0.787219 0.072577
1.000000 0.787219 0.072577
1.000000 0.787219 0.072577
0.030261 0.905753 0.012866
0.030261 0.905753 0.012866
0.030261 0.905753 0.012866
0.095082 0.899963 0.014354
0.174656 0.892576 0.016534
0.264174 0.883888 0.019468
0.360568 0.874062 0.023231
0.460782 0.863300 0.027848
0.561833 0.851841 0.033289
0.660876 0.839972 0.039455
0.755267 0.828016 0.046173
0.842612 0.816336 0.053201
0.920797 0.805326 0.060225
0.987981 0.795402 0.066875
1.000000 0.787219 0.072577
1.000000 0.787219 0.072577
1.000000 0.787219 0.072577
0.000000 0.129808 0.291420
0.000000 0.129808 0.291420
0.000000 0.129808 0.291420
0.013780 0.124429 0.283936
0.070135 0.117780 0.274809
0.136872 0.110234 0.264614
0.212764 0.102021 0.253716
0.296224 0.093376 0.242462
0.385275 0.084535 0.231184
0.477572 0.075733 0.220186
0.570444 0.067201 0.209746
0.660960 0.059165 0.200112
0.746012 0.051839 0.191500
0.822389 0.045431 0.184104
0.885129 0.040280 0.178251
0.885129 0.040280 0.178251
0.885129 0.040280 0.178251
0.000000 0.129808 0.291420
