frontend/public/luts/cyberpunk.cube
TITLE "ZipZop cyberpunk"
LUT_3D_SIZE 9
DOMAIN_MIN 0.0 0.0 0.0
DOMAIN_MAX 1.0 1.0 1.0
0.000000 0.131633 0.249905
0.000000 0.131633 0.249905
0.069968 0.119609 0.231475
0.211890 0.103848 0.208133
0.383731 0.086351 0.183274
0.568353 0.068998 0.159694
0.743537 0.053609 0.139684
0.882426 0.042025 0.125189
0.882426 0.042025 0.125189
0.000000 0.131633 0.249905
0.000000 0.131633 0.249905
0.069968 0.119609 0.231475
0.211890 0.103848 0.208133
0.383731 0.086351 0.183274
0.568353 0.068998 0.159694
0.743537 0.053609 0.139684
0.882426 0.042025 0.125189
0.882426 0.042025 0.125189
0.000000 0.202075 0.190037
0.000000 0.202075 0.190037
0.073828 0.193356 0.173479
0.230151 0.181758 0.152735
0.415432 0.168677 0.130962
0.610760 0.155507 0.110675
0.793225 0.143678 0.093796
0.936190 0.134686 0.081803
0.936190 0.134686 0.081803
0.000000 0.324776 0.121903
0.000000 0.324776 0.121903
0.080650 0.318785 0.108288
0.251870 0.310543 0.091588
0.450341 0.300911 0.074574
0.655276 0.290887 0.059314
0.843316 0.281624 0.047179
0.988593 0.274426 0.038954
0.988593 0.274426 0.038954
0.000000 0.487122 0.062511
0.000000 0.487122 0.062511
0.093372 0.482033 0.052827
0.275892 0.474732 0.041488
0.483161 0.465827 0.030729
0.692904 0.456191 0.022022
0.881863 0.446988 0.016027
1.000000 0.439654 0.012652
1.000000 0.439654 0.012652
0.000000 0.658927 0.023754
0.000000 0.658927 0.023754
0.114765 0.652490 0.018691
0.303011 0.643182 0.013618
0.512871 0.631722 0.010119
0.721216 0.619193 0.008972
0.905520 0.607104 0.010020
1.000000 0.597381 0.012186
1.000000 0.597381 0.012186
0.000000 0.806244 0.009323
0.000000 0.806244 0.009323
0.144152 0.796678 0.008998
0.332790 0.783057 0.010321
0.539687 0.766505 0.014200
0.741488 0.748581 0.020699
0.916862 0.731389 0.028843
1.000000 0.717604 0.036572
1.000000 0.717604 0.036572
0.030261 0.905753 0.012866
0.030261 0.905753 0.012866
0.174656 0.892576 0.016534
0.360568 0.874062 0.023231
0.561833 0.851841 0.033289
0.755267 0.828016 0.046173
0.920797 0.805326 0.060225
1.000000 0.787219 0.072577
1.000000 0.787219 0.072577
0.030261 0.905753 0.012866
0.030261 0.905753 0.012866
0.174656 0.892576 0.016534
0.360568 0.874062 0.023231
0.561833 0.851841 0.033289
0.755267 0.828016 0.046173
0.920797 0.805326 0.060225
1.000000 0.787219 0.072577
1.000000 0.787219 0.072577
0.000000 0.131633 0.249905
0.000000 0.131633 0.249905
0.069968 0.119609 0.231475
0.211890 0.103848 0.208133
0.383731 0.086351 0.183274
0.568353 0.068998 0.159694
0.743537 0.053609 0.139684
0.882426 0.042025 0.125189
0.882426 0.042025 0.125189
0.000000 0.131633 0.249905
0.000000 0.131633 0.249905
0.069968 0.119609 0.231475
0.211890 0.103848 0.208133
0.383731 0.086351 0.183274
0.568353 0.068998 0.159694
0.743537 0.053609 0.139684
0.882426 0.042025 0.125189
0.882426 0.042025 0.125189
0.000000 0.202075 0.190037
0.000000 0.202075 0.190037
0.073828 0.193356 0.173479
0.230151 0.181758 0.152735
0.415432 0.168677 0.130962
0.610760 0.155507 0.110675
0.793225 0.143678 0.093796
0.936190 0.134686 0.081803
0.936190 0.134686 0.081803
0.000000 0.324776 0.121903
0.000000 0.324776 0.121903
0.080650 0.318785 0.108288
0.251870 0.310543 0.091588
0.450341 0.300911 0.074574
0.655276 0.290887 0.059314
0.843316 0.281624 0.047179
0.988593 0.274426 0.038954
0.988593 0.274426 0.038954
0.000000 0.487122 0.062511
0.000000 0.487122 0.062511
0.093372 0.482033 0.052827
0.275892 0.474732 0.041488
0.483161 0.465827 0.030729
0.692904 0.456191 0.022022
0.881863 0.446988 0.016027
1.000000 0.439654 0.012652
1.000000 0.439654 0.012652
0.000000 0.658927 0.023754
0.000000 0.658927 0.023754
0.114765 0.652490 0.018691
0.303011 0.643182 0.013618
0.512871 0.631722 0.010119
0.721216 0.619193 0.008972
0.905520 0.607104 0.010020
1.000000 0.597381 0.012186
1.000000 0.597381 0.012186
0.000000 0.806244 0.009323
0.000000 0.806244 0.009323
0.144152 0.796678 0.008998
0.332790 0.783057 0.010321
0.539687 0.766505 0.014200
0.741488 0.748581 0.020699
0.916862 0.731389 0.028843
1.000000 0.717604 0.036572
1.000000 0.717604 0.036572
0.030261 0.905753 0.012866
0.030261 0.905753 0.012866
0.174656 0.892576 0.016534
0.360568 0.874062 0.023231
0.561833 0.851841 0.033289
0.755267 0.828016 0.046173
0.920797 0.805326 0.060225
1.000000 0.787219 0.072577
1.000000 0.787219 0.072577
0.030261 0.905753 0.012866
0.030261 0.905753 0.012866
0.174656 0.892576 0.016534
0.360568 0.874062 0.023231
0.561833 0.851841 0.033289
0.755267 0.828016 0.046173
0.920797 0.805326 0.060225
1.000000 0.787219 0.072577
1.000000 0.787219 0.072577
0.000000 0.127552 0.343454
0.000000 0.127552 0.343454
0.070341 0.115521 0.329052
0.213836 0.099766 0.310687
0.387166 0.082294 0.290975
0.573002 0.064987 0.272127
0.749039 0.049657 0.256011
0.888431 0.038130 0.244263
0.888431 0.038130 0.244263
0.000000 0.127552 0.343454
0.000000 0.127552 0.343454
0.070341 0.115521 0.329052
0.213836 0.099766 0.310687
0.387166 0.082294 0.290975
0.573002 0.064987 0.272127
0.749039 0.049657 0.256011
0.888431 0.038130 0.244263
0.888431 0.038130 0.244263
0.000000 0.199130 0.296354
0.000000 0.199130 0.296354
0.074258 0.190366 0.283164
0.231889 0.178725 0.266535
0.418365 0.165615 0.248950
0.614611 0.152437 0.232434
0.797667 0.140618 0.218587
0.940932 0.131646 0.208683
0.940932 0.131646 0.208683
0.000000 0.322773 0.241591
0.000000 0.322773 0.241591
0.081322 0.316688 0.230482
0.253503 0.308340 0.216767
0.452783 0.298609 0.202684
0.658251 0.288506 0.189937
0.846534 0.279190 0.179705
0.991847 0.271963 0.172706
0.991847 0.271963 0.172706
0.000000 0.485443 0.192618
0.000000 0.485443 0.192618
0.094535 0.480207 0.184479
0.277630 0.472728 0.174869
0.485278 0.463645 0.165639
0.695125 0.453852 0.158045
0.883941 0.444526 0.152695
1.000000 0.437108 0.149586
1.000000 0.437108 0.149586
0.000000 0.656808 0.159568
0.000000 0.656808 0.159568
0.116653 0.650169 0.155091
0.305089 0.640614 0.150488
0.514898 0.628897 0.147118
0.722917 0.616131 0.145684
0.906693 0.603848 0.146119
1.000000 0.593988 0.147591
1.000000 0.593988 0.147591
0.001869 0.803078 0.146247
0.001869 0.803078 0.146247
0.146891 0.793263 0.145645
0.335373 0.779330 0.146309
0.541834 0.762451 0.149059
0.742922 0.744220 0.154014
0.917422 0.726769 0.160415
1.000000 0.712800 0.166588
1.000000 0.712800 0.166588
0.033949 0.901374 0.148080
0.033949 0.901374 0.148080
0.178172 0.887910 0.150812
0.363663 0.869036 0.155988
0.564198 0.846434 0.163958
0.756625 0.822247 0.174337
0.921015 0.799251 0.185784
1.000000 0.780921 0.195921
1.000000 0.780921 0.195921
0.033949 0.901374 0.148080
0.033949 0.901374 0.148080
0.178172 0.887910 0.150812
0.363663 0.869036 0.155988
0.564198 0.846434 0.163958
0.756625 0.822247 0.174337
0.921015 0.799251 0.185784
1.000000 0.780921 0.195921
1.000000 0.780921 0.195921
0.000000 0.122203 0.470080
0.000000 0.122203 0.470080
0.070831 0.110168 0.460744
0.216345 0.094425 0.448629
0.391581 0.076994 0.435359
0.578960 0.059755 0.422407
0.756076 0.044509 0.411121
0.896094 0.033061 0.402765
0.896094 0.033061 0.402765
0.000000 0.122203 0.470080
0.000000 0.122203 0.470080
0.070831 0.110168 0.460744
0.216345 0.094425 0.448629
0.391581 0.076994 0.435359
0.578960 0.059755 0.422407
0.756076 0.044509 0.411121
0.896094 0.033061 0.402765
0.896094 0.033061 0.402765
0.000000 0.195247 0.439007
0.000000 0.195247 0.439007
0.074840 0.186431 0.430023
0.234143 0.174739 0.418513
0.422139 0.161599 0.406112
0.619543 0.148418 0.394235
0.803330 0.136620 0.384088
0.946958 0.127678 0.376714
0.946958 0.127678 0.376714
0.000000 0.320100 0.400849
0.000000 0.320100 0.400849
0.082241 0.313899 0.392815
0.255642 0.305417 0.382741
0.455936 0.295563 0.372194
0.662057 0.285364 0.362439
0.850618 0.275986 0.354428
0.995947 0.268726 0.348830
0.995947 0.268726 0.348830
0.000000 0.483167 0.364509
0.000000 0.483167 0.364509
0.096122 0.477743 0.358189
0.279932 0.470039 0.350572
0.488031 0.460729 0.343044
0.697968 0.450738 0.336608
0.886557 0.441256 0.331832
1.000000 0.433734 0.328866
1.000000 0.433734 0.328866
0.000000 0.653928 0.337924
0.000000 0.653928 0.337924
0.119215 0.647031 0.334007
0.307859 0.637157 0.329750
0.517558 0.625111 0.326248
0.725104 0.612043 0.324137
0.908147 0.599512 0.323500
1.000000 0.589478 0.323857
1.000000 0.589478 0.323857
0.005559 0.798803 0.325149
0.005559 0.798803 0.325149
0.150590 0.788665 0.323978
0.338827 0.774331 0.323509
0.544672 0.757030 0.324481
0.744782 0.738405 0.327111
0.918095 0.720623 0.330961
1.000000 0.706415 0.334889
1.000000 0.706415 0.334889
0.038938 0.895489 0.324049
0.038938 0.895489 0.324049
0.182905 0.881656 0.325350
0.367805 0.862316 0.328264
0.567338 0.839221 0.333197
0.758401 0.814570 0.339994
0.921259 0.791179 0.347760
1.000000 0.772562 0.354791
1.000000 0.772562 0.354791
0.038938 0.895489 0.324049
0.038938 0.895489 0.324049
0.182905 0.881656 0.325350
0.367805 0.862316 0.328264
0.567338 0.839221 0.333197
0.758401 0.814570 0.339994
0.921259 0.791179 0.347760
1.000000 0.772562 0.354791
1.000000 0.772562 0.354791
0.000000 0.116243 0.616387
0.000000 0.116243 0.616387
0.071381 0.104209 0.612419
0.219090 0.088490 0.606902
0.396388 0.071114 0.600404
0.585426 0.053959 0.593617
0.763688 0.038816 0.587350
0.904364 0.027462 0.582496
0.904364 0.027462 0.582496
0.000000 0.116243 0.616387
0.000000 0.116243 0.616387
0.071381 0.104209 0.612419
0.219090 0.088490 0.606902
0.396388 0.071114 0.600404
0.585426 0.053959 0.593617
0.763688 0.038816 0.587350
0.904364 0.027462 0.582496
0.904364 0.027462 0.582496
0.000000 0.190895 0.602237
0.000000 0.190895 0.602237
0.075514 0.182026 0.597660
0.236627 0.170287 0.591492
0.426255 0.157123 0.584462
0.624889 0.143948 0.577349
0.809437 0.132182 0.570964
0.953427 0.123280 0.566131
0.953427 0.123280 0.566131
0.000000 0.317060 0.581357
0.000000 0.317060 0.581357
0.083322 0.310736 0.576473
0.258026 0.302114 0.570093
0.459390 0.292134 0.563083
0.666177 0.281838 0.556259
0.854995 0.272398 0.550361
1.000000 0.265108 0.546047
1.000000 0.265108 0.546047
0.000000 0.480532 0.557737
0.000000 0.480532 0.557737
0.097979 0.474907 0.553166
0.282529 0.466959 0.547409
0.491072 0.457408 0.541376
0.701049 0.447205 0.535828
0.889331 0.437559 0.531331
1.000000 0.429928 0.528250
1.000000 0.429928 0.528250
0.000000 0.650584 0.537000
0.000000 0.650584 0.537000
0.122190 0.643406 0.533432
0.311013 0.633186 0.529201
0.520528 0.620783 0.525152
0.727488 0.607389 0.521886
0.909661 0.594590 0.519694
1.000000 0.584368 0.518535
1.000000 0.584368 0.518535
0.009860 0.793871 0.523622
0.009860 0.793871 0.523622
0.154860 0.783383 0.521543
0.342770 0.768610 0.519453
0.547869 0.750849 0.518042
0.746830 0.731794 0.517684
0.918768 0.713652 0.518332
1.000000 0.699185 0.519486
1.000000 0.699185 0.519486
0.044708 0.888741 0.518331
0.044708 0.888741 0.518331
0.188350 0.874502 0.517763
0.372537 0.854653 0.517798
0.570894 0.831020 0.518948
0.760379 0.805860 0.521356
0.921476 0.782038 0.524663
1.000000 0.763109 0.527959
1.000000 0.763109 0.527959
0.044708 0.888741 0.518331
0.044708 0.888741 0.518331
0.188350 0.874502 0.517763
0.372537 0.854653 0.517798
0.570894 0.831020 0.518948
0.760379 0.805860 0.521356
0.921476 0.782038 0.524663
1.000000 0.763109 0.527959
1.000000 0.763109 0.527959
0.000000 0.110281 0.768069
0.000000 0.110281 0.768069
0.071940 0.098256 0.769179
0.221787 0.082570 0.769882
0.401083 0.065259 0.769732
0.591717 0.048199 0.768687
0.771069 0.033168 0.767059
0.912358 0.021915 0.765418
0.912358 0.021915 0.765418
0.000000 0.110281 0.768069
0.000000 0.110281 0.768069
0.071940 0.098256 0.769179
0.221787 0.082570 0.769882
0.401083 0.065259 0.769732
0.591717 0.048199 0.768687
0.771069 0.033168 0.767059
0.912358 0.021915 0.765418
0.912358 0.021915 0.765418
0.000000 0.186514 0.769867
0.000000 0.186514 0.769867
0.076221 0.177600 0.769408
0.239086 0.165823 0.768201
0.430283 0.152646 0.766120
0.630083 0.139488 0.763349
0.815335 0.127762 0.760345
0.959644 0.118907 0.757765
0.959644 0.118907 0.757765
0.000000 0.313958 0.764988
0.000000 0.313958 0.764988
0.084465 0.307518 0.762965
0.260416 0.298766 0.759899
0.462787 0.288668 0.756004
0.670178 0.278286 0.751687
0.859194 0.268794 0.747524
1.000000 0.261481 0.744204
1.000000 0.261481 0.744204
0.000000 0.477796 0.752667
0.000000 0.477796 0.752667
0.099933 0.471976 0.749556
0.285168 0.463794 0.745279
0.494090 0.454012 0.740318
0.704044 0.443607 0.735234
0.891963 0.433806 0.730638
1.000000 0.426073 0.727150
1.000000 0.426073 0.727150
0.000000 0.647099 0.736357
0.000000 0.647099 0.736357
0.125296 0.639648 0.732848
0.314241 0.629090 0.728263
0.523509 0.616341 0.723243
0.729820 0.602631 0.718400
0.911067 0.589574 0.714274
1.000000 0.579171 0.711308
1.000000 0.579171 0.711308
0.014367 0.788764 0.721099
0.014367 0.788764 0.721099
0.159293 0.777931 0.717821
0.346819 0.762729 0.713730
0.551109 0.744518 0.709514
0.748858 0.725044 0.705744
0.919365 0.706551 0.702811
1.000000 0.691833 0.700901
1.000000 0.691833 0.700901
0.050708 0.881790 0.710641
0.050708 0.881790 0.710641
0.193981 0.867153 0.707915
0.377399 0.846804 0.704691
0.574517 0.822642 0.701636
0.762360 0.796984 0.699232
0.921640 0.772741 0.697700
1.000000 0.753506 0.696972
1.000000 0.753506 0.696972
0.050708 0.881790 0.710641
0.050708 0.881790 0.710641
0.193981 0.867153 0.707915
0.377399 0.846804 0.704691
0.574517 0.822642 0.701636
0.762360 0.796984 0.699232
0.921640 0.772741 0.697700
1.000000 0.753506 0.696972
1.000000 0.753506 0.696972
0.000000 0.104930 0.908682
0.000000 0.104930 0.908682
0.072451 0.092918 0.914106
0.224170 0.077269 0.920070
0.405207 0.060026 0.925262
0.597220 0.043061 0.929013
0.777503 0.028136 0.931228
0.919306 0.016981 0.932224
0.919306 0.016981 0.932224
0.000000 0.104930 0.908682
0.000000 0.104930 0.908682
0.072451 0.092918 0.914106
0.224170 0.077269 0.920070
0.405207 0.060026 0.925262
0.597220 0.043061 0.929013
0.777503 0.028136 0.931228
0.919306 0.016981 0.932224
0.919306 0.016981 0.932224
0.000000 0.182560 0.923972
0.000000 0.182560 0.923972
0.076885 0.173611 0.926964
0.241275 0.161808 0.929889
0.433827 0.148627 0.931892
0.634621 0.135492 0.932659
0.820457 0.123811 0.932368
0.965015 0.115005 0.931563
0.965015 0.115005 0.931563
0.000000 0.311122 0.932374
0.000000 0.311122 0.932374
0.085548 0.304583 0.932672
0.262571 0.295722 0.932260
0.465791 0.285528 0.930801
0.673670 0.275077 0.928376
0.862817 0.265546 0.925446
1.000000 0.258218 0.922773
1.000000 0.258218 0.922773
0.000000 0.475255 0.928987
0.000000 0.475255 0.928987
0.101774 0.469266 0.926940
0.287575 0.460882 0.923668
0.496784 0.450900 0.919310
0.706664 0.440323 0.914284
0.894207 0.430391 0.909275
1.000000 0.422572 0.905175
1.000000 0.422572 0.905175
0.000000 0.643852 0.915441
0.000000 0.643852 0.915441
0.128201 0.636161 0.911738
0.317207 0.625309 0.906512
0.526200 0.612258 0.900261
0.731873 0.598272 0.893640
0.912240 0.584991 0.887454
1.000000 0.574432 0.882619
1.000000 0.574432 0.882619
0.018593 0.784031 0.897406
0.018593 0.784031 0.897406
0.163415 0.772895 0.892805
0.350549 0.757315 0.886593
0.554057 0.738709 0.879500
0.750665 0.718867 0.872305
0.919837 0.700067 0.865833
1.000000 0.685129 0.860925
1.000000 0.685129 0.860925
0.056295 0.875378 0.881479
0.056295 0.875378 0.881479
0.199200 0.860390 0.876567
0.381878 0.839599 0.870093
0.577830 0.814971 0.862902
0.764145 0.788875 0.855816
0.921744 0.764261 0.849616
1.000000 0.744758 0.845027
1.000000 0.744758 0.845027
0.056295 0.875378 0.881479
0.056295 0.875378 0.881479
0.199200 0.860390 0.876567
0.381878 0.839599 0.870093
0.577830 0.814971 0.862902
0.764145 0.788875 0.855816
0.921744 0.764261 0.849616
1.000000 0.744758 0.845027
1.000000 0.744758 0.845027
0.000000 0.100846 1.000000
0.000000 0.100846 1.000000
0.072850 0.088849 1.000000
0.225966 0.073234 1.000000
0.408298 0.056047 1.000000
0.601330 0.039160 1.000000
0.782292 0.024323 1.000000
0.924464 0.013245 1.000000
0.924464 0.013245 1.000000
0.000000 0.100846 1.000000
0.000000 0.100846 1.000000
0.072850 0.088849 1.000000
0.225966 0.073234 1.000000
0.408298 0.056047 1.000000
0.601330 0.039160 1.000000
0.782292 0.024323 1.000000
0.924464 0.013245 1.000000
0.924464 0.013245 1.000000
0.000000 0.179529 1.000000
0.000000 0.179529 1.000000
0.077413 0.170557 1.000000
0.242937 0.158739 1.000000
0.436489 0.145561 1.000000
0.638007 0.132450 1.000000
0.824258 0.120807 1.000000
0.968984 0.112042 1.000000
0.968984 0.112042 1.000000
0.000000 0.308926 1.000000
0.000000 0.308926 1.000000
0.086413 0.302316 1.000000
0.264223 0.293376 1.000000
0.468058 0.283114 1.000000
0.676275 0.272616 1.000000
0.865490 0.263061 1.000000
1.000000 0.255725 1.000000
1.000000 0.255725 1.000000
0.000000 0.473263 1.000000
0.000000 0.473263 1.000000
0.103235 0.467148 1.000000
0.289438 0.458616 1.000000
0.498832 0.448487 1.000000
0.708621 0.437784 1.000000
0.895847 0.427757 1.000000
1.000000 0.419876 1.000000
1.000000 0.419876 1.000000
0.000000 0.641300 1.000000
0.000000 0.641300 1.000000
0.130495 0.633430 1.000000
0.319516 0.622358 1.000000
0.528264 0.609081 1.000000
0.733416 0.594891 1.000000
0.913080 0.581444 1.000000
1.000000 0.570769 1.000000
1.000000 0.570769 1.000000
0.021935 0.780325 1.000000
0.021935 0.780325 1.000000
0.166655 0.768961 1.000000
0.353457 0.753097 1.000000
0.556336 0.734196 1.000000
0.752036 0.714078 0.997902
0.920159 0.695048 0.988521
1.000000 0.679946 0.981166
1.000000 0.679946 0.981166
0.060689 0.870376 1.000000
0.060689 0.870376 1.000000
0.203289 0.855123 1.000000
0.385372 0.834000 0.994735
0.580399 0.809023 0.984156
0.765512 0.782597 0.973266
0.921797 0.757705 0.963295
1.000000 0.738000 0.955600
1.000000 0.738000 0.955600
0.060689 0.870376 1.000000
0.060689 0.870376 1.000000
0.203289 0.855123 1.000000
0.385372 0.834000 0.994735
0.580399 0.809023 0.984156
0.765512 0.782597 0.973266
0.921797 0.757705 0.963295
1.000000 0.738000 0.955600
1.000000 0.738000 0.955600
0.000000 0.100846 1.000000
0.000000 0.100846 1.000000
0.072850 0.088849 1.000000
0.225966 0.073234 1.000000
0.408298 0.056047 1.000000
0.601330 0.039160 1.000000
0.782292 0.024323 1.000000
0.924464 0.013245 1.000000
0.924464 0.013245 1.000000
0.000000 0.100846 1.000000
0.000000 0.100846 1.000000
0.072850 0.088849 1.000000
0.225966 0.073234 1.000000
0.408298 0.056047 1.000000
0.601330 0.039160 1.000000
0.782292 0.024323 1.000000
0.924464 0.013245 1.000000
0.924464 0.013245 1.000000
0.000000 0.179529 1.000000
0.000000 0.179529 1.000000
0.077413 0.170557 1.000000
0.242937 0.158739 1.000000
0.436489 0.145561 1.000000
0.638007 0.132450 1.000000
0.824258 0.120807 1.000000
0.968984 0.112042 1.000000
0.968984 0.112042 1.000000
0.000000 0.308926 1.000000
0.000000 0.308926 1.000000
0.086413 0.302316 1.000000
0.264223 0.293376 1.000000
0.468058 0.283114 1.000000
0.676275 0.272616 1.000000
0.865490 0.263061 1.000000
1.000000 0.255725 1.000000
1.000000 0.255725 1.000000
0.000000 0.473263 1.000000
0.000000 0.473263 1.000000
0.103235 0.467148 1.000000
0.289438 0.458616 1.000000
0.498832 0.448487 1.000000
0.708621 0.437784 1.000000
0.895847 0.427757 1.000000
1.000000 0.419876 1.000000
1.000000 0.419876 1.000000
0.000000 0.641300 1.000000
0.000000 0.641300 1.000000
0.130495 0.633430 1.000000
0.319516 0.622358 1.000000
0.528264 0.609081 1.000000
0.733416 0.594891 1.000000
0.913080 0.581444 1.000000
1.000000 0.570769 1.000000
1.000000 0.570769 1.000000
0.021935 0.780325 1.000000
0.021935 0.780325 1.000000
0.166655 0.768961 1.000000
0.353457 0.753097 1.000000
0.556336 0.734196 1.000000
0.752036 0.714078 0.997902
0.920159 0.695048 0.988521
1.000000 0.679946 0.981166
1.000000 0.679946 0.981166
0.060689 0.870376 1.000000
0.060689 0.870376 1.000000
0.203289 0.855123 1.000000
0.385372 0.834000 0.994735
0.580399 0.809023 0.984156
0.765512 0.782597 0.973266
0.921797 0.757705 0.963295
1.000000 0.738000 0.955600
1.000000 0.738000 0.955600
0.060689 0.870376 1.000000
0.060689 0.870376 1.000000
0.203289 0.855123 1.000000
0.385372 0.834000 0.994735
0.580399 0.809023 0.984156
0.765512 0.782597 0.973266
0.921797 0.757705 0.963295
1.000000 0.738000 0.955600
1.000000 0.738000 0.955600
