frontend/public/luts/cyberpunk.cube
TITLE "ZipZop cyberpunk"
LUT_3D_SIZE 5
DOMAIN_MIN 0.0 0.0 0.0
DOMAIN_MAX 1.0 1.0 1.0
0.000000 0.131633 0.249905
0.069968 0.119609 0.231475
0.383731 0.086351 0.183274
0.743537 0.053609 0.139684
0.882426 0.042025 0.125189
0.000000 0.202075 0.190037
0.073828 0.193356 0.173479
0.415432 0.168677 0.130962
0.793225 0.143678 0.093796
0.936190 0.134686 0.081803
0.000000 0.487122 0.062511
0.093372 0.482033 0.052827
0.483161 0.465827 0.030729
0.881863 0.446988 0.016027
1.000000 0.439654 0.012652
0.000000 0.806244 0.009323
0.144152 0.796678 0.008998
0.539687 0.766505 0.014200
0.916862 0.731389 0.028843
1.000000 0.717604 0.036572
0.030261 0.905753 0.012866
0.174656 0.892576 0.016534
0.561833 0.851841 0.033289
0.920797 0.805326 0.060225
1.000000 0.787219 0.072577
0.000000 0.127552 0.343454
0.070341 0.115521 0.329052
0.387166 0.082294 0.290975
0.749039 0.049657 0.256011
0.888431 0.038130 0.244263
0.000000 0.199130 0.296354
0.074258 0.190366 0.283164
0.418365 0.165615 0.248950
0.797667 0.140618 0.218587
0.940932 0.131646 0.208683
0.000000 0.485443 0.192618
0.094535 0.480207 0.184479
0.485278 0.463645 0.165639
0.883941 0.444526 0.152695
1.000000 0.437108 0.149586
0.001869 0.803078 0.146247
0.146891 0.793263 0.145645
0.541834 0.762451 0.149059
0.917422 0.726769 0.160415
1.000000 0.712800 0.166588
0.033949 0.901374 0.148080
0.178172 0.887910 0.150812
0.564198 0.846434 0.163958
0.921015 0.799251 0.185784
1.000000 0.780921 0.195921
0.000000 0.116243 0.616387
0.071381 0.104209 0.612419
0.396388 0.071114 0.600404
0.763688 0.038816 0.587350
0.904364 0.027462 0.582496
0.000000 0.190895 0.602237
0.075514 0.182026 0.597660
0.426255 0.157123 0.584462
0.809437 0.132182 0.570964
0.953427 0.123280 0.566131
0.000000 0.480532 0.557737
0.097979 0.474907 0.553166
0.491072 0.457408 0.541376
0.889331 0.437559 0.531331
1.000000 0.429928 0.528250
0.009860 0.793871 0.523622
0.154860 0.783383 0.521543
0.547869 0.750849 0.518042
0.918768 0.713652 0.518332
1.000000 0.699185 0.519486
0.044708 0.888741 0.518331
0.188350 0.874502 0.517763
0.570894 0.831020 0.518948
0.921476 0.782038 0.524663
1.000000 0.763109 0.527959
0.000000 0.104930 0.908682
0.072451 0.092918 0.914106
0.405207 0.060026 0.925262
0.777503 0.028136 0.931228
0.919306 0.016981 0.932224
0.000000 0.182560 0.923972
0.076885 0.173611 0.926964
0.433827 0.148627 0.931892
0.820457 0.123811 0.932368
0.965015 0.115005 0.931563
0.000000 0.475255 0.928987
0.101774 0.469266 0.926940
0.496784 0.450900 0.919310
0.894207 0.430391 0.909275
1.000000 0.422572 0.905175
0.018593 0.784031 0.897406
0.163415 0.772895 0.892805
0.554057 0.738709 0.879500
0.919837 0.700067 0.865833
1.000000 0.685129 0.860925
0.056295 0.875378 0.881479
0.199200 0.860390 0.876567
0.577830 0.814971 0.862902
0.921744 0.764261 0.849616
1.000000 0.744758 0.845027
0.000000 0.100846 1.000000
0.072850 0.088849 1.000000
0.408298 0.056047 1.000000
0.782292 0.024323 1.000000
0.924464 0.013245 1.000000
0.000000 0.179529 1.000000
0.077413 0.170557 1.000000
0.436489 0.145561 1.000000
0.824258 0.120807 1.000000
0.968984 0.112042 1.000000
0.000000 0.473263 1.000000
0.103235 0.467148 1.000000
0.498832 0.448487 1.000000
0.895847 0.427757 1.000000
1.000000 0.419876 1.000000
0.021935 0.780325 1.000000
0.166655 0.768961 1.000000
0.556336 0.734196 1.000000
0.920159 0.695048 0.988521
1.000000 0.679946 0.981166
0.060689 0.870376 1.000000
0.203289 0.855123 1.000000
0.580399 0.809023 0.984156
0.921797 0.757705 0.963295
1.000000 0.738000 0.955600
