frontend/public/luts/sun_kissed.cube
TITLE "ZipZop sun_kissed"
LUT_3D_SIZE 17
DOMAIN_MIN 0.0 0.0 0.0
DOMAIN_MAX 1.0 1.0 1.0
0.078061 0.067154 0.056082
0.099642 0.066750 0.055725
0.144981 0.065946 0.054999
0.197171 0.065092 0.054203
0.255273 0.064228 0.053364
0.318303 0.063393 0.052511
0.385231 0.062619 0.051667
0.454975 0.061934 0.050856
0.526406 0.061358 0.050094
0.598354 0.060904 0.049399
0.669617 0.060579 0.048779
0.738970 0.060380 0.048242
0.805177 0.060298 0.047791
0.866996 0.060315 0.047422
0.923191 0.060410 0.047133
0.972537 0.060556 0.046914
0.996202 0.060647 0.046821
0.076513 0.087992 0.054905
0.098271 0.087664 0.054568
0.143964 0.087017 0.053884
0.196534 0.086339 0.053137
0.255027 0.085666 0.052353
0.318444 0.085031 0.051560
0.385741 0.084465 0.050780
0.455825 0.083988 0.050037
0.527559 0.083620 0.049346
0.599768 0.083369 0.048723
0.671246 0.083238 0.048176
0.740768 0.083222 0.047711
0.807099 0.083310 0.047328
0.869002 0.083482 0.047026
0.925247 0.083714 0.046797
0.974617 0.083977 0.046632
0.998287 0.084123 0.046564
0.073848 0.132663 0.052668
0.095951 0.132481 0.052374
0.142335 0.132134 0.051782
0.195646 0.131793 0.051140
0.254894 0.131484 0.050475
0.319053 0.131233 0.049812
0.387051 0.131060 0.049172
0.457775 0.130980 0.048576
0.530071 0.131004 0.048038
0.602752 0.131135 0.047571
0.674608 0.131370 0.047180
0.744415 0.131698 0.046870
0.810940 0.132104 0.046637
0.872959 0.132564 0.046476
0.929255 0.133051 0.046377
0.978626 0.133533 0.046327
1.000000 0.133782 0.046316
0.071759 0.185367 0.050495
0.094218 0.185329 0.050254
0.141312 0.185280 0.049771
0.195377 0.185271 0.049256
0.255388 0.185322 0.048734
0.320286 0.185447 0.048227
0.388972 0.185660 0.047756
0.460309 0.185967 0.047336
0.533128 0.186372 0.046981
0.606230 0.186872 0.046700
0.678402 0.187458 0.046497
0.748419 0.188116 0.046371
0.815060 0.188824 0.046317
0.877112 0.189557 0.046324
0.933375 0.190284 0.046380
0.982668 0.190970 0.046469
1.000000 0.191316 0.046524
0.070659 0.245311 0.048596
0.093464 0.245407 0.048415
0.141243 0.245630 0.048061
0.196027 0.245927 0.047695
0.256756 0.246304 0.047339
0.322337 0.246770 0.047014
0.391643 0.247329 0.046738
0.463514 0.247982 0.046523
0.536762 0.248724 0.046381
0.610183 0.249549 0.046317
0.682558 0.250441 0.046331
0.752670 0.251383 0.046418
0.819306 0.252351 0.046570
0.881270 0.253315 0.046773
0.937385 0.254244 0.047008
0.986495 0.255100 0.047256
1.000000 0.255525 0.047388
0.070920 0.311429 0.047170
0.094042 0.311637 0.047059
0.142442 0.312090 0.046851
0.197870 0.312639 0.046654
0.259227 0.313287 0.046488
0.325387 0.314031 0.046370
0.395196 0.314871 0.046315
0.467471 0.315800 0.046334
0.541011 0.316809 0.046433
0.614603 0.317886 0.046614
0.687030 0.319013 0.046873
0.757079 0.320168 0.047202
0.823555 0.321327 0.047588
0.885282 0.322458 0.048011
0.941107 0.323530 0.048448
0.989906 0.324505 0.048875
1.000000 0.324984 0.049093
0.072851 0.382381 0.046402
0.096245 0.382672 0.046368
0.145171 0.383293 0.046323
0.201130 0.384027 0.046315
0.262986 0.384867 0.046361
0.329583 0.385807 0.046473
0.399739 0.386839 0.046665
0.472252 0.387953 0.046943
0.545908 0.389134 0.047309
0.619489 0.390369 0.047762
0.691781 0.391636 0.048294
0.761583 0.392913 0.048890
0.827718 0.394175 0.049534
0.889033 0.395392 0.050200
0.944408 0.396531 0.050861
0.992751 0.397559 0.051486
1.000000 0.398061 0.051800
0.076678 0.456590 0.046444
0.100287 0.456929 0.046495
0.149619 0.457647 0.046629
0.205968 0.458482 0.046827
0.268167 0.459424 0.047104
0.335029 0.460461 0.047468
0.405347 0.461581 0.047929
0.477903 0.462771 0.048489
0.551473 0.464015 0.049147
0.624837 0.465295 0.049896
0.696788 0.466593 0.050723
0.766139 0.467886 0.051611
0.831735 0.469150 0.052535
0.892452 0.470356 0.053465
0.947204 0.471477 0.054369
0.994939 0.472481 0.055208
1.000000 0.472969 0.055626
0.082523 0.532314 0.047408
0.106282 0.532664 0.047550
0.155883 0.533399 0.047876
0.212466 0.534245 0.048297
0.274833 0.535188 0.048821
0.341769 0.536214 0.049456
0.412049 0.537308 0.050205
0.484438 0.538456 0.051067
0.557707 0.539642 0.052037
0.630636 0.540849 0.053102
0.702029 0.542059 0.054246
0.770718 0.543252 0.055444
0.835572 0.544408 0.056666
0.895501 0.545502 0.057879
0.949458 0.546512 0.059040
0.996431 0.547410 0.060108
1.000000 0.547845 0.060636
0.090395 0.607731 0.049353
0.114235 0.608053 0.049592
0.163960 0.608723 0.050121
0.220612 0.609487 0.050775
0.282965 0.610328 0.051561
0.349781 0.611232 0.052480
0.419816 0.612185 0.053532
0.491826 0.613171 0.054713
0.564577 0.614177 0.056010
0.636856 0.615189 0.057408
0.707479 0.616191 0.058883
0.775300 0.617169 0.060407
0.839217 0.618106 0.061943
0.898177 0.618986 0.063450
0.951172 0.619791 0.064882
0.997239 0.620503 0.066189
1.000000 0.620846 0.066833
0.100174 0.681039 0.052279
0.124025 0.681295 0.052617
0.173731 0.681822 0.053356
0.230290 0.682414 0.054253
0.292452 0.683055 0.055308
0.358958 0.683732 0.056521
0.428552 0.684431 0.057887
0.499981 0.685141 0.059395
0.572013 0.685852 0.061031
0.643441 0.686552 0.062771
0.713099 0.687232 0.064588
0.779865 0.687884 0.066447
0.842669 0.688498 0.068305
0.900496 0.689067 0.070115
0.952385 0.689580 0.071826
0.997419 0.690028 0.073378
1.000000 0.690242 0.074140
0.111607 0.750553 0.056113
0.135406 0.750708 0.056553
0.184960 0.751021 0.057505
0.241277 0.751361 0.058647
0.303085 0.751713 0.059976
0.369112 0.752068 0.061487
0.438089 0.752416 0.063170
0.508760 0.752748 0.065010
0.579896 0.753059 0.066988
0.650302 0.753345 0.069074
0.718829 0.753603 0.071237
0.784383 0.753833 0.073433
0.845930 0.754033 0.075617
0.902493 0.754205 0.077734
0.953158 0.754349 0.079724
0.997059 0.754467 0.081524
1.000000 0.754521 0.082406
0.124310 0.814789 0.060715
0.148001 0.814816 0.061256
0.197290 0.814857 0.062419
0.253237 0.814878 0.063804
0.314557 0.814870 0.065405
0.379963 0.814826 0.067211
0.448180 0.814741 0.069208
0.517952 0.814613 0.071377
0.588055 0.814442 0.073692
0.657307 0.814232 0.076121
0.724581 0.813989 0.078625
0.788812 0.813719 0.081156
0.848998 0.813432 0.083661
0.904207 0.813141 0.086079
0.953571 0.812856 0.088346
0.996272 0.812592 0.090391
1.000000 0.812460 0.091390
0.137774 0.872529 0.065870
0.161313 0.872409 0.066508
0.210248 0.872136 0.067876
0.265730 0.871792 0.069496
0.326461 0.871373 0.071359
0.391147 0.870877 0.073451
0.458505 0.870304 0.075751
0.527284 0.869659 0.078238
0.596266 0.868951 0.080879
0.664286 0.868189 0.083639
0.730238 0.867390 0.086471
0.793084 0.866570 0.089324
0.851861 0.865750 0.092139
0.905677 0.864951 0.094848
0.953707 0.864199 0.097381
0.995187 0.863518 0.099661
1.000000 0.863185 0.100774
0.151377 0.922858 0.071299
0.174736 0.922579 0.072028
0.223261 0.921973 0.073588
0.278221 0.921241 0.075429
0.338307 0.920386 0.077538
0.402218 0.919411 0.079897
0.468673 0.918325 0.082482
0.536420 0.917138 0.085266
0.604254 0.915867 0.088213
0.671024 0.914531 0.091282
0.735647 0.913154 0.094422
0.797113 0.911764 0.097576
0.854492 0.910392 0.100680
0.906931 0.909071 0.103661
0.953652 0.907838 0.106443
0.993936 0.906729 0.108943
1.000000 0.906189 0.110162
0.164411 0.965154 0.076667
0.187579 0.964718 0.077478
0.235676 0.963779 0.079211
0.290099 0.962663 0.081252
0.349531 0.961376 0.083584
0.412671 0.959930 0.086183
0.478234 0.958337 0.089025
0.544976 0.956618 0.092077
0.611700 0.954795 0.095299
0.677271 0.952897 0.098647
0.740626 0.950957 0.102064
0.800783 0.949011 0.105490
0.856843 0.947102 0.108854
0.907990 0.945274 0.112080
0.953484 0.943574 0.115086
0.992649 0.942052 0.117784
1.000000 0.941312 0.119097
0.171028 0.984757 0.079445
0.194093 0.984239 0.080297
0.241963 0.983128 0.082115
0.296101 0.981812 0.084253
0.355193 0.980303 0.086693
0.417931 0.978613 0.089411
0.483035 0.976760 0.092378
0.549261 0.974766 0.095560
0.615419 0.972660 0.098917
0.680381 0.970473 0.102400
0.743096 0.968243 0.105953
0.802593 0.966013 0.109511
0.857990 0.963829 0.113003
0.908488 0.961742 0.116348
0.953369 0.959804 0.119463
0.991975 0.958071 0.122257
1.000000 0.957229 0.123617
0.077897 0.067016 0.077994
0.099496 0.066616 0.077678
0.144872 0.065820 0.077034
0.197101 0.064976 0.076328
0.255243 0.064123 0.075584
0.318313 0.063299 0.074827
0.385279 0.062537 0.074080
0.455058 0.061865 0.073361
0.526521 0.061302 0.072689
0.598496 0.060862 0.072075
0.669782 0.060551 0.071530
0.739153 0.060365 0.071059
0.805373 0.060295 0.070665
0.867201 0.060324 0.070346
0.923403 0.060430 0.070096
0.972752 0.060585 0.069910
0.996418 0.060681 0.069831
0.076367 0.087879 0.076950
0.098142 0.087556 0.076652
0.143870 0.086916 0.076045
0.196478 0.086247 0.075382
0.255009 0.085585 0.074687
0.318463 0.084961 0.073984
0.385796 0.084406 0.073295
0.455913 0.083943 0.072638
0.527677 0.083587 0.072029
0.599911 0.083349 0.071480
0.671409 0.083231 0.071001
0.740947 0.083227 0.070596
0.807290 0.083327 0.070264
0.869200 0.083510 0.070005
0.925450 0.083753 0.069811
0.974821 0.084025 0.069673
0.998491 0.084176 0.069618
0.073739 0.132600 0.074967
0.095858 0.132422 0.074706
0.142274 0.132082 0.074181
0.195618 0.131749 0.073613
0.254901 0.131449 0.073025
0.319093 0.131208 0.072439
0.387123 0.131046 0.071876
0.457876 0.130977 0.071352
0.530196 0.131013 0.070881
0.602898 0.131156 0.070474
0.674770 0.131402 0.070137
0.744588 0.131742 0.069872
0.811121 0.132159 0.069678
0.873143 0.132629 0.069547
0.929439 0.133126 0.069472
0.978809 0.133616 0.069441
1.000000 0.133869 0.069437
0.071693 0.185353 0.073043
0.094167 0.185319 0.072829
0.141289 0.185276 0.072403
0.195383 0.185274 0.071950
0.255424 0.185333 0.071491
0.320351 0.185468 0.071046
0.389063 0.185689 0.070635
0.460424 0.186007 0.070271
0.533262 0.186422 0.069967
0.606380 0.186932 0.069730
0.678562 0.187529 0.069564
0.748585 0.188197 0.069468
0.815229 0.188915 0.069437
0.877279 0.189657 0.069461
0.933539 0.190393 0.069529
0.982827 0.191086 0.069624
1.000000 0.191435 0.069682
0.070642 0.245343 0.071369
0.093460 0.245441 0.071210
0.141263 0.245670 0.070900
0.196072 0.245972 0.070582
0.256827 0.246357 0.070274
0.322431 0.246830 0.069995
0.391758 0.247397 0.069761
0.463646 0.248059 0.069585
0.536908 0.248810 0.069475
0.610338 0.249644 0.069437
0.682718 0.250545 0.069470
0.752830 0.251496 0.069571
0.819463 0.252472 0.069729
0.881422 0.253444 0.069934
0.937529 0.254380 0.070166
0.986629 0.255243 0.070408
1.000000 0.255671 0.070537
0.070958 0.311499 0.070129
0.094090 0.311709 0.070033
0.142510 0.312166 0.069856
0.197958 0.312721 0.069692
0.259335 0.313373 0.069557
0.325513 0.314124 0.069468
0.395336 0.314971 0.069437
0.467623 0.315906 0.069475
0.541171 0.316923 0.069586
0.614765 0.318007 0.069774
0.687190 0.319141 0.070033
0.757234 0.320304 0.070357
0.823702 0.321470 0.070731
0.885417 0.322609 0.071139
0.941230 0.323686 0.071559
0.990015 0.324667 0.071967
1.000000 0.325149 0.072176
0.072947 0.382479 0.069491
0.096349 0.382771 0.069466
0.145291 0.383396 0.069439
0.201265 0.384134 0.069447
0.263136 0.384978 0.069507
0.329744 0.385923 0.069629
0.399908 0.386960 0.069825
0.472426 0.388079 0.070102
0.546083 0.389266 0.070461
0.619660 0.390506 0.070899
0.691944 0.391779 0.071411
0.761735 0.393063 0.071982
0.827854 0.394330 0.072596
0.889153 0.395552 0.073230
0.944510 0.396697 0.073858
0.992835 0.397729 0.074450
1.000000 0.398233 0.074748
0.076836 0.456705 0.069598
0.100451 0.457045 0.069652
0.149794 0.457765 0.069789
0.206153 0.458603 0.069988
0.268361 0.459548 0.070260
0.335228 0.460588 0.070615
0.405548 0.461711 0.071060
0.478102 0.462905 0.071598
0.551666 0.464152 0.072227
0.625019 0.465437 0.072941
0.696955 0.466739 0.073727
0.766288 0.468036 0.074569
0.831862 0.469304 0.075444
0.892557 0.470514 0.076324
0.947286 0.471639 0.077178
0.994998 0.472646 0.077971
1.000000 0.473135 0.078366
0.082746 0.532433 0.070557
0.106509 0.532783 0.070695
0.156116 0.533519 0.071010
0.212704 0.534366 0.071414
0.275073 0.535310 0.071916
0.342009 0.536338 0.072521
0.412283 0.537434 0.073234
0.484664 0.538584 0.074053
0.557919 0.539772 0.074972
0.630831 0.540982 0.075981
0.702202 0.542194 0.077062
0.770866 0.543390 0.078194
0.835693 0.544548 0.079348
0.895594 0.545645 0.080492
0.949522 0.546657 0.081588
0.996467 0.547558 0.082595
1.000000 0.547994 0.083093
0.090685 0.607840 0.072424
0.114526 0.608162 0.072652
0.164252 0.608832 0.073155
0.220904 0.609596 0.073777
0.283253 0.610437 0.074521
0.350062 0.611341 0.075392
0.420085 0.612294 0.076388
0.492080 0.613281 0.077503
0.564811 0.614287 0.078729
0.637065 0.615300 0.080048
0.707660 0.616302 0.081440
0.775449 0.617281 0.082877
0.839333 0.618219 0.084325
0.898258 0.619100 0.085745
0.951219 0.619906 0.087095
0.997254 0.620619 0.088327
1.000000 0.620963 0.088933
0.100531 0.681126 0.075202
0.124381 0.681381 0.075522
0.174084 0.681907 0.076221
0.230637 0.682497 0.077069
0.292789 0.683137 0.078066
0.359283 0.683812 0.079211
0.428858 0.684510 0.080500
0.500265 0.685219 0.081923
0.572269 0.685928 0.083465
0.643667 0.686627 0.085106
0.713289 0.687307 0.086818
0.780017 0.687958 0.088570
0.842781 0.688572 0.090321
0.900568 0.689140 0.092027
0.952417 0.689653 0.093639
0.997415 0.690101 0.095102
1.000000 0.690315 0.095820
0.112030 0.750606 0.078826
0.135827 0.750760 0.079242
0.185373 0.751071 0.080140
0.241679 0.751408 0.081217
0.303472 0.751757 0.082471
0.369480 0.752109 0.083895
0.438432 0.752454 0.085482
0.509074 0.752783 0.087216
0.580176 0.753092 0.089080
0.650544 0.753375 0.091046
0.719029 0.753631 0.093084
0.784539 0.753858 0.095154
0.846040 0.754056 0.097212
0.902557 0.754226 0.099207
0.953178 0.754369 0.101082
0.997038 0.754486 0.102780
1.000000 0.754539 0.103611
0.124798 0.814799 0.083167
0.148484 0.814824 0.083677
0.197761 0.814862 0.084774
0.253693 0.814879 0.086079
0.314992 0.814866 0.087588
0.380374 0.814818 0.089290
0.448560 0.814729 0.091172
0.518297 0.814596 0.093216
0.588359 0.814421 0.095398
0.657567 0.814207 0.097687
0.724793 0.813959 0.100047
0.788973 0.813686 0.102432
0.849108 0.813396 0.104794
0.904266 0.813101 0.107074
0.953580 0.812814 0.109212
0.996237 0.812547 0.111141
1.000000 0.812414 0.112083
0.138323 0.872489 0.088026
0.161856 0.872366 0.088627
0.210775 0.872089 0.089916
0.266237 0.871741 0.091444
0.326943 0.871316 0.093199
0.391598 0.870814 0.095170
0.458921 0.870235 0.097338
0.527658 0.869585 0.099682
0.596594 0.868870 0.102172
0.664563 0.868103 0.104773
0.730462 0.867298 0.107444
0.793252 0.866473 0.110134
0.851972 0.865648 0.112789
0.905731 0.864846 0.115345
0.953708 0.864090 0.117735
0.995139 0.863406 0.119887
1.000000 0.863071 0.120936
0.151983 0.922764 0.093142
0.175334 0.922483 0.093829
0.223840 0.921871 0.095299
0.278775 0.921133 0.097035
0.338831 0.920272 0.099023
0.402707 0.919290 0.101246
0.469121 0.918197 0.103683
0.536822 0.917003 0.106307
0.604605 0.915725 0.109086
0.671319 0.914382 0.111980
0.735882 0.912998 0.114943
0.797287 0.911602 0.117919
0.854604 0.910223 0.120848
0.906983 0.908897 0.123662
0.953647 0.907659 0.126288
0.993877 0.906547 0.128648
1.000000 0.906005 0.129799
0.165068 0.965007 0.098201
0.188226 0.964568 0.098966
0.236301 0.963623 0.100599
0.290695 0.962500 0.102524
0.350095 0.961206 0.104721
0.413194 0.959751 0.107172
0.478712 0.958151 0.109852
0.545403 0.956423 0.112731
0.612071 0.954592 0.115771
0.677581 0.952686 0.118929
0.740873 0.950737 0.122154
0.800964 0.948785 0.125388
0.856958 0.946868 0.128564
0.908040 0.945034 0.131611
0.953473 0.943329 0.134450
0.992583 0.941802 0.136998
1.000000 0.941059 0.138239
0.171709 0.984582 0.100820
0.194764 0.984061 0.101623
0.242610 0.982943 0.103336
0.296719 0.981621 0.105353
0.355774 0.980103 0.107653
0.418471 0.978405 0.110216
0.483527 0.976543 0.113014
0.549700 0.974541 0.116017
0.615800 0.972425 0.119184
0.680699 0.970230 0.122472
0.743348 0.967992 0.125825
0.802778 0.965754 0.129185
0.858106 0.963562 0.132482
0.908539 0.961468 0.135642
0.953356 0.959524 0.138585
0.991905 0.957786 0.141225
1.000000 0.956941 0.142511
0.077560 0.066731 0.123820
0.099197 0.066340 0.123586
0.144648 0.065562 0.123110
0.196958 0.064737 0.122588
0.255184 0.063907 0.122038
0.318337 0.063107 0.121480
0.385382 0.062372 0.120929
0.455234 0.061726 0.120401
0.526762 0.061192 0.119908
0.598793 0.060780 0.119461
0.670126 0.060496 0.119067
0.739534 0.060337 0.118730
0.805782 0.060294 0.118452
0.867629 0.060348 0.118230
0.923841 0.060476 0.118062
0.973197 0.060651 0.117939
0.996864 0.060756 0.117889
0.076066 0.087649 0.123048
0.097878 0.087333 0.122827
0.143678 0.086710 0.122379
0.196364 0.086061 0.121889
0.254974 0.085419 0.121376
0.318507 0.084819 0.120859
0.385915 0.084289 0.120352
0.456101 0.083851 0.119871
0.527925 0.083522 0.119427
0.600210 0.083311 0.119031
0.671751 0.083220 0.118689
0.741321 0.083243 0.118403
0.807687 0.083368 0.118175
0.869612 0.083575 0.118001
0.925870 0.083839 0.117876
0.975244 0.084131 0.117794
0.998914 0.084291 0.117763
0.073516 0.132473 0.121582
0.095668 0.132301 0.121390
0.142150 0.131977 0.121003
0.195565 0.131661 0.120585
0.254919 0.131381 0.120154
0.319181 0.131161 0.119726
0.387276 0.131021 0.119316
0.458087 0.130976 0.118939
0.530459 0.131036 0.118604
0.603202 0.131203 0.118319
0.675107 0.131474 0.118089
0.744948 0.131838 0.117915
0.811495 0.132278 0.117796
0.873524 0.132770 0.117726
0.929821 0.133287 0.117698
0.979187 0.133794 0.117700
1.000000 0.134056 0.117711
0.071562 0.185328 0.120167
0.094065 0.185300 0.120011
0.141245 0.185270 0.119700
0.195401 0.185284 0.119370
0.255504 0.185360 0.119038
0.320490 0.185513 0.118721
0.389258 0.185755 0.118430
0.460666 0.186093 0.118179
0.533544 0.186530 0.117976
0.606692 0.187062 0.117827
0.678896 0.187680 0.117734
0.748932 0.188369 0.117697
0.815580 0.189108 0.117710
0.877628 0.189870 0.117766
0.933879 0.190623 0.117853
0.983156 0.191333 0.117960
1.000000 0.191689 0.118021
0.070614 0.245411 0.118951
0.093457 0.245515 0.118838
0.141310 0.245755 0.118617
0.196172 0.246071 0.118393
0.256978 0.246470 0.118181
0.322630 0.246959 0.117995
0.392000 0.247543 0.117846
0.463924 0.248222 0.117745
0.537213 0.248992 0.117698
0.610662 0.249845 0.117710
0.683051 0.250765 0.117779
0.753164 0.251734 0.117901
0.819790 0.252728 0.118070
0.881736 0.253717 0.118274
0.937825 0.254669 0.118498
0.986907 0.255546 0.118726
1.000000 0.255980 0.118845
0.071042 0.311647 0.118083
0.094196 0.311861 0.118020
0.142657 0.312327 0.117905
0.198148 0.312892 0.117804
0.259565 0.313557 0.117731
0.325779 0.314321 0.117697
0.395633 0.315181 0.117712
0.467942 0.316132 0.117785
0.541504 0.317164 0.117919
0.615104 0.318263 0.118115
0.687525 0.319413 0.118370
0.757558 0.320592 0.118677
0.824006 0.321772 0.119025
0.885697 0.322925 0.119397
0.941483 0.324015 0.119778
0.990239 0.325007 0.120145
1.000000 0.325495 0.120331
0.073154 0.382686 0.117703
0.096573 0.382981 0.117696
0.145547 0.383613 0.117703
0.201552 0.384358 0.117742
0.263452 0.385212 0.117826
0.330084 0.386167 0.117965
0.400265 0.387214 0.118167
0.472792 0.388344 0.118436
0.546449 0.389544 0.118774
0.620018 0.390796 0.119179
0.692284 0.392081 0.119644
0.762050 0.393377 0.120158
0.828138 0.394656 0.120706
0.889401 0.395889 0.121269
0.944720 0.397044 0.121824
0.993007 0.398085 0.122346
1.000000 0.398594 0.122608
0.077173 0.456946 0.117932
0.100800 0.457288 0.117989
0.150165 0.458013 0.118131
0.206545 0.458856 0.118326
0.268769 0.459806 0.118586
0.335647 0.460853 0.118918
0.405971 0.461984 0.119326
0.478520 0.463185 0.119813
0.552070 0.464441 0.120377
0.625400 0.465735 0.121012
0.697304 0.467045 0.121709
0.766598 0.468351 0.122451
0.832128 0.469628 0.123220
0.892775 0.470846 0.123992
0.947456 0.471979 0.124739
0.995120 0.472992 0.125432
1.000000 0.473485 0.125777
0.083218 0.532681 0.118863
0.106989 0.533032 0.118991
0.156608 0.533770 0.119280
0.213205 0.534620 0.119647
0.275579 0.535567 0.120098
0.342512 0.536598 0.120640
0.412777 0.537698 0.121273
0.485137 0.538853 0.121996
0.558364 0.540045 0.122806
0.631239 0.541260 0.123691
0.702564 0.542478 0.124638
0.771175 0.543679 0.125627
0.835944 0.544842 0.126634
0.895785 0.545945 0.127632
0.949653 0.546961 0.128587
0.996541 0.547866 0.129464
1.000000 0.548305 0.129897
0.091296 0.608068 0.120553
0.115140 0.608390 0.120755
0.164869 0.609059 0.121202
0.221519 0.609823 0.121752
0.283860 0.610664 0.122409
0.350654 0.611569 0.123174
0.420653 0.612522 0.124047
0.492613 0.613509 0.125023
0.565301 0.614517 0.126094
0.637504 0.615531 0.127245
0.708038 0.616535 0.128458
0.775761 0.617516 0.129709
0.839573 0.618456 0.130969
0.898426 0.619339 0.132206
0.951316 0.620148 0.133380
0.997284 0.620862 0.134452
1.000000 0.621207 0.134979
0.101282 0.681307 0.123007
0.125131 0.681561 0.123288
0.174827 0.682084 0.123901
0.231367 0.682671 0.124643
0.293500 0.683308 0.125515
0.359965 0.683980 0.126515
0.429502 0.684675 0.127639
0.500861 0.685382 0.128878
0.572808 0.686088 0.130221
0.644138 0.686785 0.131649
0.713686 0.687463 0.133139
0.780334 0.688113 0.134663
0.843014 0.688726 0.136186
0.900716 0.689293 0.137671
0.952484 0.689805 0.139073
0.997405 0.690253 0.140347
1.000000 0.690467 0.140972
0.112921 0.750716 0.126179
0.136711 0.750868 0.126541
0.186242 0.751173 0.127325
0.242524 0.751504 0.128264
0.304286 0.751848 0.129355
0.370252 0.752194 0.130596
0.439153 0.752532 0.131976
0.509734 0.752856 0.133485
0.580764 0.753158 0.135106
0.651051 0.753436 0.136817
0.719449 0.753687 0.138590
0.784865 0.753909 0.140392
0.846269 0.754103 0.142183
0.902691 0.754270 0.143920
0.953219 0.754409 0.145554
0.996992 0.754523 0.147033
1.000000 0.754576 0.147757
0.125825 0.814817 0.129962
0.149500 0.814839 0.130406
0.198752 0.814869 0.131360
0.254650 0.814879 0.132496
0.315907 0.814858 0.133809
0.381235 0.814800 0.135289
0.449358 0.814702 0.136927
0.519020 0.814560 0.138705
0.588997 0.814376 0.140604
0.658111 0.814153 0.142597
0.725237 0.813897 0.144652
0.789310 0.813616 0.146730
0.849337 0.813319 0.148788
0.904387 0.813018 0.150776
0.953599 0.812725 0.152641
0.996161 0.812453 0.154323
1.000000 0.812318 0.155146
0.139478 0.872403 0.134190
0.162996 0.872275 0.134713
0.211882 0.871989 0.135834
0.267301 0.871630 0.137163
0.327954 0.871194 0.138691
0.392544 0.870680 0.140406
0.459792 0.870090 0.142293
0.528443 0.869427 0.144334
0.597282 0.868700 0.146503
0.665145 0.867922 0.148770
0.730930 0.867106 0.151098
0.793603 0.866270 0.153445
0.852203 0.865435 0.155762
0.905844 0.864623 0.157994
0.953709 0.863860 0.160081
0.995037 0.863169 0.161962
1.000000 0.862831 0.162880
0.153257 0.922566 0.138641
0.176589 0.922279 0.139239
0.225055 0.921656 0.140518
0.279939 0.920906 0.142029
0.339932 0.920030 0.143760
0.403734 0.919035 0.145696
0.470061 0.917927 0.147820
0.537665 0.916718 0.150107
0.605339 0.915425 0.152531
0.671936 0.914067 0.155056
0.736376 0.912670 0.157643
0.797652 0.911260 0.160242
0.854839 0.909870 0.162802
0.907091 0.908532 0.165263
0.953634 0.907284 0.167561
0.993754 0.906163 0.169627
1.000000 0.905617 0.170634
0.166447 0.964696 0.143044
0.189584 0.964251 0.143711
0.237612 0.963294 0.145133
0.291948 0.962156 0.146809
0.351276 0.960847 0.148725
0.414292 0.959376 0.150862
0.479715 0.957758 0.153199
0.546298 0.956014 0.155711
0.612848 0.954165 0.158366
0.678232 0.952242 0.161125
0.741390 0.950277 0.163944
0.801343 0.948309 0.166773
0.857199 0.946378 0.169553
0.908146 0.944531 0.172221
0.953450 0.942814 0.174708
0.992443 0.941276 0.176942
1.000000 0.940529 0.178031
0.173140 0.984213 0.145325
0.196172 0.983686 0.146025
0.243967 0.982555 0.147518
0.298014 0.981217 0.149275
0.356995 0.979683 0.151281
0.419604 0.977967 0.153516
0.484560 0.976087 0.155959
0.550622 0.974067 0.158581
0.616599 0.971933 0.161348
0.681366 0.969719 0.164222
0.743877 0.967464 0.167156
0.803164 0.965209 0.170096
0.858350 0.963002 0.172984
0.908643 0.960894 0.175754
0.953328 0.958937 0.178334
0.991757 0.957188 0.180650
1.000000 0.956338 0.181778
0.077185 0.066414 0.176243
0.098865 0.066033 0.176101
0.144401 0.065274 0.175812
0.196803 0.064473 0.175494
0.255123 0.063668 0.175160
0.318369 0.062896 0.174820
0.385503 0.062190 0.174487
0.455438 0.061576 0.174168
0.527039 0.061073 0.173873
0.599133 0.060693 0.173609
0.670518 0.060441 0.173380
0.739967 0.060314 0.173188
0.806245 0.060301 0.173036
0.868112 0.060383 0.172920
0.924337 0.060537 0.172837
0.973698 0.060735 0.172783
0.997367 0.060851 0.172763
0.075733 0.087392 0.175774
