frontend/public/luts/sun_kissed.cube
TITLE "ZipZop sun_kissed"
LUT_3D_SIZE 5
DOMAIN_MIN 0.0 0.0 0.0
DOMAIN_MAX 1.0 1.0 1.0
0.078061 0.067154 0.056082
0.255273 0.064228 0.053364
0.526406 0.061358 0.050094
0.805177 0.060298 0.047791
0.996202 0.060647 0.046821
0.070659 0.245311 0.048596
0.256756 0.246304 0.047339
0.536762 0.248724 0.046381
0.819306 0.252351 0.046570
1.000000 0.255525 0.047388
0.082523 0.532314 0.047408
0.274833 0.535188 0.048821
0.557707 0.539642 0.052037
0.835572 0.544408 0.056666
1.000000 0.547845 0.060636
0.124310 0.814789 0.060715
0.314557 0.814870 0.065405
0.588055 0.814442 0.073692
0.848998 0.813432 0.083661
1.000000 0.812460 0.091390
0.171028 0.984757 0.079445
0.355193 0.980303 0.086693
0.615419 0.972660 0.098917
0.857990 0.963829 0.113003
1.000000 0.957229 0.123617
0.076783 0.066073 0.234233
0.255063 0.063413 0.233895
0.527346 0.060951 0.233504
0.806751 0.060318 0.233312
0.997914 0.060966 0.233336
0.070579 0.245592 0.233360
0.257363 0.246757 0.233305
0.537954 0.249447 0.233482
0.820568 0.253362 0.234040
1.000000 0.256741 0.234673
0.084389 0.533279 0.234686
0.276821 0.536187 0.235558
0.559444 0.540705 0.237330
0.836544 0.545554 0.239749
1.000000 0.549058 0.241791
0.128328 0.814852 0.241831
0.318132 0.814827 0.244236
0.590544 0.814259 0.248501
0.849886 0.813127 0.253680
1.000000 0.812082 0.257738
0.176617 0.983310 0.251482
0.359957 0.978658 0.255268
0.618533 0.970735 0.261726
0.858939 0.961643 0.269278
1.000000 0.954876 0.275043
0.075106 0.064638 0.500801
0.254897 0.062377 0.503543
0.528776 0.060527 0.506757
0.809016 0.060533 0.509037
1.000000 0.061628 0.510089
0.070693 0.246113 0.508228
0.258423 0.247538 0.509509
0.539774 0.250635 0.510713
0.822387 0.254984 0.511163
1.000000 0.258671 0.511081
0.087407 0.534727 0.511077
0.279949 0.537689 0.510705
0.562098 0.542311 0.509688
0.837960 0.547289 0.508184
1.000000 0.550897 0.506931
0.134556 0.814878 0.506907
0.323635 0.814703 0.505490
0.594335 0.813934 0.503150
0.851204 0.812628 0.500589
1.000000 0.811481 0.498774
0.185186 0.981045 0.501640
0.367237 0.976103 0.499860
0.623266 0.967774 0.497134
0.860363 0.958304 0.494368
1.000000 0.951296 0.492516
0.073688 0.063402 0.770583
0.254905 0.061546 0.775877
0.530255 0.060317 0.781918
0.811205 0.060971 0.785890
1.000000 0.062520 0.787443
0.071086 0.246764 0.784536
0.259677 0.248455 0.786627
0.541665 0.251968 0.788079
0.824152 0.256759 0.787642
1.000000 0.260761 0.786317
0.090735 0.536201 0.786285
0.283304 0.539224 0.784144
0.564852 0.543958 0.779558
0.839353 0.549075 0.773351
1.000000 0.552792 0.768277
0.141124 0.814827 0.768179
0.329394 0.814507 0.762413
0.598258 0.813547 0.752688
0.852530 0.812076 0.741608
1.000000 0.810833 0.733392
0.194117 0.978633 0.746221
0.374794 0.973407 0.738349
0.628152 0.964682 0.725659
0.861816 0.954842 0.711795
1.000000 0.947600 0.701800
0.072878 0.062681 0.954545
0.255010 0.061102 0.961267
0.531284 0.060298 0.968776
0.812643 0.061395 0.973450
1.000000 0.063254 0.975043
0.071511 0.247278 0.971906
0.260637 0.249152 0.974246
0.542984 0.252952 0.975423
0.825315 0.258047 0.973944
1.000000 0.262266 0.971482
0.093162 0.537214 0.971426
0.285700 0.540280 0.967791
0.566772 0.545096 0.960351
0.840282 0.550313 0.950523
1.000000 0.554107 0.942568
0.145759 0.814750 0.942414
0.333433 0.814336 0.933411
0.600986 0.813251 0.918253
0.853431 0.811675 0.900974
1.000000 0.810370 0.888133
0.200360 0.976921 0.908172
0.380061 0.971507 0.895884
0.631542 0.962519 0.876018
0.862815 0.952434 0.854211
1.000000 0.945037 0.838413
