frontend/public/luts/sun_kissed.cube
TITLE "ZipZop sun_kissed"
LUT_3D_SIZE 9
DOMAIN_MIN 0.0 0.0 0.0
DOMAIN_MAX 1.0 1.0 1.0
0.078061 0.067154 0.056082
0.144981 0.065946 0.054999
0.255273 0.064228 0.053364
0.385231 0.062619 0.051667
0.526406 0.061358 0.050094
0.669617 0.060579 0.048779
0.805177 0.060298 0.047791
0.923191 0.060410 0.047133
0.996202 0.060647 0.046821
0.073848 0.132663 0.052668
0.142335 0.132134 0.051782
0.254894 0.131484 0.050475
0.387051 0.131060 0.049172
0.530071 0.131004 0.048038
0.674608 0.131370 0.047180
0.810940 0.132104 0.046637
0.929255 0.133051 0.046377
1.000000 0.133782 0.046316
0.070659 0.245311 0.048596
0.141243 0.245630 0.048061
0.256756 0.246304 0.047339
0.391643 0.247329 0.046738
0.536762 0.248724 0.046381
0.682558 0.250441 0.046331
0.819306 0.252351 0.046570
0.937385 0.254244 0.047008
1.000000 0.255525 0.047388
0.072851 0.382381 0.046402
0.145171 0.383293 0.046323
0.262986 0.384867 0.046361
0.399739 0.386839 0.046665
0.545908 0.389134 0.047309
0.691781 0.391636 0.048294
0.827718 0.394175 0.049534
0.944408 0.396531 0.050861
1.000000 0.398061 0.051800
0.082523 0.532314 0.047408
0.155883 0.533399 0.047876
0.274833 0.535188 0.048821
0.412049 0.537308 0.050205
0.557707 0.539642 0.052037
0.702029 0.542059 0.054246
0.835572 0.544408 0.056666
0.949458 0.546512 0.059040
1.000000 0.547845 0.060636
0.100174 0.681039 0.052279
0.173731 0.681822 0.053356
0.292452 0.683055 0.055308
0.428552 0.684431 0.057887
0.572013 0.685852 0.061031
0.713099 0.687232 0.064588
0.842669 0.688498 0.068305
0.952385 0.689580 0.071826
1.000000 0.690242 0.074140
0.124310 0.814789 0.060715
0.197290 0.814857 0.062419
0.314557 0.814870 0.065405
0.448180 0.814741 0.069208
0.588055 0.814442 0.073692
0.724581 0.813989 0.078625
0.848998 0.813432 0.083661
0.953571 0.812856 0.088346
1.000000 0.812460 0.091390
0.151377 0.922858 0.071299
0.223261 0.921973 0.073588
0.338307 0.920386 0.077538
0.468673 0.918325 0.082482
0.604254 0.915867 0.088213
0.735647 0.913154 0.094422
0.854492 0.910392 0.100680
0.953652 0.907838 0.106443
1.000000 0.906189 0.110162
0.171028 0.984757 0.079445
0.241963 0.983128 0.082115
0.355193 0.980303 0.086693
0.483035 0.976760 0.092378
0.615419 0.972660 0.098917
0.743096 0.968243 0.105953
0.857990 0.963829 0.113003
0.953369 0.959804 0.119463
1.000000 0.957229 0.123617
0.077560 0.066731 0.123820
0.144648 0.065562 0.123110
0.255184 0.063907 0.122038
0.385382 0.062372 0.120929
0.526762 0.061192 0.119908
0.670126 0.060496 0.119067
0.805782 0.060294 0.118452
0.923841 0.060476 0.118062
0.996864 0.060756 0.117889
0.073516 0.132473 0.121582
0.142150 0.131977 0.121003
0.254919 0.131381 0.120154
0.387276 0.131021 0.119316
0.530459 0.131036 0.118604
0.675107 0.131474 0.118089
0.811495 0.132278 0.117796
0.929821 0.133287 0.117698
1.000000 0.134056 0.117711
0.070614 0.245411 0.118951
0.141310 0.245755 0.118617
0.256978 0.246470 0.118181
0.392000 0.247543 0.117846
0.537213 0.248992 0.117698
0.683051 0.250765 0.117779
0.819790 0.252728 0.118070
0.937825 0.254669 0.118498
1.000000 0.255980 0.118845
0.073154 0.382686 0.117703
0.145547 0.383613 0.117703
0.263452 0.385212 0.117826
0.400265 0.387214 0.118167
0.546449 0.389544 0.118774
0.692284 0.392081 0.119644
0.828138 0.394656 0.120706
0.944720 0.397044 0.121824
1.000000 0.398594 0.122608
0.083218 0.532681 0.118863
0.156608 0.533770 0.119280
0.275579 0.535567 0.120098
0.412777 0.537698 0.121273
0.558364 0.540045 0.122806
0.702564 0.542478 0.124638
0.835944 0.544842 0.126634
0.949653 0.546961 0.128587
1.000000 0.548305 0.129897
0.101282 0.681307 0.123007
0.174827 0.682084 0.123901
0.293500 0.683308 0.125515
0.429502 0.684675 0.127639
0.572808 0.686088 0.130221
0.713686 0.687463 0.133139
0.843014 0.688726 0.136186
0.952484 0.689805 0.139073
1.000000 0.690467 0.140972
0.125825 0.814817 0.129962
0.198752 0.814869 0.131360
0.315907 0.814858 0.133809
0.449358 0.814702 0.136927
0.588997 0.814376 0.140604
0.725237 0.813897 0.144652
0.849337 0.813319 0.148788
0.953599 0.812725 0.152641
1.000000 0.812318 0.155146
0.153257 0.922566 0.138641
0.225055 0.921656 0.140518
0.339932 0.920030 0.143760
0.470061 0.917927 0.147820
0.605339 0.915425 0.152531
0.736376 0.912670 0.157643
0.854839 0.909870 0.162802
0.953634 0.907284 0.167561
1.000000 0.905617 0.170634
0.173140 0.984213 0.145325
0.243967 0.982555 0.147518
0.356995 0.979683 0.151281
0.484560 0.976087 0.155959
0.616599 0.971933 0.161348
0.743877 0.967464 0.167156
0.858350 0.963002 0.172984
0.953328 0.958937 0.178334
1.000000 0.956338 0.181778
0.076783 0.066073 0.234233
0.144138 0.064966 0.234099
0.255063 0.063413 0.233895
0.385642 0.061999 0.233686
0.527346 0.060951 0.233504
0.670949 0.060391 0.233375
0.806751 0.060318 0.233312
0.924878 0.060615 0.233310
0.997914 0.060966 0.233336
0.073016 0.132187 0.233808
0.141883 0.131745 0.233700
0.254985 0.131238 0.233546
0.387658 0.130984 0.233409
0.531096 0.131114 0.233323
0.675914 0.131670 0.233308
0.812385 0.132588 0.233369
0.930722 0.133697 0.233486
1.000000 0.134529 0.233592
0.070579 0.245592 0.233360
0.141453 0.245976 0.233324
0.257363 0.246757 0.233305
0.392597 0.247910 0.233348
0.537954 0.249447 0.233482
0.683851 0.251311 0.233718
0.820568 0.253362 0.234040
0.938524 0.255380 0.234405
1.000000 0.256741 0.234673
0.073687 0.383191 0.233465
0.146192 0.384143 0.233565
0.264236 0.385782 0.233783
0.401140 0.387835 0.234129
0.547338 0.390220 0.234619
0.693103 0.392817 0.235246
0.828814 0.395450 0.235965
0.945212 0.397890 0.236698
1.000000 0.399473 0.237204
0.084389 0.533279 0.234686
0.157823 0.534376 0.234990
0.276821 0.536187 0.235558
0.413980 0.538336 0.236339
0.559444 0.540705 0.237330
0.703436 0.543163 0.238493
0.836544 0.545554 0.239749
0.949957 0.547698 0.240972
1.000000 0.549058 0.241791
0.103125 0.681737 0.237459
0.176646 0.682504 0.238027
0.295234 0.683714 0.239046
0.431068 0.685068 0.240378
0.574113 0.686470 0.241993
0.714646 0.687836 0.243817
0.843572 0.689093 0.245725
0.952635 0.690170 0.247538
1.000000 0.690832 0.248733
0.128328 0.814852 0.241831
0.201167 0.814879 0.242705
0.318132 0.814827 0.244236
0.451295 0.814628 0.246190
0.590544 0.814259 0.248501
0.726308 0.813740 0.251056
0.849886 0.813127 0.253680
0.953637 0.812505 0.256135
1.000000 0.812082 0.257738
0.156355 0.922073 0.247266
0.228009 0.921124 0.248447
0.342607 0.919437 0.250492
0.472343 0.917264 0.253064
0.607119 0.914692 0.256065
0.737569 0.911869 0.259340
0.855406 0.909008 0.262664
0.953599 0.906373 0.265747
1.000000 0.904675 0.267746
0.176617 0.983310 0.251482
0.247265 0.981605 0.252873
0.359957 0.978658 0.255268
0.487065 0.974977 0.258259
0.618533 0.970735 0.261726
0.745156 0.966181 0.265484
0.858939 0.961643 0.269278
0.953259 0.957514 0.272780
1.000000 0.954876 0.275043
0.075940 0.065355 0.362726
0.143598 0.064320 0.363215
0.254961 0.062887 0.363943
0.385967 0.061614 0.364693
0.528031 0.060720 0.365393
0.671897 0.060317 0.366000
0.807856 0.060395 0.366494
0.926049 0.060823 0.366870
0.999094 0.061258 0.367081
0.072494 0.131894 0.364251
0.141624 0.131515 0.364642
0.255100 0.131111 0.365222
0.388125 0.130979 0.365815
0.531844 0.131244 0.366365
0.676846 0.131938 0.366840
0.813398 0.132988 0.367228
0.931737 0.134214 0.367524
1.000000 0.135119 0.367692
0.070599 0.245828 0.366088
0.141671 0.246259 0.366354
0.257852 0.247118 0.366745
0.393317 0.248364 0.367144
0.538826 0.250004 0.367517
0.684776 0.251974 0.367844
0.821455 0.254127 0.368120
0.939308 0.256237 0.368341
1.000000 0.257655 0.368472
0.074366 0.383792 0.367483
0.146996 0.384772 0.367654
0.265187 0.386460 0.367909
0.402183 0.388571 0.368180
0.548385 0.391023 0.368447
0.694054 0.393689 0.368705
0.829586 0.396390 0.368946
0.945761 0.398892 0.369162
1.000000 0.400514 0.369301
0.085810 0.533977 0.368478
0.159288 0.535083 0.368607
0.278306 0.536910 0.368814
0.415407 0.539081 0.369059
0.560715 0.541477 0.369335
0.704452 0.543965 0.369637
0.837232 0.546387 0.369954
0.950292 0.548561 0.370261
1.000000 0.549940 0.370469
0.105327 0.682228 0.369369
0.178813 0.682984 0.369518
0.297291 0.684179 0.369777
0.432919 0.685518 0.370112
0.575647 0.686907 0.370520
0.715766 0.688265 0.370991
0.844215 0.689517 0.371499
0.952796 0.690592 0.371998
1.000000 0.691253 0.372335
0.131298 0.814874 0.370479
0.204026 0.814872 0.370702
0.320761 0.814776 0.371101
0.453577 0.814528 0.371625
0.592361 0.814110 0.372269
0.727562 0.813545 0.373010
0.850523 0.812892 0.373802
0.953671 0.812238 0.374571
1.000000 0.811797 0.375086
0.160016 0.921477 0.371922
0.231495 0.920483 0.372254
0.345758 0.918726 0.372844
0.475027 0.916474 0.373614
0.609209 0.913821 0.374548
0.738966 0.910921 0.375610
0.856065 0.907991 0.376730
0.953551 0.905297 0.377803
1.000000 0.903566 0.378515
0.180716 0.982234 0.373137
0.251150 0.980474 0.373555
0.363444 0.977440 0.374296
0.490009 0.973662 0.375255
0.620803 0.969320 0.376410
0.746654 0.964669 0.377710
0.859624 0.960044 0.379069
0.953173 0.955841 0.380362
1.000000 0.953160 0.381216
0.075106 0.064638 0.500801
0.143079 0.063682 0.501903
0.254897 0.062377 0.503543
0.386343 0.061256 0.505219
0.528776 0.060527 0.506757
0.672905 0.060294 0.508046
0.809016 0.060533 0.509037
0.927266 0.061105 0.509732
1.000000 0.061628 0.510089
0.072005 0.131625 0.504234
0.141407 0.131313 0.505107
0.255270 0.131022 0.506386
0.388656 0.131022 0.507659
0.532658 0.131431 0.508785
0.677838 0.132274 0.509680
0.814463 0.133466 0.510319
0.932790 0.134817 0.510723
1.000000 0.135801 0.510905
0.070693 0.246113 0.508228
0.141968 0.246595 0.508763
0.258423 0.247538 0.509509
0.394120 0.248885 0.510191
0.539774 0.250635 0.510713
0.685766 0.252719 0.511035
0.822387 0.254984 0.511163
0.940117 0.257192 0.511147
1.000000 0.258671 0.511081
0.075167 0.384454 0.510673
0.147920 0.385465 0.510867
0.266257 0.387206 0.511079
0.403336 0.389380 0.511170
0.549523 0.391904 0.511097
0.695074 0.394645 0.510856
0.830400 0.397420 0.510489
0.946322 0.399988 0.510069
1.000000 0.401652 0.509765
0.087407 0.534727 0.511077
0.160924 0.535844 0.510967
0.279949 0.537689 0.510705
0.416974 0.539885 0.510279
0.562098 0.542311 0.509688
0.705545 0.544832 0.508967
0.837960 0.547289 0.508184
0.950630 0.549496 0.507430
1.000000 0.550897 0.506931
0.107763 0.682744 0.509609
0.181202 0.683490 0.509257
0.299550 0.684670 0.508622
0.434941 0.685994 0.507794
0.577316 0.687371 0.506810
0.716975 0.688720 0.505732
0.844899 0.689968 0.504648
0.952952 0.691042 0.503659
1.000000 0.691704 0.503029
0.134556 0.814878 0.506907
0.207159 0.814846 0.506384
0.323635 0.814703 0.505490
0.456065 0.814403 0.504391
0.594335 0.813934 0.503150
0.728918 0.813321 0.501850
0.851204 0.812628 0.500589
0.953695 0.811941 0.499472
1.000000 0.811481 0.498774
0.164015 0.920808 0.503805
0.235300 0.919768 0.503178
0.349192 0.917936 0.502131
0.477946 0.915601 0.500879
0.611476 0.912863 0.499503
0.740477 0.909882 0.498099
0.856774 0.906879 0.496767
0.953490 0.904125 0.495610
1.000000 0.902358 0.494897
0.185186 0.981045 0.501640
0.255384 0.979228 0.500969
0.367237 0.976103 0.499860
0.493209 0.972223 0.498552
0.623266 0.967774 0.497134
0.748276 0.963022 0.495706
0.860363 0.958304 0.494368
0.953074 0.954024 0.493219
1.000000 0.951296 0.492516
0.074342 0.063975 0.639733
0.142620 0.063097 0.641394
0.254879 0.061922 0.643859
0.386749 0.060954 0.646361
0.529533 0.060392 0.648630
0.673909 0.060329 0.650494
0.810155 0.060731 0.651881
0.928448 0.061447 0.652809
1.000000 0.062060 0.653257
0.071588 0.131402 0.644893
0.141253 0.131159 0.646194
0.255488 0.130979 0.648086
0.389218 0.131113 0.649939
0.533487 0.131668 0.651534
0.678828 0.132660 0.652741
0.815509 0.133996 0.653531
0.933811 0.135474 0.653954
1.000000 0.136537 0.654098
0.070861 0.246433 0.650751
0.142331 0.246966 0.651503
0.259046 0.247994 0.652516
0.394958 0.249443 0.653380
0.540742 0.251305 0.653946
0.686756 0.253505 0.654154
0.823305 0.255881 0.654035
0.940897 0.258188 0.653694
1.000000 0.259730 0.653377
0.076046 0.385137 0.653908
0.148915 0.386180 0.654072
0.267383 0.387974 0.654153
0.404528 0.390213 0.653966
0.550685 0.392809 0.653443
0.696099 0.395627 0.652598
0.831204 0.398478 0.651522
0.946859 0.401114 0.650379
1.000000 0.402821 0.649579
0.089087 0.535485 0.653360
0.162634 0.536612 0.652958
0.281653 0.538477 0.652140
0.418584 0.540699 0.650943
0.563507 0.543156 0.649378
0.706649 0.545712 0.647526
0.838682 0.548205 0.645542
0.950948 0.550445 0.643640
1.000000 0.551868 0.642382
0.110285 0.683253 0.649173
0.183669 0.683989 0.648267
0.301873 0.685155 0.646650
0.437012 0.686466 0.644559
0.579015 0.687832 0.642075
0.718198 0.689174 0.639341
0.845582 0.690419 0.636564
0.953093 0.691492 0.634002
1.000000 0.692155 0.632350
0.137905 0.814861 0.642321
0.210373 0.814799 0.640999
0.326576 0.814610 0.638724
0.458604 0.814260 0.635901
0.596344 0.813741 0.632668
0.730291 0.813083 0.629220
0.851888 0.812349 0.625806
0.953707 0.811631 0.622716
1.000000 0.811152 0.620751
0.168109 0.920108 0.634381
0.239191 0.919021 0.632742
0.352698 0.917116 0.629970
0.480921 0.914699 0.626596
0.613783 0.911877 0.622803
0.742011 0.908816 0.618825
0.857487 0.905741 0.614941
0.953422 0.902929 0.611467
1.000000 0.901126 0.609275
0.189753 0.979818 0.628657
0.259705 0.977944 0.626843
0.371105 0.974728 0.623797
0.496466 0.970747 0.620121
0.625770 0.966194 0.616023
0.749921 0.961340 0.611759
0.861109 0.956531 0.607624
0.952969 0.952176 0.603945
1.000000 0.949402 0.601633
0.073688 0.063402 0.770583
0.142245 0.062599 0.772719
0.254905 0.061546 0.775877
0.387157 0.060722 0.779062
0.530255 0.060317 0.781918
0.674846 0.060415 0.784222
0.811205 0.060971 0.785890
0.929525 0.061822 0.786956
1.000000 0.062520 0.787443
0.071261 0.131235 0.777196
0.141166 0.131056 0.778851
0.255736 0.130983 0.781236
0.389775 0.131243 0.783543
0.534278 0.131936 0.785479
0.679755 0.133069 0.786881
0.816473 0.134540 0.787721
0.934738 0.136138 0.788084
1.000000 0.137276 0.788143
0.071086 0.246764 0.784536
0.142731 0.247346 0.785441
0.259677 0.248455 0.786627
0.395777 0.249999 0.787570
0.541665 0.251968 0.788079
0.687686 0.254277 0.788084
0.824152 0.256759 0.787642
0.941603 0.259160 0.786918
1.000000 0.260761 0.786317
0.076941 0.385796 0.788052
0.149910 0.386869 0.788141
0.268489 0.388714 0.788020
0.405681 0.391016 0.787481
0.551793 0.393681 0.786440
0.697065 0.396572 0.784930
0.831947 0.399494 0.783100
0.947340 0.402194 0.781201
1.000000 0.403942 0.779886
0.090735 0.536201 0.786285
0.164303 0.537339 0.785562
0.283304 0.539224 0.784144
0.420133 0.541470 0.782134
0.564852 0.543958 0.779558
0.707692 0.546547 0.776550
0.839353 0.549075 0.773351
0.951227 0.551348 0.770294
1.000000 0.552792 0.768277
0.112726 0.683724 0.779224
0.186051 0.684451 0.777751
0.304108 0.685604 0.775135
0.438995 0.686904 0.771770
0.580635 0.688261 0.767784
0.719357 0.689598 0.763401
0.846219 0.690840 0.758948
0.953210 0.691915 0.754833
1.000000 0.692579 0.752176
0.141124 0.814827 0.768179
0.213459 0.814738 0.766059
0.329394 0.814507 0.762413
0.461031 0.814111 0.757884
0.598258 0.813547 0.752688
0.731594 0.812846 0.747131
0.852530 0.812076 0.741608
0.953708 0.811329 0.736593
1.000000 0.810833 0.733392
0.172029 0.919423 0.755443
0.242913 0.918293 0.752807
0.356047 0.916320 0.748341
0.483758 0.913828 0.742888
0.615979 0.910929 0.736734
0.743466 0.907794 0.730248
0.858161 0.904653 0.723883
0.953350 0.901786 0.718160
1.000000 0.899951 0.714534
0.194117 0.978633 0.746221
0.263832 0.976706 0.743288
0.374794 0.973407 0.738349
0.499569 0.969332 0.732364
0.628152 0.964682 0.725659
0.751483 0.959735 0.718642
0.861816 0.954842 0.711795
0.952865 0.950416 0.705669
1.000000 0.947600 0.701800
0.073173 0.062945 0.884245
0.141965 0.062206 0.886754
0.254960 0.061260 0.890451
0.387532 0.060561 0.894154
0.530889 0.060294 0.897442
0.675653 0.060531 0.900051
0.812098 0.061221 0.901890
0.930433 0.062190 0.903015
1.000000 0.062961 0.903496
0.071030 0.131124 0.891988
0.141136 0.131001 0.893909
0.255986 0.131021 0.896661
0.390280 0.131390 0.899288
0.534973 0.132203 0.901443
0.680555 0.133460 0.902938
0.817295 0.135049 0.903750
0.935518 0.136751 0.904000
1.000000 0.137954 0.903948
0.071334 0.247075 0.900402
0.143123 0.247699 0.901402
0.260260 0.248879 0.902675
0.396510 0.250507 0.903615
0.542477 0.252568 0.903998
0.688492 0.254973 0.903752
0.824874 0.257548 0.902959
0.942193 0.260031 0.901843
1.000000 0.261683 0.900959
0.077771 0.386381 0.903989
0.150821 0.387481 0.903974
0.269485 0.389371 0.903618
0.406707 0.391727 0.902703
0.552768 0.394453 0.901138
0.697905 0.397408 0.898978
0.832582 0.400392 0.896425
0.947739 0.403149 0.893811
1.000000 0.404932 0.892014
0.092220 0.536826 0.900913
0.165800 0.537973 0.899874
0.284774 0.539875 0.897876
0.421503 0.542145 0.895091
0.566034 0.544659 0.891567
0.708601 0.547279 0.887483
0.839929 0.549838 0.883162
0.951455 0.552139 0.879045
1.000000 0.553602 0.876334
0.114899 0.684126 0.891111
0.188167 0.684846 0.889109
0.306086 0.685989 0.885570
0.440745 0.687280 0.881032
0.582059 0.688630 0.875671
0.720369 0.689963 0.869788
0.846769 0.691205 0.863814
0.953300 0.692280 0.858294
1.000000 0.692947 0.854731
0.143973 0.814783 0.876201
0.216186 0.814671 0.873354
0.331878 0.814404 0.868461
0.463166 0.813970 0.862386
0.599938 0.813367 0.855417
0.732734 0.812631 0.847960
0.853087 0.811830 0.840544
0.953701 0.811059 0.833802
1.000000 0.810549 0.829496
0.175485 0.918809 0.859112
0.246192 0.917642 0.855578
0.358994 0.915612 0.849585
0.486251 0.913055 0.842263
0.617905 0.910090 0.833992
0.744741 0.906892 0.825262
0.858748 0.903695 0.816681
0.953282 0.900781 0.808952
1.000000 0.898918 0.804048
0.197960 0.977582 0.846740
0.267463 0.975610 0.842801
0.378037 0.972239 0.836164
0.502293 0.968084 0.828111
0.630241 0.963351 0.819077
0.752852 0.958324 0.809603
0.862432 0.953359 0.800341
0.952772 0.948873 0.792037
1.000000 0.946020 0.786784
0.072878 0.062681 0.954545
0.141812 0.061982 0.957267
0.255010 0.061102 0.961267
0.387774 0.060481 0.965258
0.531284 0.060298 0.968776
0.676151 0.060622 0.971539
0.812643 0.061395 0.973450
0.930982 0.062437 0.974583
1.000000 0.063254 0.975043
0.070911 0.131071 0.962926
0.141138 0.130982 0.964994
0.256157 0.131060 0.967944
0.390602 0.131497 0.970734
0.535406 0.132385 0.972990
0.681048 0.133718 0.974507
0.817796 0.135380 0.975269
0.935989 0.137146 0.975421
1.000000 0.138390 0.975283
0.071511 0.247278 0.971906
0.143388 0.247929 0.972947
0.260637 0.249152 0.974246
0.396975 0.250833 0.975151
0.542984 0.252952 0.975423
0.688989 0.255416 0.974986
0.825315 0.258047 0.973944
0.942548 0.260581 0.972558
1.000000 0.262266 0.971482
0.078309 0.386749 0.975427
0.151405 0.387866 0.975331
0.270118 0.389784 0.974801
0.407353 0.392173 0.973621
0.553377 0.394938 0.971699
0.698425 0.397932 0.969103
0.832971 0.400956 0.966071
0.947978 0.403747 0.962987
1.000000 0.405553 0.960876
0.093162 0.537214 0.971426
0.166746 0.538367 0.970174
0.285700 0.540280 0.967791
0.422363 0.542564 0.964496
0.566772 0.545096 0.960351
0.709164 0.547734 0.955569
0.840282 0.550313 0.950523
0.951590 0.552632 0.945725
1.000000 0.554107 0.942568
0.116267 0.684372 0.959817
0.189497 0.685088 0.957472
0.307327 0.686225 0.953334
0.441840 0.687510 0.948040
0.582947 0.688857 0.941797
0.720998 0.690188 0.934953
0.847108 0.691430 0.928009
0.953351 0.692506 0.921596
1.000000 0.693175 0.917456
0.145759 0.814750 0.942414
0.217895 0.814624 0.939101
0.333433 0.814336 0.933411
0.464500 0.813878 0.926350
0.600986 0.813251 0.918253
0.733443 0.812494 0.909590
0.853431 0.811675 0.900974
0.953693 0.810888 0.893139
1.000000 0.810370 0.888133
0.177647 0.918420 0.922546
0.248242 0.917231 0.918439
0.360835 0.915165 0.911478
0.487807 0.912569 0.902971
0.619105 0.909564 0.893359
0.745533 0.906327 0.883211
0.859112 0.903096 0.873231
0.953238 0.900154 0.864237
1.000000 0.898274 0.858528
0.200360 0.976921 0.908172
0.269730 0.974922 0.903596
0.380061 0.971507 0.895884
0.503992 0.967302 0.886524
0.631542 0.962519 0.876018
0.753703 0.957444 0.864995
0.862815 0.952434 0.854211
0.952712 0.947911 0.844537
1.000000 0.945037 0.838413
