backend/app/assets/luts/cinematic_warm.cube
TITLE "ZipZop cinematic_warm"
LUT_3D_SIZE 9
DOMAIN_MIN 0.0 0.0 0.0
DOMAIN_MAX 1.0 1.0 1.0
0.000000 0.110911 0.145111
0.010978 0.108916 0.142684
0.118008 0.100185 0.131945
0.255789 0.089960 0.119089
0.413764 0.079414 0.105457
0.578676 0.069540 0.092276
0.734977 0.061108 0.080622
0.865735 0.054675 0.071423
0.895276 0.053295 0.069408
0.000000 0.128198 0.136990
0.009963 0.126380 0.134599
0.118927 0.118432 0.124027
0.258818 0.109137 0.111387
0.418768 0.099568 0.098006
0.585311 0.090632 0.085088
0.742806 0.083025 0.073688
0.874325 0.077241 0.064704
0.904008 0.076003 0.062738
0.000000 0.217182 0.102189
0.007226 0.216055 0.099977
0.124010 0.211138 0.090228
0.272314 0.205425 0.078646
0.439979 0.199600 0.066478
0.612699 0.194233 0.054837
0.774501 0.189740 0.044661
0.908579 0.186388 0.036715
0.938717 0.185679 0.034986
0.000000 0.347401 0.063507
0.008354 0.346883 0.061550
0.132834 0.344624 0.052971
0.289134 0.342004 0.042881
0.463726 0.339352 0.032416
0.641489 0.336943 0.022555
0.806254 0.334971 0.014077
0.941579 0.333541 0.007563
0.971852 0.333245 0.006160
0.000000 0.507839 0.027069
0.016033 0.507690 0.025437
0.146539 0.507001 0.018337
0.308659 0.506128 0.010123
0.487635 0.505159 0.001789
0.667722 0.504199 0.000000
0.832811 0.503347 0.000000
0.967122 0.502686 0.000000
0.997011 0.502544 0.000000
0.001546 0.677727 0.000000
0.031365 0.677636 0.000000
0.165416 0.677128 0.000000
0.330315 0.676299 0.000000
0.510352 0.675153 0.000000
0.689444 0.673781 0.000000
0.851815 0.672347 0.000000
0.982630 0.671065 0.000000
1.000000 0.670766 0.000000
0.022725 0.833176 0.000000
0.052926 0.832866 0.000000
0.188048 0.831306 0.000000
0.352823 0.829022 0.000000
0.530920 0.826083 0.000000
0.706186 0.822702 0.000000
0.863402 0.819241 0.000000
0.988839 0.816172 0.000000
1.000000 0.815457 0.000000
0.046199 0.954484 0.000000
0.076369 0.953803 0.000000
0.210822 0.950521 0.000000
0.373607 0.945993 0.000000
0.548058 0.940435 0.000000
0.718140 0.934260 0.000000
0.869260 0.928087 0.000000
0.988768 0.922696 0.000000
1.000000 0.921450 0.000000
0.052243 0.980426 0.000000
0.082363 0.979639 0.000000
0.216478 0.975866 0.000000
0.378587 0.970708 0.000000
0.551971 0.964423 0.000000
0.720644 0.957483 0.000000
0.870171 0.950574 0.000000
0.988167 0.944559 0.000000
1.000000 0.943171 0.000000
0.000000 0.110232 0.167844
0.010869 0.108242 0.165546
0.118098 0.099538 0.155365
0.256096 0.089346 0.143154
0.414274 0.078837 0.130178
0.579355 0.069002 0.117601
0.735780 0.060607 0.106454
0.866618 0.054204 0.097637
0.896174 0.052831 0.095703
0.000000 0.127579 0.160150
0.009868 0.125767 0.157883
0.119024 0.117843 0.147848
0.259123 0.108578 0.135827
0.419267 0.099045 0.123072
0.585970 0.090145 0.110729
0.743581 0.082573 0.099809
0.875172 0.076818 0.091185
0.904870 0.075587 0.089297
0.000000 0.216798 0.127062
0.007200 0.215674 0.124953
0.124145 0.210774 0.115644
0.272619 0.205083 0.104561
0.440436 0.199284 0.092890
0.613274 0.193943 0.081694
0.775154 0.189476 0.071880
0.909273 0.186145 0.064197
0.939417 0.185442 0.062523
0.000000 0.347225 0.090035
0.008425 0.346708 0.088154
0.133027 0.344457 0.079896
0.289450 0.341848 0.070160
0.464144 0.339209 0.060032
0.641973 0.336814 0.050457
0.806769 0.334856 0.042195
0.942097 0.333440 0.035825
0.972368 0.333147 0.034450
0.000000 0.507789 0.054844
0.016225 0.507638 0.053258
0.146811 0.506948 0.046350
0.309003 0.506074 0.038331
0.488024 0.505105 0.030160
0.668123 0.504145 0.022625
0.833191 0.503296 0.016304
0.967463 0.502638 0.011571
0.997341 0.502496 0.010568
0.001864 0.677697 0.026052
0.031694 0.677603 0.024808
0.165784 0.677084 0.019460
0.330703 0.676241 0.013417
0.510730 0.675081 0.007485
0.689776 0.673697 0.002273
0.852076 0.672253 0.000000
0.982811 0.670964 0.000000
1.000000 0.670664 0.000000
0.023191 0.833072 0.006109
0.053395 0.832757 0.005219
0.188517 0.831176 0.001484
0.353265 0.828868 0.000000
0.531301 0.825903 0.000000
0.706471 0.822498 0.000000
0.863568 0.819016 0.000000
0.988886 0.815930 0.000000
1.000000 0.815213 0.000000
0.046796 0.954255 0.000000
0.076961 0.953568 0.000000
0.211383 0.950257 0.000000
0.374104 0.945695 0.000000
0.548451 0.940102 0.000000
0.718396 0.933893 0.000000
0.869358 0.927689 0.000000
0.988717 0.922275 0.000000
1.000000 0.921024 0.000000
0.052870 0.980161 0.000000
0.082984 0.979367 0.000000
0.217061 0.975564 0.000000
0.379097 0.970370 0.000000
0.552369 0.964047 0.000000
0.720893 0.957071 0.000000
0.870255 0.950130 0.000000
0.988094 0.944090 0.000000
1.000000 0.942696 0.000000
0.000000 0.107211 0.270743
0.010399 0.105248 0.269009
0.118508 0.096660 0.261276
0.257466 0.086617 0.251891
0.416545 0.076277 0.241778
0.582371 0.066616 0.231832
0.739343 0.058387 0.222892
0.870530 0.052123 0.215731
0.900152 0.050782 0.214150
0.000000 0.124828 0.264921
0.009462 0.123040 0.263197
0.119467 0.115226 0.255513
0.260489 0.106101 0.246198
0.421492 0.096726 0.236176
0.588898 0.087991 0.226335
0.747016 0.080576 0.217503
0.878926 0.074952 0.210438
0.908682 0.073750 0.208880
0.000000 0.215092 0.239327
0.007106 0.213985 0.237663
0.124760 0.209162 0.230271
0.273985 0.203569 0.221361
0.442474 0.197884 0.211841
0.615828 0.192664 0.202565
0.778044 0.188313 0.194306
0.912342 0.185080 0.187747
0.942514 0.184399 0.186306
0.000000 0.346441 0.209490
0.008768 0.345932 0.207936
0.133907 0.343717 0.201061
0.290871 0.341157 0.192845
0.466007 0.338577 0.184155
0.644123 0.336248 0.175786
0.809046 0.334356 0.168425
0.944381 0.332997 0.162647
0.974641 0.332718 0.161387
0.000000 0.507560 0.179641
0.017113 0.507407 0.178251
0.148050 0.506708 0.172145
0.310553 0.505828 0.164932
0.489766 0.504859 0.157420
0.669901 0.503906 0.150312
0.834866 0.503068 0.144180
0.968958 0.502423 0.139456
0.998784 0.502285 0.138438
0.003320 0.677550 0.153569
0.033198 0.677444 0.152392
0.167452 0.676872 0.147264
0.332453 0.675969 0.141314
0.512422 0.674750 0.135262
0.691254 0.673313 0.129698
0.853221 0.671826 0.125052
0.983588 0.670506 0.121594
1.000000 0.670199 0.120864
0.025313 0.832588 0.133819
0.055527 0.832252 0.132877
0.190641 0.830577 0.128829
0.355262 0.828159 0.124263
0.533009 0.825080 0.119795
0.707736 0.821567 0.115891
0.864290 0.817992 0.112834
0.989070 0.814834 0.110720
1.000000 0.814101 0.110295
0.049506 0.953202 0.121148
0.079650 0.952486 0.120427
0.213924 0.949048 0.117392
0.376346 0.944336 0.114115
0.550218 0.938584 0.111115
0.719532 0.932223 0.108742
0.869781 0.925885 0.107141
0.988461 0.920366 0.106254
1.000000 0.919092 0.106108
0.055717 0.978945 0.118786
0.085803 0.978120 0.118119
0.219701 0.974183 0.115326
0.381399 0.968829 0.112356
0.554154 0.962338 0.109705
0.722006 0.955200 0.107695
0.870616 0.948116 0.106439
0.987746 0.941963 0.105842
1.000000 0.940545 0.105762
0.000000 0.103563 0.399162
0.009862 0.101631 0.398093
0.119031 0.093189 0.393240
0.259143 0.083330 0.387168
0.419300 0.073199 0.380402
0.586013 0.063754 0.373519
0.743631 0.055730 0.367135
0.875227 0.049638 0.361882
0.904926 0.048336 0.360706
0.000000 0.121506 0.395544
0.009005 0.119748 0.394458
0.120031 0.112070 0.389535
0.262160 0.103118 0.383388
0.424190 0.093940 0.376553
0.592433 0.085409 0.369616
0.751150 0.078188 0.363194
0.883430 0.072727 0.357919
0.913255 0.071562 0.356739
0.000000 0.213037 0.378727
0.007036 0.211950 0.377582
0.125540 0.207223 0.372418
0.275662 0.201753 0.366022
0.444949 0.196210 0.358977
0.618910 0.191139 0.351891
0.781515 0.186932 0.345388
0.916012 0.183822 0.340087
0.946214 0.183168 0.338905
0.000000 0.345496 0.357202
0.009240 0.344997 0.356021
0.135019 0.342827 0.350721
0.292623 0.340329 0.344218
0.468275 0.337825 0.337128
0.646717 0.335579 0.330076
0.811771 0.333770 0.323671
0.947096 0.332483 0.318497
0.977339 0.332220 0.317349
0.000000 0.507274 0.333353
0.018260 0.507119 0.332177
0.149608 0.506411 0.326932
0.312470 0.505527 0.320559
0.491892 0.504560 0.313692
0.672046 0.503617 0.306946
0.836862 0.502795 0.300895
0.970713 0.502168 0.296062
1.000000 0.502035 0.294997
0.005176 0.677346 0.310070
0.035110 0.677225 0.308947
0.169544 0.676590 0.303967
0.334623 0.675615 0.297983
0.514494 0.674326 0.291620
0.693038 0.672825 0.285463
0.854575 0.671287 0.280025
0.984472 0.669931 0.275744
1.000000 0.669616 0.274808
0.027992 0.831950 0.290055
0.058214 0.831588 0.289022
0.193300 0.829800 0.284469
0.357740 0.827249 0.279068
0.535109 0.824033 0.273416
0.709266 0.820391 0.268045
0.865133 0.816703 0.263394
0.989233 0.813459 0.259804
1.000000 0.812707 0.259028
0.052911 0.951851 0.275174
0.083025 0.951100 0.274243
0.217099 0.947508 0.270170
0.379131 0.942614 0.265405
0.552395 0.936669 0.260507
0.720910 0.930124 0.255953
0.870261 0.923625 0.252106
0.988090 0.917978 0.249210
1.000000 0.916677 0.248594
0.059291 0.977391 0.272074
0.089338 0.976529 0.271170
0.222998 0.972429 0.267220
0.384259 0.966881 0.262616
0.556354 0.960187 0.257908
0.723357 0.952852 0.253558
0.871022 0.945595 0.249910
0.987262 0.939306 0.247185
1.000000 0.937858 0.246608
0.000000 0.099647 0.542206
0.009326 0.097750 0.541828
0.119627 0.089469 0.539967
0.260970 0.079814 0.537326
0.422272 0.069913 0.534010
0.589922 0.060707 0.530268
0.748216 0.052909 0.526488
0.880234 0.047008 0.523167
0.910011 0.045748 0.522398
0.000000 0.117942 0.540879
0.008557 0.116217 0.540456
0.120675 0.108691 0.538395
0.263983 0.099930 0.535520
0.427101 0.090969 0.531962
0.596225 0.082664 0.527991
0.755567 0.075657 0.524014
0.888228 0.070376 0.520541
0.918121 0.069252 0.519739
0.000000 0.210836 0.533133
0.007019 0.209772 0.532521
0.126427 0.205152 0.529637
0.277499 0.199819 0.525800
0.447623 0.194433 0.521252
0.622216 0.189529 0.516354
0.785216 0.185482 0.511582
0.919905 0.182507 0.507501
0.950135 0.181884 0.506568
0.000000 0.344485 0.520055
0.009822 0.343997 0.519247
0.136276 0.341879 0.515514
0.294549 0.339451 0.510696
0.470732 0.337032 0.505149
0.649498 0.334879 0.499329
0.814666 0.333163 0.493781
0.949955 0.331957 0.489114
0.980174 0.331713 0.488056
0.000000 0.506957 0.502071
0.019590 0.506800 0.501095
0.151362 0.506085 0.496638
0.314586 0.505197 0.490995
0.494204 0.504236 0.484628
0.674346 0.503306 0.478071
0.838969 0.502504 0.471923
0.972534 0.501899 0.466818
1.000000 0.501771 0.465668
0.007295 0.677091 0.481145
0.037283 0.676955 0.480049
0.171891 0.676252 0.475077
0.337024 0.675202 0.468868
0.516756 0.673838 0.461963
0.694953 0.672272 0.454953
0.855990 0.670681 0.448462
0.985350 0.669287 0.443130
1.000000 0.668964 0.441936
0.031018 0.831198 0.460213
0.061243 0.830809 0.459047
0.196273 0.828899 0.453789
0.360487 0.826206 0.447289
0.537410 0.822842 0.440139
0.710913 0.819061 0.432960
0.865998 0.815254 0.426383
0.989332 0.811918 0.421028
1.000000 0.811146 0.419835
0.056736 0.950302 0.442404
0.086812 0.949513 0.441210
0.220644 0.945755 0.435851
0.382219 0.940664 0.429273
0.554786 0.934513 0.422098
0.722397 0.927769 0.414958
0.870737 0.921096 0.408471
0.987613 0.915312 0.403228
1.000000 0.913981 0.402065
0.063302 0.975615 0.438384
0.093301 0.974714 0.437187
0.226677 0.970438 0.431821
0.387431 0.964681 0.425245
0.558774 0.957766 0.418087
0.724816 0.950220 0.410976
0.871419 0.942777 0.404529
0.986663 0.936341 0.399327
1.000000 0.934861 0.398174
0.000000 0.095803 0.688068
0.008843 0.093942 0.688346
0.120252 0.085824 0.689318
0.262795 0.076375 0.689913
0.425207 0.066707 0.689834
0.593761 0.057744 0.689019
0.752699 0.050175 0.687647
0.885114 0.044465 0.686099
0.914964 0.043249 0.685702
0.000000 0.114446 0.688914
0.008164 0.112754 0.689117
0.121348 0.105381 0.689759
0.265805 0.096815 0.689961
0.429978 0.088074 0.689466
0.599949 0.079998 0.688248
0.759884 0.073207 0.686520
0.892900 0.068108 0.684690
0.922857 0.067025 0.684232
0.000000 0.208682 0.689702
0.007064 0.207643 0.689586
0.127350 0.203130 0.688823
0.279341 0.197938 0.687350
0.450270 0.192713 0.685086
0.625459 0.187977 0.682162
0.788823 0.184092 0.678927
0.923681 0.181255 0.675906
0.953933 0.180664 0.675186
0.000000 0.343497 0.684413
0.010476 0.343020 0.683944
0.137580 0.340956 0.681618
0.296490 0.338601 0.678289
0.473171 0.336270 0.674072
0.652226 0.334213 0.669271
0.817477 0.332593 0.664385
0.952704 0.331470 0.660065
0.982894 0.331245 0.659061
0.000000 0.506636 0.671577
0.021001 0.506476 0.670765
0.153172 0.505756 0.666936
0.316726 0.504869 0.661827
0.496506 0.503915 0.655747
0.676603 0.503002 0.649168
0.841002 0.502223 0.642726
0.974255 0.501641 0.637189
1.000000 0.501519 0.635920
0.009509 0.676805 0.652291
0.039546 0.676653 0.651184
0.174303 0.675886 0.646062
0.339460 0.674763 0.639433
0.519018 0.673328 0.631772
0.696834 0.671698 0.623696
0.857340 0.670057 0.615957
0.986138 0.668627 0.609414
1.000000 0.668297 0.607927
0.034148 0.830390 0.629783
0.064372 0.829973 0.628448
0.199320 0.827945 0.622327
0.363277 0.825112 0.614531
0.539720 0.821604 0.605671
0.712535 0.817687 0.596471
0.866808 0.813762 0.587772
0.989350 0.810336 0.580493
1.000000 0.809544 0.578847
0.060674 0.948676 0.608511
0.090705 0.947850 0.607017
0.224269 0.943929 0.600212
0.385358 0.938643 0.591626
0.557195 0.932288 0.581962
0.723866 0.925349 0.572022
0.871165 0.918504 0.562699
0.987062 0.912585 0.554950
1.000000 0.911224 0.553204
0.067427 0.973759 0.603449
0.097373 0.972818 0.601925
0.230439 0.968368 0.594983
0.390655 0.962405 0.586240
0.561211 0.955273 0.576418
0.726259 0.947518 0.566334
0.871769 0.939891 0.556892
0.985993 0.933310 0.549054
1.000000 0.931799 0.547289
0.000000 0.092347 0.824013
0.008448 0.090519 0.824861
0.120850 0.082552 0.828287
0.264463 0.073295 0.831674
0.427864 0.063843 0.834372
0.597214 0.055104 0.836050
0.756716 0.047747 0.836712
0.889472 0.042215 0.836648
0.919383 0.041039 0.836560
0.000000 0.111305 0.826744
0.007854 0.109644 0.827490
0.121992 0.102413 0.830467
0.267472 0.094027 0.833315
0.432582 0.085490 0.835438
0.603300 0.077626 0.836554
0.763751 0.071036 0.836714
0.897070 0.066106 0.836248
0.927080 0.065061 0.836073
0.000000 0.206753 0.834876
0.007160 0.205735 0.835185
0.128229 0.201324 0.836224
0.281035 0.196262 0.836744
0.452671 0.191186 0.836384
0.628376 0.186609 0.835080
0.792046 0.182874 0.833080
0.927036 0.180165 0.830891
0.957302 0.179603 0.830335
0.000000 0.342612 0.836145
0.011138 0.342146 0.835953
0.138814 0.340134 0.834777
0.298282 0.337848 0.832640
0.475388 0.335600 0.829452
0.654679 0.333634 0.825398
0.819979 0.332103 0.820946
0.955127 0.331058 0.816804
0.985285 0.330851 0.815818
0.000000 0.506338 0.827392
0.022364 0.506178 0.826699
0.154878 0.505454 0.823305
0.318709 0.504569 0.818515
0.498607 0.503626 0.812510
0.678632 0.502731 0.805722
0.842799 0.501974 0.798840
0.975745 0.501416 0.792768
1.000000 0.501300 0.791358
0.011622 0.676516 0.808977
0.041699 0.676351 0.807830
0.176569 0.675527 0.802431
0.341721 0.674339 0.795245
0.521091 0.672841 0.786704
0.698529 0.671156 0.777465
0.858521 0.669471 0.768412
0.986782 0.668010 0.760621
1.000000 0.667674 0.758833
0.037108 0.829602 0.784451
0.067324 0.829161 0.782929
0.202177 0.827025 0.775877
0.365871 0.824066 0.766725
0.541844 0.820428 0.756110
0.713999 0.816389 0.744874
0.867501 0.812360 0.734060
0.989296 0.808852 0.724879
1.000000 0.808043 0.722787
0.064379 0.947121 0.759536
0.094365 0.946261 0.757737
0.227661 0.942192 0.749468
0.388277 0.936731 0.738872
0.559415 0.930191 0.726741
0.725198 0.923076 0.714050
0.871516 0.916076 0.701959
0.986494 0.910036 0.691775
1.000000 0.908648 0.689464
0.071305 0.971989 0.753417
0.101197 0.971012 0.751560
0.233957 0.966405 0.743036
0.393654 0.960255 0.732137
0.563460 0.952927 0.719688
0.727567 0.944983 0.706694
0.872049 0.937190 0.694338
0.985317 0.930479 0.683947
1.000000 0.928939 0.681591
0.000000 0.089573 0.936555
0.008160 0.087773 0.937844
0.121356 0.079931 0.943174
0.265824 0.070831 0.948717
0.430009 0.061558 0.953549
0.599989 0.053003 0.957128
0.759931 0.045820 0.959329
0.892950 0.040435 0.960375
0.922908 0.039292 0.960518
0.000000 0.108785 0.940748
0.007636 0.107150 0.941914
0.122537 0.100036 0.946698
0.268833 0.091799 0.951583
0.434686 0.083430 0.955709
0.605991 0.075740 0.958597
0.766845 0.069316 0.960177
0.900395 0.064525 0.960725
0.930445 0.063512 0.960758
0.000000 0.205209 0.954540
0.007278 0.204210 0.955172
0.128971 0.199883 0.957582
0.282421 0.194928 0.959607
0.454613 0.189977 0.960668
0.630719 0.185529 0.960554
0.794620 0.181920 0.959440
0.929701 0.179317 0.957830
0.959976 0.178779 0.957386
0.000000 0.341906 0.960749
0.011723 0.341449 0.960762
0.139851 0.339480 0.960424
0.299753 0.337252 0.959139
0.477186 0.335073 0.956659
0.656648 0.333183 0.953081
0.821969 0.331727 0.948863
0.957038 0.330747 0.944767
0.987166 0.330555 0.943774
0.000000 0.506094 0.954882
0.023528 0.505933 0.954264
0.156306 0.505208 0.951127
0.320342 0.504327 0.946474
0.500317 0.503393 0.940398
0.680262 0.502514 0.933308
0.844221 0.501778 0.925946
0.976899 0.501241 0.919338
1.000000 0.501129 0.917791
0.013407 0.676262 0.936733
0.043512 0.676087 0.935531
0.178460 0.675217 0.929806
0.343588 0.673978 0.922044
0.522784 0.672430 0.912654
0.699892 0.670702 0.902333
0.859446 0.668983 0.892087
0.987253 0.667498 0.883178
1.000000 0.667157 0.881123
0.039589 0.828925 0.910151
0.069796 0.828464 0.908455
0.204554 0.826242 0.900545
0.368014 0.823183 0.890164
0.543583 0.819440 0.877986
0.715180 0.815303 0.864954
0.868034 0.811190 0.852293
0.989203 0.807618 0.841462
1.000000 0.806795 0.838984
0.067472 0.945806 0.881931
0.097418 0.944919 0.879861
0.230480 0.940730 0.870299
0.390691 0.935128 0.857941
0.561238 0.928440 0.843665
0.726274 0.921182 0.828597
0.871773 0.914057 0.814126
0.985985 0.907919 0.801857
1.000000 0.906511 0.799063
0.074540 0.970495 0.874874
0.104385 0.969490 0.872725
0.236880 0.964756 0.862810
0.396133 0.958456 0.850031
0.565306 0.950969 0.835307
0.728626 0.942873 0.819807
0.872250 0.934946 0.804952
0.984721 0.928129 0.792378
1.000000 0.926566 0.789517
0.000000 0.088960 0.961869
0.008101 0.087165 0.963255
0.121471 0.079351 0.968997
0.266128 0.070287 0.975007
0.430486 0.061054 0.980298
0.600604 0.052540 0.984286
0.760641 0.045397 0.986815
0.893717 0.040044 0.988097
0.923685 0.038909 0.988289
0.000000 0.108228 0.966380
0.007592 0.106599 0.967638
0.122661 0.099511 0.972812
0.269137 0.091307 0.978138
0.435153 0.082976 0.982694
0.606587 0.075326 0.985961
0.767528 0.068938 0.987843
0.901128 0.064178 0.988606
0.931187 0.063172 0.988682
0.000000 0.204868 0.981394
0.007310 0.203873 0.982096
0.129139 0.199565 0.984800
0.282731 0.194635 0.987145
0.455044 0.189711 0.988508
0.631237 0.185293 0.988643
0.795187 0.181711 0.987712
0.930287 0.179132 0.986219
0.960563 0.178599 0.985797
0.000000 0.341750 0.988656
0.011859 0.341295 0.988712
0.140086 0.339337 0.988550
0.300083 0.337122 0.987439
0.477586 0.334958 0.985101
0.657084 0.333085 0.981613
0.822407 0.331646 0.977432
0.957456 0.330681 0.973334
0.987577 0.330492 0.972337
0.000000 0.506039 0.983379
0.023794 0.505878 0.982775
0.156629 0.505153 0.979683
0.320709 0.504273 0.975046
0.500698 0.503342 0.968938
0.680623 0.502466 0.961763
0.844532 0.501735 0.954280
0.977149 0.501202 0.947540
1.000000 0.501092 0.945959
0.013812 0.676203 0.965234
0.043924 0.676025 0.964017
0.178887 0.675145 0.958207
0.344008 0.673896 0.950303
0.523162 0.672337 0.940706
0.700193 0.670599 0.930127
0.859647 0.668873 0.919600
0.987351 0.667382 0.910429
1.000000 0.667041 0.908312
0.040151 0.828770 0.938143
0.070356 0.828305 0.936406
0.205091 0.826063 0.928292
0.368496 0.822982 0.917622
0.543973 0.819216 0.905079
0.715442 0.815058 0.891630
0.868149 0.810926 0.878542
0.989176 0.807340 0.867330
1.000000 0.806514 0.864763
0.068172 0.945507 0.909144
0.098108 0.944614 0.907012
0.231116 0.940399 0.897149
0.391233 0.934764 0.884383
0.561646 0.928044 0.869611
0.726513 0.920754 0.853996
0.871826 0.913602 0.838980
0.985866 0.907443 0.826233
1.000000 0.906029 0.823329
0.075271 0.970156 0.901870
0.105106 0.969144 0.899653
0.237539 0.964382 0.889415
0.396691 0.958048 0.876201
0.565720 0.950526 0.860953
0.728861 0.942396 0.844877
0.872292 0.934440 0.829449
0.984583 0.927600 0.816376
1.000000 0.926032 0.813400
