backend/app/assets/luts/cinematic_warm.cube
TITLE "ZipZop cinematic_warm"
LUT_3D_SIZE 17
DOMAIN_MIN 0.0 0.0 0.0
DOMAIN_MAX 1.0 1.0 1.0
0.000000 0.110911 0.145111
0.000000 0.110911 0.145111
0.010978 0.108916 0.142684
0.060089 0.104816 0.137666
0.118008 0.100185 0.131945
0.183652 0.095183 0.125695
0.255789 0.089960 0.119089
0.333019 0.084661 0.112290
0.413764 0.079414 0.105457
0.496280 0.074340 0.098739
0.578676 0.069540 0.092276
0.658941 0.065105 0.086197
0.734977 0.061108 0.080622
0.804634 0.057614 0.075663
0.865735 0.054675 0.071423
0.895276 0.053295 0.069408
0.895276 0.053295 0.069408
0.000000 0.110911 0.145111
0.000000 0.110911 0.145111
0.010978 0.108916 0.142684
0.060089 0.104816 0.137666
0.118008 0.100185 0.131945
0.183652 0.095183 0.125695
0.255789 0.089960 0.119089
0.333019 0.084661 0.112290
0.413764 0.079414 0.105457
0.496280 0.074340 0.098739
0.578676 0.069540 0.092276
0.658941 0.065105 0.086197
0.734977 0.061108 0.080622
0.804634 0.057614 0.075663
0.865735 0.054675 0.071423
0.895276 0.053295 0.069408
0.895276 0.053295 0.069408
0.000000 0.128198 0.136990
0.000000 0.128198 0.136990
0.009963 0.126380 0.134599
0.059997 0.122647 0.129658
0.118927 0.118432 0.124027
0.185625 0.113883 0.117881
0.258818 0.109137 0.111387
0.337068 0.104325 0.104711
0.418768 0.099568 0.098006
0.502151 0.094972 0.091419
0.585311 0.090632 0.085088
0.666229 0.086627 0.079139
0.742806 0.083025 0.073688
0.812893 0.079881 0.068843
0.874325 0.077241 0.064704
0.904008 0.076003 0.062738
0.904008 0.076003 0.062738
0.000000 0.167323 0.120483
0.000000 0.167323 0.120483
0.008311 0.165848 0.118172
0.060164 0.162819 0.113400
0.121082 0.159405 0.107968
0.189844 0.155725 0.102047
0.265094 0.151893 0.095802
0.345321 0.148016 0.089391
0.428860 0.144193 0.082965
0.513900 0.140511 0.076665
0.598505 0.137045 0.070621
0.680642 0.133858 0.064954
0.758212 0.131004 0.059772
0.829078 0.128522 0.055175
0.891092 0.126446 0.051255
0.921025 0.125475 0.049397
0.921025 0.125475 0.049397
0.000000 0.217182 0.102189
0.000000 0.217182 0.102189
0.007226 0.216055 0.099977
0.061001 0.213742 0.095414
0.124010 0.211138 0.090228
0.194931 0.208336 0.084586
0.272314 0.205425 0.078646
0.354573 0.202487 0.072562
0.439979 0.199600 0.066478
0.526676 0.196829 0.060529
0.612699 0.194233 0.054837
0.696006 0.191857 0.049515
0.774501 0.189740 0.044661
0.846065 0.187910 0.040367
0.908579 0.186388 0.036715
0.938717 0.185679 0.034986
0.938717 0.185679 0.034986
0.000000 0.277544 0.082930
0.000000 0.277544 0.082930
0.007115 0.276744 0.080837
0.062800 0.275102 0.076523
0.127874 0.273255 0.071630
0.200907 0.271271 0.066318
0.280356 0.269213 0.060741
0.364555 0.267143 0.055044
0.451713 0.265115 0.049366
0.539929 0.263177 0.043831
0.627215 0.261370 0.038555
0.711522 0.259727 0.033638
0.790766 0.258273 0.029171
0.862854 0.257025 0.025233
0.925705 0.255994 0.021894
0.955966 0.255517 0.020318
0.955966 0.255517 0.020318
0.000000 0.347401 0.063507
0.000000 0.347401 0.063507
0.008354 0.346883 0.061550
0.065836 0.345820 0.057525
0.132834 0.344624 0.052971
0.207812 0.343338 0.048041
0.289134 0.342004 0.042881
0.375056 0.340663 0.037630
0.463726 0.339352 0.032416
0.553206 0.338103 0.027357
0.641489 0.336943 0.022555
0.726526 0.335893 0.018103
0.806254 0.334971 0.014077
0.878616 0.334185 0.010544
0.941579 0.333541 0.007563
0.971852 0.333245 0.006160
0.971852 0.333245 0.006160
0.000000 0.424975 0.044667
0.000000 0.424975 0.044667
0.011256 0.424678 0.042865
0.070339 0.424066 0.039165
0.139027 0.423370 0.034991
0.215685 0.422616 0.030489
0.298587 0.421827 0.025797
0.385914 0.421028 0.021044
0.475763 0.420241 0.016351
0.566161 0.419485 0.011822
0.655091 0.418780 0.007550
0.740514 0.418140 0.003614
0.820396 0.417576 0.000079
0.892727 0.417094 0.000000
0.955530 0.416700 0.000000
0.985682 0.416519 0.000000
0.985682 0.416519 0.000000
0.000000 0.507839 0.027069
0.000000 0.507839 0.027069
0.016033 0.507690 0.025437
0.076459 0.507373 0.022093
0.146539 0.507001 0.018337
0.224542 0.506583 0.014304
0.308659 0.506128 0.010123
0.397007 0.505650 0.005916
0.487635 0.505159 0.001789
0.578546 0.504671 0.000000
0.667722 0.504199 0.000000
0.753142 0.503754 0.000000
0.832811 0.503347 0.000000
0.904774 0.502989 0.000000
0.967122 0.502686 0.000000
0.997011 0.502544 0.000000
0.997011 0.502544 0.000000
0.000000 0.593115 0.011254
0.000000 0.593115 0.011254
0.022764 0.593034 0.009803
0.084238 0.592849 0.006842
0.155371 0.592611 0.003531
0.234344 0.592318 0.000000
0.319275 0.591973 0.000000
0.408223 0.591580 0.000000
0.499202 0.591147 0.000000
0.590200 0.590686 0.000000
0.679202 0.590211 0.000000
0.764217 0.589736 0.000000
0.843298 0.589278 0.000000
0.914553 0.588853 0.000000
0.976152 0.588477 0.000000
1.000000 0.588295 0.000000
1.000000 0.588295 0.000000
0.001546 0.677727 0.000000
0.001546 0.677727 0.000000
0.031365 0.677636 0.000000
0.093581 0.677420 0.000000
0.165416 0.677128 0.000000
0.244976 0.676756 0.000000
0.330315 0.676299 0.000000
0.419445 0.675762 0.000000
0.510352 0.675153 0.000000
0.601018 0.674487 0.000000
0.689444 0.673781 0.000000
0.773674 0.673059 0.000000
0.851815 0.672347 0.000000
0.922049 0.671673 0.000000
0.982630 0.671065 0.000000
1.000000 0.670766 0.000000
1.000000 0.670766 0.000000
0.011497 0.758656 0.000000
0.011497 0.758656 0.000000
0.041571 0.758484 0.000000
0.104233 0.758090 0.000000
0.176436 0.757577 0.000000
0.256220 0.756939 0.000000
0.341589 0.756174 0.000000
0.430516 0.755288 0.000000
0.520970 0.754295 0.000000
0.610934 0.753216 0.000000
0.698431 0.752079 0.000000
0.781548 0.750919 0.000000
0.858454 0.749775 0.000000
0.927406 0.748691 0.000000
0.986747 0.747714 0.000000
1.000000 0.747233 0.000000
1.000000 0.747233 0.000000
0.022725 0.833176 0.000000
0.022725 0.833176 0.000000
0.052926 0.832866 0.000000
0.115771 0.832175 0.000000
0.188048 0.831306 0.000000
0.267745 0.830253 0.000000
0.352823 0.829022 0.000000
0.441229 0.827625 0.000000
0.530920 0.826083 0.000000
0.619889 0.824428 0.000000
0.706186 0.822702 0.000000
0.787947 0.820954 0.000000
0.863402 0.819241 0.000000
0.930888 0.817625 0.000000
0.988839 0.816172 0.000000
1.000000 0.815457 0.000000
1.000000 0.815457 0.000000
0.034569 0.899025 0.000000
0.034569 0.899025 0.000000
0.064791 0.898538 0.000000
0.127607 0.897470 0.000000
0.199727 0.896152 0.000000
0.279099 0.894587 0.000000
0.363648 0.892786 0.000000
0.451306 0.890770 0.000000
0.540025 0.888574 0.000000
0.627811 0.886240 0.000000
0.712747 0.883827 0.000000
0.793015 0.881399 0.000000
0.866910 0.879032 0.000000
0.932847 0.876808 0.000000
0.989346 0.874816 0.000000
1.000000 0.873839 0.000000
1.000000 0.873839 0.000000
0.046199 0.954484 0.000000
0.046199 0.954484 0.000000
0.076369 0.953803 0.000000
0.139010 0.952325 0.000000
0.210822 0.950521 0.000000
0.289720 0.948404 0.000000
0.373607 0.945993 0.000000
0.460401 0.943322 0.000000
0.548058 0.940435 0.000000
0.634600 0.937391 0.000000
0.718140 0.934260 0.000000
0.796909 0.931128 0.000000
0.869260 0.928087 0.000000
0.933680 0.925240 0.000000
0.988768 0.922696 0.000000
1.000000 0.921450 0.000000
1.000000 0.921450 0.000000
0.052243 0.980426 0.000000
0.052243 0.980426 0.000000
0.082363 0.979639 0.000000
0.144871 0.977935 0.000000
0.216478 0.975866 0.000000
0.295085 0.973448 0.000000
0.378587 0.970708 0.000000
0.464896 0.967682 0.000000
0.551971 0.964423 0.000000
0.637844 0.960997 0.000000
0.720644 0.957483 0.000000
0.798624 0.953974 0.000000
0.870171 0.950574 0.000000
0.933805 0.947396 0.000000
0.988167 0.944559 0.000000
1.000000 0.943171 0.000000
1.000000 0.943171 0.000000
0.052243 0.980426 0.000000
0.052243 0.980426 0.000000
0.082363 0.979639 0.000000
0.144871 0.977935 0.000000
0.216478 0.975866 0.000000
0.295085 0.973448 0.000000
0.378587 0.970708 0.000000
0.464896 0.967682 0.000000
0.551971 0.964423 0.000000
0.637844 0.960997 0.000000
0.720644 0.957483 0.000000
0.798624 0.953974 0.000000
0.870171 0.950574 0.000000
0.933805 0.947396 0.000000
0.988167 0.944559 0.000000
1.000000 0.943171 0.000000
1.000000 0.943171 0.000000
0.000000 0.110911 0.145111
0.000000 0.110911 0.145111
0.010978 0.108916 0.142684
0.060089 0.104816 0.137666
0.118008 0.100185 0.131945
0.183652 0.095183 0.125695
0.255789 0.089960 0.119089
0.333019 0.084661 0.112290
0.413764 0.079414 0.105457
0.496280 0.074340 0.098739
0.578676 0.069540 0.092276
0.658941 0.065105 0.086197
0.734977 0.061108 0.080622
0.804634 0.057614 0.075663
0.865735 0.054675 0.071423
0.895276 0.053295 0.069408
0.895276 0.053295 0.069408
0.000000 0.110911 0.145111
0.000000 0.110911 0.145111
0.010978 0.108916 0.142684
0.060089 0.104816 0.137666
0.118008 0.100185 0.131945
0.183652 0.095183 0.125695
0.255789 0.089960 0.119089
0.333019 0.084661 0.112290
0.413764 0.079414 0.105457
0.496280 0.074340 0.098739
0.578676 0.069540 0.092276
0.658941 0.065105 0.086197
0.734977 0.061108 0.080622
0.804634 0.057614 0.075663
0.865735 0.054675 0.071423
0.895276 0.053295 0.069408
0.895276 0.053295 0.069408
0.000000 0.128198 0.136990
0.000000 0.128198 0.136990
0.009963 0.126380 0.134599
0.059997 0.122647 0.129658
0.118927 0.118432 0.124027
0.185625 0.113883 0.117881
0.258818 0.109137 0.111387
0.337068 0.104325 0.104711
0.418768 0.099568 0.098006
0.502151 0.094972 0.091419
0.585311 0.090632 0.085088
0.666229 0.086627 0.079139
0.742806 0.083025 0.073688
0.812893 0.079881 0.068843
0.874325 0.077241 0.064704
0.904008 0.076003 0.062738
0.904008 0.076003 0.062738
0.000000 0.167323 0.120483
0.000000 0.167323 0.120483
0.008311 0.165848 0.118172
0.060164 0.162819 0.113400
0.121082 0.159405 0.107968
0.189844 0.155725 0.102047
0.265094 0.151893 0.095802
0.345321 0.148016 0.089391
0.428860 0.144193 0.082965
0.513900 0.140511 0.076665
0.598505 0.137045 0.070621
0.680642 0.133858 0.064954
0.758212 0.131004 0.059772
0.829078 0.128522 0.055175
0.891092 0.126446 0.051255
0.921025 0.125475 0.049397
0.921025 0.125475 0.049397
0.000000 0.217182 0.102189
0.000000 0.217182 0.102189
0.007226 0.216055 0.099977
0.061001 0.213742 0.095414
0.124010 0.211138 0.090228
0.194931 0.208336 0.084586
0.272314 0.205425 0.078646
0.354573 0.202487 0.072562
0.439979 0.199600 0.066478
0.526676 0.196829 0.060529
0.612699 0.194233 0.054837
0.696006 0.191857 0.049515
0.774501 0.189740 0.044661
0.846065 0.187910 0.040367
0.908579 0.186388 0.036715
0.938717 0.185679 0.034986
0.938717 0.185679 0.034986
0.000000 0.277544 0.082930
0.000000 0.277544 0.082930
0.007115 0.276744 0.080837
0.062800 0.275102 0.076523
0.127874 0.273255 0.071630
0.200907 0.271271 0.066318
0.280356 0.269213 0.060741
0.364555 0.267143 0.055044
0.451713 0.265115 0.049366
0.539929 0.263177 0.043831
0.627215 0.261370 0.038555
0.711522 0.259727 0.033638
0.790766 0.258273 0.029171
0.862854 0.257025 0.025233
0.925705 0.255994 0.021894
0.955966 0.255517 0.020318
0.955966 0.255517 0.020318
0.000000 0.347401 0.063507
0.000000 0.347401 0.063507
0.008354 0.346883 0.061550
0.065836 0.345820 0.057525
0.132834 0.344624 0.052971
0.207812 0.343338 0.048041
0.289134 0.342004 0.042881
0.375056 0.340663 0.037630
0.463726 0.339352 0.032416
0.553206 0.338103 0.027357
0.641489 0.336943 0.022555
0.726526 0.335893 0.018103
0.806254 0.334971 0.014077
0.878616 0.334185 0.010544
0.941579 0.333541 0.007563
0.971852 0.333245 0.006160
0.971852 0.333245 0.006160
0.000000 0.424975 0.044667
0.000000 0.424975 0.044667
0.011256 0.424678 0.042865
0.070339 0.424066 0.039165
0.139027 0.423370 0.034991
0.215685 0.422616 0.030489
0.298587 0.421827 0.025797
0.385914 0.421028 0.021044
0.475763 0.420241 0.016351
0.566161 0.419485 0.011822
0.655091 0.418780 0.007550
0.740514 0.418140 0.003614
0.820396 0.417576 0.000079
0.892727 0.417094 0.000000
0.955530 0.416700 0.000000
0.985682 0.416519 0.000000
0.985682 0.416519 0.000000
0.000000 0.507839 0.027069
0.000000 0.507839 0.027069
0.016033 0.507690 0.025437
0.076459 0.507373 0.022093
0.146539 0.507001 0.018337
0.224542 0.506583 0.014304
0.308659 0.506128 0.010123
0.397007 0.505650 0.005916
0.487635 0.505159 0.001789
0.578546 0.504671 0.000000
0.667722 0.504199 0.000000
0.753142 0.503754 0.000000
0.832811 0.503347 0.000000
0.904774 0.502989 0.000000
0.967122 0.502686 0.000000
0.997011 0.502544 0.000000
0.997011 0.502544 0.000000
0.000000 0.593115 0.011254
0.000000 0.593115 0.011254
0.022764 0.593034 0.009803
0.084238 0.592849 0.006842
0.155371 0.592611 0.003531
0.234344 0.592318 0.000000
0.319275 0.591973 0.000000
0.408223 0.591580 0.000000
0.499202 0.591147 0.000000
0.590200 0.590686 0.000000
0.679202 0.590211 0.000000
0.764217 0.589736 0.000000
0.843298 0.589278 0.000000
0.914553 0.588853 0.000000
0.976152 0.588477 0.000000
1.000000 0.588295 0.000000
1.000000 0.588295 0.000000
0.001546 0.677727 0.000000
0.001546 0.677727 0.000000
0.031365 0.677636 0.000000
0.093581 0.677420 0.000000
0.165416 0.677128 0.000000
0.244976 0.676756 0.000000
0.330315 0.676299 0.000000
0.419445 0.675762 0.000000
0.510352 0.675153 0.000000
0.601018 0.674487 0.000000
0.689444 0.673781 0.000000
0.773674 0.673059 0.000000
0.851815 0.672347 0.000000
0.922049 0.671673 0.000000
0.982630 0.671065 0.000000
1.000000 0.670766 0.000000
1.000000 0.670766 0.000000
0.011497 0.758656 0.000000
0.011497 0.758656 0.000000
0.041571 0.758484 0.000000
0.104233 0.758090 0.000000
0.176436 0.757577 0.000000
0.256220 0.756939 0.000000
0.341589 0.756174 0.000000
0.430516 0.755288 0.000000
0.520970 0.754295 0.000000
0.610934 0.753216 0.000000
0.698431 0.752079 0.000000
0.781548 0.750919 0.000000
0.858454 0.749775 0.000000
0.927406 0.748691 0.000000
0.986747 0.747714 0.000000
1.000000 0.747233 0.000000
1.000000 0.747233 0.000000
0.022725 0.833176 0.000000
0.022725 0.833176 0.000000
0.052926 0.832866 0.000000
0.115771 0.832175 0.000000
0.188048 0.831306 0.000000
0.267745 0.830253 0.000000
0.352823 0.829022 0.000000
0.441229 0.827625 0.000000
0.530920 0.826083 0.000000
0.619889 0.824428 0.000000
0.706186 0.822702 0.000000
0.787947 0.820954 0.000000
0.863402 0.819241 0.000000
0.930888 0.817625 0.000000
0.988839 0.816172 0.000000
1.000000 0.815457 0.000000
1.000000 0.815457 0.000000
0.034569 0.899025 0.000000
0.034569 0.899025 0.000000
0.064791 0.898538 0.000000
0.127607 0.897470 0.000000
0.199727 0.896152 0.000000
0.279099 0.894587 0.000000
0.363648 0.892786 0.000000
0.451306 0.890770 0.000000
0.540025 0.888574 0.000000
0.627811 0.886240 0.000000
0.712747 0.883827 0.000000
0.793015 0.881399 0.000000
0.866910 0.879032 0.000000
0.932847 0.876808 0.000000
0.989346 0.874816 0.000000
1.000000 0.873839 0.000000
1.000000 0.873839 0.000000
0.046199 0.954484 0.000000
0.046199 0.954484 0.000000
0.076369 0.953803 0.000000
0.139010 0.952325 0.000000
0.210822 0.950521 0.000000
0.289720 0.948404 0.000000
0.373607 0.945993 0.000000
0.460401 0.943322 0.000000
0.548058 0.940435 0.000000
0.634600 0.937391 0.000000
0.718140 0.934260 0.000000
0.796909 0.931128 0.000000
0.869260 0.928087 0.000000
0.933680 0.925240 0.000000
0.988768 0.922696 0.000000
1.000000 0.921450 0.000000
1.000000 0.921450 0.000000
0.052243 0.980426 0.000000
0.052243 0.980426 0.000000
0.082363 0.979639 0.000000
0.144871 0.977935 0.000000
0.216478 0.975866 0.000000
0.295085 0.973448 0.000000
0.378587 0.970708 0.000000
0.464896 0.967682 0.000000
0.551971 0.964423 0.000000
0.637844 0.960997 0.000000
0.720644 0.957483 0.000000
0.798624 0.953974 0.000000
0.870171 0.950574 0.000000
0.933805 0.947396 0.000000
0.988167 0.944559 0.000000
1.000000 0.943171 0.000000
1.000000 0.943171 0.000000
0.052243 0.980426 0.000000
0.052243 0.980426 0.000000
0.082363 0.979639 0.000000
0.144871 0.977935 0.000000
0.216478 0.975866 0.000000
0.295085 0.973448 0.000000
0.378587 0.970708 0.000000
0.464896 0.967682 0.000000
0.551971 0.964423 0.000000
0.637844 0.960997 0.000000
0.720644 0.957483 0.000000
0.798624 0.953974 0.000000
0.870171 0.950574 0.000000
0.933805 0.947396 0.000000
0.988167 0.944559 0.000000
1.000000 0.943171 0.000000
1.000000 0.943171 0.000000
0.000000 0.110232 0.167844
0.000000 0.110232 0.167844
0.010869 0.108242 0.165546
0.060075 0.104154 0.160791
0.118098 0.099538 0.155365
0.183850 0.094551 0.149432
0.256096 0.089346 0.143154
0.333430 0.084064 0.136686
0.414274 0.078837 0.130178
0.496880 0.073782 0.123772
0.579355 0.069002 0.117601
0.659687 0.064585 0.111790
0.735780 0.060607 0.106454
0.805482 0.057129 0.101703
0.866618 0.054204 0.097637
0.896174 0.052831 0.095703
0.896174 0.052831 0.095703
0.000000 0.110232 0.167844
0.000000 0.110232 0.167844
0.010869 0.108242 0.165546
0.060075 0.104154 0.160791
0.118098 0.099538 0.155365
0.183850 0.094551 0.149432
0.256096 0.089346 0.143154
0.333430 0.084064 0.136686
0.414274 0.078837 0.130178
0.496880 0.073782 0.123772
0.579355 0.069002 0.117601
0.659687 0.064585 0.111790
0.735780 0.060607 0.106454
0.805482 0.057129 0.101703
0.866618 0.054204 0.097637
0.896174 0.052831 0.095703
0.896174 0.052831 0.095703
0.000000 0.127579 0.160150
0.000000 0.127579 0.160150
0.009868 0.125767 0.157883
0.059994 0.122044 0.153195
0.119024 0.117843 0.147848
0.185826 0.113308 0.142006
0.259123 0.108578 0.135827
0.337473 0.103784 0.129466
0.419267 0.099045 0.123072
0.502736 0.094468 0.116782
0.585970 0.090145 0.110729
0.666952 0.086159 0.105033
0.743581 0.082573 0.099809
0.813709 0.079445 0.095161
0.875172 0.076818 0.091185
0.904870 0.075587 0.089297
0.904870 0.075587 0.089297
0.000000 0.166821 0.144480
0.000000 0.166821 0.144480
0.008247 0.165350 0.142283
0.060185 0.162331 0.137743
0.121195 0.158928 0.132571
0.190053 0.155260 0.126927
0.265398 0.151442 0.120968
0.345716 0.147581 0.114843
0.429338 0.143773 0.108697
0.514453 0.140107 0.102663
0.599123 0.136657 0.096867
0.681315 0.133486 0.091425
0.758929 0.130646 0.086444
0.829828 0.128178 0.082019
0.891867 0.126114 0.078242
0.921811 0.125149 0.076450
0.921811 0.125149 0.076450
0.000000 0.216798 0.127062
0.000000 0.216798 0.127062
0.007200 0.215674 0.124953
0.061052 0.213369 0.120598
0.124145 0.210774 0.115644
0.195151 0.207983 0.110248
0.272619 0.205083 0.104561
0.354958 0.202158 0.098729
0.440436 0.199284 0.092890
0.527197 0.196526 0.087172
0.613274 0.193943 0.081694
0.696625 0.191581 0.076564
0.775154 0.189476 0.071880
0.846742 0.187657 0.067730
0.909273 0.186145 0.064197
0.939417 0.185442 0.062523
0.939417 0.185442 0.062523
0.000000 0.277272 0.108663
0.000000 0.277272 0.108663
0.007134 0.276473 0.106659
0.062888 0.274837 0.102527
0.128035 0.272998 0.097836
0.201143 0.271021 0.092736
0.280665 0.268972 0.087376
0.364931 0.266911 0.081893
0.452149 0.264893 0.076420
0.540416 0.262966 0.071078
0.627744 0.261170 0.065977
0.712083 0.259537 0.061217
0.791350 0.258092 0.056885
0.863453 0.256853 0.053061
0.926313 0.255831 0.049814
0.956576 0.255358 0.048279
0.956576 0.255358 0.048279
0.000000 0.347225 0.090035
0.000000 0.347225 0.090035
0.008425 0.346708 0.088154
0.065967 0.345649 0.084282
0.133027 0.344457 0.079896
0.208068 0.343176 0.075142
0.289450 0.341848 0.070160
0.375426 0.340513 0.065082
0.464144 0.339209 0.060032
0.553661 0.337967 0.055124
0.641973 0.336814 0.050457
0.727030 0.335772 0.046122
0.806769 0.334856 0.042195
0.879135 0.334077 0.038743
0.942097 0.333440 0.035825
0.972368 0.333147 0.034450
0.972368 0.333147 0.034450
0.000000 0.424874 0.071885
0.000000 0.424874 0.071885
0.011385 0.424578 0.070144
0.070517 0.423966 0.066567
0.139258 0.423272 0.062527
0.215966 0.422520 0.058164
0.298915 0.421735 0.053608
0.386283 0.420938 0.048987
0.476164 0.420154 0.044414
0.566587 0.419403 0.039992
0.655531 0.418702 0.035813
0.740961 0.418066 0.031953
0.820842 0.417506 0.028478
0.893166 0.417028 0.025443
0.955958 0.416638 0.022892
0.986104 0.416459 0.021695
0.986104 0.416459 0.021695
0.000000 0.507789 0.054844
0.000000 0.507789 0.054844
0.016225 0.507638 0.053258
0.076691 0.507321 0.050008
0.146811 0.506948 0.046350
0.224853 0.506529 0.042416
0.309003 0.506074 0.038331
0.397378 0.505595 0.034211
0.488024 0.505105 0.030160
0.578946 0.504617 0.026272
0.668123 0.504145 0.022625
0.753536 0.503701 0.019285
0.833191 0.503296 0.016304
0.905135 0.502939 0.013723
0.967463 0.502638 0.011571
0.997341 0.502496 0.010568
0.997341 0.502496 0.010568
0.000000 0.593088 0.039437
0.000000 0.593088 0.039437
0.023023 0.593005 0.038018
0.084528 0.592817 0.035119
0.155690 0.592575 0.031872
0.234688 0.592279 0.028400
0.319640 0.591929 0.024819
0.408601 0.591533 0.021236
0.499584 0.591097 0.017744
0.590577 0.590633 0.014426
0.679566 0.590155 0.011347
0.764561 0.589678 0.008561
0.843616 0.589218 0.006106
0.914841 0.588792 0.004007
0.976410 0.588415 0.002280
1.000000 0.588232 0.001482
1.000000 0.588232 0.001482
0.001864 0.677697 0.026052
0.001864 0.677697 0.026052
0.031694 0.677603 0.024808
0.093931 0.677381 0.022277
0.165784 0.677084 0.019460
0.245357 0.676704 0.016471
0.330703 0.676241 0.013417
0.419832 0.675697 0.010394
0.510730 0.675081 0.007485
0.601377 0.674408 0.004760
0.689776 0.673697 0.002273
0.773973 0.672970 0.000062
0.852076 0.672253 0.000000
0.922270 0.671575 0.000000
0.982811 0.670964 0.000000
1.000000 0.670664 0.000000
1.000000 0.670664 0.000000
0.011889 0.758598 0.014921
0.011889 0.758598 0.014921
0.041971 0.758423 0.013855
0.104644 0.758021 0.011699
0.176854 0.757500 0.009320
0.256640 0.756852 0.006822
0.342003 0.756077 0.004303
0.430917 0.755182 0.001848
0.521348 0.754179 0.000000
0.611280 0.753090 0.000000
0.698737 0.751944 0.000000
0.781808 0.750775 0.000000
0.858664 0.749624 0.000000
0.927565 0.748534 0.000000
0.986857 0.747551 0.000000
1.000000 0.747068 0.000000
1.000000 0.747068 0.000000
0.023191 0.833072 0.006109
0.023191 0.833072 0.006109
0.053395 0.832757 0.005219
0.116242 0.832057 0.003432
0.188517 0.831176 0.001484
0.268205 0.830112 0.000000
0.353265 0.828868 0.000000
0.441645 0.827458 0.000000
0.531301 0.825903 0.000000
0.620225 0.824236 0.000000
0.706471 0.822498 0.000000
0.788173 0.820739 0.000000
0.863568 0.819016 0.000000
0.930993 0.817391 0.000000
0.988886 0.815930 0.000000
1.000000 0.815213 0.000000
1.000000 0.815213 0.000000
0.035103 0.898861 0.000000
0.035103 0.898861 0.000000
0.065325 0.898368 0.000000
0.128135 0.897289 0.000000
0.200245 0.895958 0.000000
0.279597 0.894378 0.000000
0.364119 0.892562 0.000000
0.451739 0.890531 0.000000
0.540411 0.888319 0.000000
0.628141 0.885970 0.000000
0.713014 0.883542 0.000000
0.793214 0.881101 0.000000
0.867039 0.878722 0.000000
0.932906 0.876487 0.000000
0.989340 0.874486 0.000000
1.000000 0.873504 0.000000
1.000000 0.873504 0.000000
0.046796 0.954255 0.000000
0.046796 0.954255 0.000000
0.076961 0.953568 0.000000
0.139590 0.952076 0.000000
0.211383 0.950257 0.000000
0.290253 0.948123 0.000000
0.374104 0.945695 0.000000
0.460851 0.943006 0.000000
0.548451 0.940102 0.000000
0.634928 0.937040 0.000000
0.718396 0.933893 0.000000
0.797086 0.930745 0.000000
0.869358 0.927689 0.000000
0.933700 0.924830 0.000000
0.988717 0.922275 0.000000
1.000000 0.921024 0.000000
1.000000 0.921024 0.000000
0.052870 0.980161 0.000000
0.052870 0.980161 0.000000
0.082984 0.979367 0.000000
0.145476 0.977649 0.000000
0.217061 0.975564 0.000000
0.295637 0.973129 0.000000
0.379097 0.970370 0.000000
0.465355 0.967325 0.000000
0.552369 0.964047 0.000000
0.638171 0.960603 0.000000
0.720893 0.957071 0.000000
0.798792 0.953545 0.000000
0.870255 0.950130 0.000000
0.933808 0.946939 0.000000
0.988094 0.944090 0.000000
1.000000 0.942696 0.000000
1.000000 0.942696 0.000000
0.052870 0.980161 0.000000
0.052870 0.980161 0.000000
0.082984 0.979367 0.000000
0.145476 0.977649 0.000000
0.217061 0.975564 0.000000
0.295637 0.973129 0.000000
0.379097 0.970370 0.000000
0.465355 0.967325 0.000000
0.552369 0.964047 0.000000
0.638171 0.960603 0.000000
0.720893 0.957071 0.000000
0.798792 0.953545 0.000000
0.870255 0.950130 0.000000
0.933808 0.946939 0.000000
0.988094 0.944090 0.000000
1.000000 0.942696 0.000000
1.000000 0.942696 0.000000
0.000000 0.108823 0.215452
0.000000 0.108823 0.215452
0.010647 0.106846 0.213419
0.060049 0.102783 0.209205
0.118287 0.098195 0.204387
0.184263 0.093242 0.199106
0.256733 0.088072 0.193502
0.334285 0.082829 0.187714
0.415332 0.077642 0.181872
0.498123 0.072627 0.176104
0.580762 0.067887 0.170532
0.661234 0.063510 0.165270
0.737443 0.059569 0.160425
0.807238 0.056126 0.156099
0.868445 0.053231 0.152388
0.898032 0.051873 0.150621
0.898032 0.051873 0.150621
0.000000 0.108823 0.215452
