backend/app/assets/luts/cinematic_warm.cube
TITLE "ZipZop cinematic_warm"
LUT_3D_SIZE 5
DOMAIN_MIN 0.0 0.0 0.0
DOMAIN_MAX 1.0 1.0 1.0
0.000000 0.110911 0.145111
0.118008 0.100185 0.131945
0.413764 0.079414 0.105457
0.734977 0.061108 0.080622
0.895276 0.053295 0.069408
0.000000 0.217182 0.102189
0.124010 0.211138 0.090228
0.439979 0.199600 0.066478
0.774501 0.189740 0.044661
0.938717 0.185679 0.034986
0.000000 0.507839 0.027069
0.146539 0.507001 0.018337
0.487635 0.505159 0.001789
0.832811 0.503347 0.000000
0.997011 0.502544 0.000000
0.022725 0.833176 0.000000
0.188048 0.831306 0.000000
0.530920 0.826083 0.000000
0.863402 0.819241 0.000000
1.000000 0.815457 0.000000
0.052243 0.980426 0.000000
0.216478 0.975866 0.000000
0.551971 0.964423 0.000000
0.870171 0.950574 0.000000
1.000000 0.943171 0.000000
0.000000 0.107211 0.270743
0.118508 0.096660 0.261276
0.416545 0.076277 0.241778
0.739343 0.058387 0.222892
0.900152 0.050782 0.214150
0.000000 0.215092 0.239327
0.124760 0.209162 0.230271
0.442474 0.197884 0.211841
0.778044 0.188313 0.194306
0.942514 0.184399 0.186306
0.000000 0.507560 0.179641
0.148050 0.506708 0.172145
0.489766 0.504859 0.157420
0.834866 0.503068 0.144180
0.998784 0.502285 0.138438
0.025313 0.832588 0.133819
0.190641 0.830577 0.128829
0.533009 0.825080 0.119795
0.864290 0.817992 0.112834
1.000000 0.814101 0.110295
0.055717 0.978945 0.118786
0.219701 0.974183 0.115326
0.554154 0.962338 0.109705
0.870616 0.948116 0.106439
1.000000 0.940545 0.105762
0.000000 0.099647 0.542206
0.119627 0.089469 0.539967
0.422272 0.069913 0.534010
0.748216 0.052909 0.526488
0.910011 0.045748 0.522398
0.000000 0.210836 0.533133
0.126427 0.205152 0.529637
0.447623 0.194433 0.521252
0.785216 0.185482 0.511582
0.950135 0.181884 0.506568
0.000000 0.506957 0.502071
0.151362 0.506085 0.496638
0.494204 0.504236 0.484628
0.838969 0.502504 0.471923
1.000000 0.501771 0.465668
0.031018 0.831198 0.460213
0.196273 0.828899 0.453789
0.537410 0.822842 0.440139
0.865998 0.815254 0.426383
1.000000 0.811146 0.419835
0.063302 0.975615 0.438384
0.226677 0.970438 0.431821
0.558774 0.957766 0.418087
0.871419 0.942777 0.404529
1.000000 0.934861 0.398174
0.000000 0.092347 0.824013
0.120850 0.082552 0.828287
0.427864 0.063843 0.834372
0.756716 0.047747 0.836712
0.919383 0.041039 0.836560
0.000000 0.206753 0.834876
0.128229 0.201324 0.836224
0.452671 0.191186 0.836384
0.792046 0.182874 0.833080
0.957302 0.179603 0.830335
0.000000 0.506338 0.827392
0.154878 0.505454 0.823305
0.498607 0.503626 0.812510
0.842799 0.501974 0.798840
1.000000 0.501300 0.791358
0.037108 0.829602 0.784451
0.202177 0.827025 0.775877
0.541844 0.820428 0.756110
0.867501 0.812360 0.734060
1.000000 0.808043 0.722787
0.071305 0.971989 0.753417
0.233957 0.966405 0.743036
0.563460 0.952927 0.719688
0.872049 0.937190 0.694338
1.000000 0.928939 0.681591
0.000000 0.088960 0.961869
0.121471 0.079351 0.968997
0.430486 0.061054 0.980298
0.760641 0.045397 0.986815
0.923685 0.038909 0.988289
0.000000 0.204868 0.981394
0.129139 0.199565 0.984800
0.455044 0.189711 0.988508
0.795187 0.181711 0.987712
0.960563 0.178599 0.985797
0.000000 0.506039 0.983379
0.156629 0.505153 0.979683
0.500698 0.503342 0.968938
0.844532 0.501735 0.954280
1.000000 0.501092 0.945959
0.040151 0.828770 0.938143
0.205091 0.826063 0.928292
0.543973 0.819216 0.905079
0.868149 0.810926 0.878542
1.000000 0.806514 0.864763
0.075271 0.970156 0.901870
0.237539 0.964382 0.889415
0.565720 0.950526 0.860953
0.872292 0.934440 0.829449
1.000000 0.926032 0.813400
