backend/app/assets/luts/mono_contrast.cube
TITLE "ZipZop mono_contrast"
LUT_3D_SIZE 17
DOMAIN_MIN 0.0 0.0 0.0
DOMAIN_MAX 1.0 1.0 1.0
0.008800 0.013200 0.026400
0.008800 0.013200 0.026400
0.010145 0.014530 0.027683
0.020216 0.024486 0.037297
0.032405 0.036541 0.048950
0.046443 0.050431 0.062393
0.062033 0.065860 0.077343
0.078834 0.082496 0.093481
0.096468 0.099962 0.110444
0.114511 0.117840 0.127824
0.132504 0.135672 0.145178
0.149951 0.152969 0.162025
0.166333 0.169215 0.177860
0.181114 0.183875 0.192158
0.193746 0.196406 0.204387
0.195464 0.198110 0.206050
0.195464 0.198110 0.206050
0.008800 0.013200 0.026400
0.008800 0.013200 0.026400
0.010145 0.014530 0.027683
0.020216 0.024486 0.037297
0.032405 0.036541 0.048950
0.046443 0.050431 0.062393
0.062033 0.065860 0.077343
0.078834 0.082496 0.093481
0.096468 0.099962 0.110444
0.114511 0.117840 0.127824
0.132504 0.135672 0.145178
0.149951 0.152969 0.162025
0.166333 0.169215 0.177860
0.181114 0.183875 0.192158
0.193746 0.196406 0.204387
0.195464 0.198110 0.206050
0.195464 0.198110 0.206050
0.013341 0.017689 0.030733
0.013341 0.017689 0.030733
0.014699 0.019032 0.032029
0.024865 0.029084 0.041740
0.037163 0.041248 0.053504
0.051321 0.055258 0.067068
0.067034 0.070812 0.082144
0.083961 0.087573 0.098410
0.101716 0.105162 0.115497
0.119876 0.123156 0.132997
0.137976 0.141097 0.150461
0.155521 0.158493 0.167407
0.171990 0.174825 0.183330
0.186843 0.189558 0.197703
0.199533 0.202148 0.209992
0.201259 0.203860 0.211663
0.201259 0.203860 0.211663
0.048253 0.052222 0.064127
0.048253 0.052222 0.064127
0.049703 0.053657 0.065517
0.060538 0.064381 0.075909
0.073605 0.077318 0.088456
0.088597 0.092165 0.102869
0.105178 0.108591 0.118831
0.122977 0.126229 0.135987
0.141584 0.144673 0.153943
0.160551 0.163481 0.172269
0.179399 0.182173 0.190498
0.197616 0.200246 0.208135
0.214673 0.217170 0.224662
0.230023 0.232404 0.239546
0.243114 0.245397 0.252247
0.244892 0.247162 0.253973
0.244892 0.247162 0.253973
0.092392 0.095924 0.106521
0.092392 0.095924 0.106521
0.093940 0.097458 0.108011
0.105489 0.108899 0.119131
0.119374 0.122659 0.132513
0.135251 0.138395 0.147829
0.152747 0.155742 0.164727
0.171461 0.174300 0.182818
0.190954 0.193636 0.201683
0.210757 0.213285 0.220867
0.230371 0.232750 0.239884
0.249274 0.251512 0.258225
0.266924 0.269034 0.275364
0.282770 0.284768 0.290761
0.296257 0.298160 0.303872
0.298087 0.299978 0.305652
0.298087 0.299978 0.305652
0.145255 0.148313 0.157488
0.145255 0.148313 0.157488
0.146900 0.149944 0.159077
0.159151 0.162092 0.170916
0.173837 0.176657 0.185117
0.190574 0.193259 0.201315
0.208954 0.211496 0.219119
0.228544 0.230936 0.238111
0.248878 0.251119 0.257841
0.269464 0.271556 0.277832
0.289788 0.291737 0.297583
0.309315 0.311129 0.316572
0.327498 0.329190 0.334265
0.343783 0.345367 0.350119
0.357614 0.359108 0.363591
0.359489 0.360971 0.365417
0.359489 0.360971 0.365417
0.205836 0.208401 0.216097
0.205836 0.208401 0.216097
0.207569 0.210121 0.217777
0.220461 0.222914 0.230273
0.235872 0.238209 0.245220
0.253380 0.255588 0.262212
0.272545 0.274615 0.280826
0.292901 0.294829 0.300610
0.313959 0.315742 0.321091
0.335208 0.336849 0.341770
0.356119 0.357623 0.362134
0.376149 0.377524 0.381651
0.394749 0.396008 0.399784
0.411367 0.412523 0.415991
0.425451 0.426522 0.429733
0.427358 0.428417 0.431594
0.427358 0.428417 0.431594
0.272601 0.274671 0.280880
0.272601 0.274671 0.280880
0.274410 0.276466 0.282637
0.287840 0.289802 0.295689
0.303853 0.305705 0.311260
0.321994 0.323723 0.328909
0.341790 0.343387 0.348178
0.362748 0.364209 0.368592
0.384358 0.385682 0.389653
0.406094 0.407282 0.410848
0.427417 0.428476 0.431651
0.447782 0.448719 0.451529
0.466642 0.467468 0.469945
0.483450 0.484179 0.486365
0.497666 0.498314 0.500256
0.499589 0.500226 0.502135
0.499589 0.500226 0.502135
0.343552 0.345138 0.349895
0.343552 0.345138 0.349895
0.345418 0.346991 0.351712
0.359257 0.360741 0.365191
0.375719 0.377097 0.381231
0.394317 0.395578 0.399362
0.414552 0.415688 0.419098
0.435910 0.436917 0.439940
0.457864 0.458741 0.461373
0.479877 0.480626 0.482874
0.501407 0.502033 0.503911
0.521909 0.522420 0.523953
0.540844 0.541251 0.542470
0.557679 0.557993 0.558937
0.571886 0.572124 0.572838
0.573806 0.574033 0.574716
0.573806 0.574033 0.574716
0.416350 0.417476 0.420853
0.416350 0.417476 0.420853
0.418254 0.419368 0.422710
0.432357 0.433386 0.436472
0.449095 0.450024 0.452811
0.467958 0.468776 0.471231
0.488424 0.489124 0.491225
0.509964 0.510542 0.512275
0.532037 0.532492 0.533857
0.554103 0.554437 0.555439
0.575620 0.575838 0.576491
0.596051 0.596160 0.596488
0.614869 0.614880 0.614912
0.631558 0.631483 0.631256
0.645613 0.645465 0.645023
0.647510 0.647352 0.646881
0.647510 0.647352 0.646881
0.488484 0.489183 0.491282
0.488484 0.489183 0.491282
0.490405 0.491094 0.493160
0.504627 0.505235 0.507058
0.521470 0.521983 0.523524
0.540405 0.540814 0.542040
0.560896 0.561193 0.562084
0.582401 0.582582 0.583127
0.604374 0.604440 0.604637
0.626275 0.626227 0.626082
0.647568 0.647410 0.646938
0.667728 0.667469 0.666690
0.686247 0.685895 0.684838
0.702629 0.702196 0.700896
0.716394 0.715894 0.714392
0.718250 0.717740 0.716211
0.718250 0.717740 0.716211
0.557441 0.557757 0.558704
0.557441 0.557757 0.558704
0.559363 0.559668 0.560584
0.573568 0.573797 0.574484
0.590360 0.590499 0.590917
0.609194 0.609234 0.609355
0.629524 0.629459 0.629263
0.650801 0.650627 0.650105
0.672482 0.672198 0.671348
0.694027 0.693636 0.692464
0.714913 0.714419 0.712939
0.734631 0.734042 0.732274
0.752694 0.752017 0.749989
0.768632 0.767880 0.765623
0.781995 0.781179 0.778733
0.783794 0.782970 0.780498
0.783794 0.782970 0.780498
0.620871 0.620850 0.620789
0.620871 0.620850 0.620789
0.622777 0.622747 0.622656
0.636858 0.636755 0.636447
0.653470 0.653283 0.652720
0.672063 0.671782 0.670938
0.692085 0.691704 0.690560
0.712985 0.712501 0.711049
0.734222 0.733635 0.731873
0.755267 0.754578 0.752513
0.775609 0.774824 0.772468
0.794759 0.793884 0.791258
0.812253 0.811296 0.808426
0.827651 0.826622 0.823538
0.840530 0.839443 0.836180
0.842262 0.841167 0.837880
0.842262 0.841167 0.837880
0.676694 0.676390 0.675476
0.676694 0.676390 0.675476
0.678575 0.678261 0.677320
0.692455 0.692072 0.690923
0.708802 0.708338 0.706948
0.727062 0.726509 0.724851
0.746680 0.746032 0.744090
0.767109 0.766364 0.764129
0.787813 0.786970 0.784442
0.808273 0.807335 0.804520
0.827996 0.826966 0.823877
0.846512 0.845398 0.842053
0.863382 0.862190 0.858614
0.878192 0.876933 0.873156
0.890552 0.889238 0.885293
0.892213 0.890890 0.886924
0.892213 0.890890 0.886924
0.723154 0.722620 0.721019
0.723154 0.722620 0.721019
0.725004 0.724462 0.722834
0.738648 0.738040 0.736214
0.754694 0.754008 0.751951
0.772584 0.771813 0.769501
0.791767 0.790906 0.788322
0.811698 0.810744 0.807881
0.831850 0.830803 0.827660
0.851716 0.850577 0.847161
0.870816 0.869591 0.865914
0.888702 0.887396 0.883476
0.904957 0.903577 0.899439
0.919193 0.917750 0.913421
0.931049 0.929553 0.925066
0.932640 0.931137 0.926628
0.932640 0.931137 0.926628
0.729374 0.728810 0.727118
0.729374 0.728810 0.727118
0.731219 0.730647 0.728928
0.744827 0.744189 0.742273
0.760826 0.760111 0.757966
0.778661 0.777861 0.775462
0.797778 0.796889 0.794220
0.817635 0.816653 0.813707
0.837705 0.836631 0.833407
0.857483 0.856318 0.852823
0.876493 0.875241 0.871487
0.894286 0.892955 0.888960
0.910452 0.909048 0.904836
0.924605 0.923138 0.918736
0.936388 0.934869 0.930310
0.937969 0.936442 0.931863
0.937969 0.936442 0.931863
0.729374 0.728810 0.727118
0.729374 0.728810 0.727118
0.731219 0.730647 0.728928
0.744827 0.744189 0.742273
0.760826 0.760111 0.757966
0.778661 0.777861 0.775462
0.797778 0.796889 0.794220
0.817635 0.816653 0.813707
0.837705 0.836631 0.833407
0.857483 0.856318 0.852823
0.876493 0.875241 0.871487
0.894286 0.892955 0.888960
0.910452 0.909048 0.904836
0.924605 0.923138 0.918736
0.936388 0.934869 0.930310
0.937969 0.936442 0.931863
0.937969 0.936442 0.931863
0.008800 0.013200 0.026400
0.008800 0.013200 0.026400
0.010145 0.014530 0.027683
0.020216 0.024486 0.037297
0.032405 0.036541 0.048950
0.046443 0.050431 0.062393
0.062033 0.065860 0.077343
0.078834 0.082496 0.093481
0.096468 0.099962 0.110444
0.114511 0.117840 0.127824
0.132504 0.135672 0.145178
0.149951 0.152969 0.162025
0.166333 0.169215 0.177860
0.181114 0.183875 0.192158
0.193746 0.196406 0.204387
0.195464 0.198110 0.206050
0.195464 0.198110 0.206050
0.008800 0.013200 0.026400
0.008800 0.013200 0.026400
0.010145 0.014530 0.027683
0.020216 0.024486 0.037297
0.032405 0.036541 0.048950
0.046443 0.050431 0.062393
0.062033 0.065860 0.077343
0.078834 0.082496 0.093481
0.096468 0.099962 0.110444
0.114511 0.117840 0.127824
0.132504 0.135672 0.145178
0.149951 0.152969 0.162025
0.166333 0.169215 0.177860
0.181114 0.183875 0.192158
0.193746 0.196406 0.204387
0.195464 0.198110 0.206050
0.195464 0.198110 0.206050
0.013341 0.017689 0.030733
0.013341 0.017689 0.030733
0.014699 0.019032 0.032029
0.024865 0.029084 0.041740
0.037163 0.041248 0.053504
0.051321 0.055258 0.067068
0.067034 0.070812 0.082144
0.083961 0.087573 0.098410
0.101716 0.105162 0.115497
0.119876 0.123156 0.132997
0.137976 0.141097 0.150461
0.155521 0.158493 0.167407
0.171990 0.174825 0.183330
0.186843 0.189558 0.197703
0.199533 0.202148 0.209992
0.201259 0.203860 0.211663
0.201259 0.203860 0.211663
0.048253 0.052222 0.064127
0.048253 0.052222 0.064127
0.049703 0.053657 0.065517
0.060538 0.064381 0.075909
0.073605 0.077318 0.088456
0.088597 0.092165 0.102869
0.105178 0.108591 0.118831
0.122977 0.126229 0.135987
0.141584 0.144673 0.153943
0.160551 0.163481 0.172269
0.179399 0.182173 0.190498
0.197616 0.200246 0.208135
0.214673 0.217170 0.224662
0.230023 0.232404 0.239546
0.243114 0.245397 0.252247
0.244892 0.247162 0.253973
0.244892 0.247162 0.253973
0.092392 0.095924 0.106521
0.092392 0.095924 0.106521
0.093940 0.097458 0.108011
0.105489 0.108899 0.119131
0.119374 0.122659 0.132513
0.135251 0.138395 0.147829
0.152747 0.155742 0.164727
0.171461 0.174300 0.182818
0.190954 0.193636 0.201683
0.210757 0.213285 0.220867
0.230371 0.232750 0.239884
0.249274 0.251512 0.258225
0.266924 0.269034 0.275364
0.282770 0.284768 0.290761
0.296257 0.298160 0.303872
0.298087 0.299978 0.305652
0.298087 0.299978 0.305652
0.145255 0.148313 0.157488
0.145255 0.148313 0.157488
0.146900 0.149944 0.159077
0.159151 0.162092 0.170916
0.173837 0.176657 0.185117
0.190574 0.193259 0.201315
0.208954 0.211496 0.219119
0.228544 0.230936 0.238111
0.248878 0.251119 0.257841
0.269464 0.271556 0.277832
0.289788 0.291737 0.297583
0.309315 0.311129 0.316572
0.327498 0.329190 0.334265
0.343783 0.345367 0.350119
0.357614 0.359108 0.363591
0.359489 0.360971 0.365417
0.359489 0.360971 0.365417
0.205836 0.208401 0.216097
0.205836 0.208401 0.216097
0.207569 0.210121 0.217777
0.220461 0.222914 0.230273
0.235872 0.238209 0.245220
0.253380 0.255588 0.262212
0.272545 0.274615 0.280826
0.292901 0.294829 0.300610
0.313959 0.315742 0.321091
0.335208 0.336849 0.341770
0.356119 0.357623 0.362134
0.376149 0.377524 0.381651
0.394749 0.396008 0.399784
0.411367 0.412523 0.415991
0.425451 0.426522 0.429733
0.427358 0.428417 0.431594
0.427358 0.428417 0.431594
0.272601 0.274671 0.280880
0.272601 0.274671 0.280880
0.274410 0.276466 0.282637
0.287840 0.289802 0.295689
0.303853 0.305705 0.311260
0.321994 0.323723 0.328909
0.341790 0.343387 0.348178
0.362748 0.364209 0.368592
0.384358 0.385682 0.389653
0.406094 0.407282 0.410848
0.427417 0.428476 0.431651
0.447782 0.448719 0.451529
0.466642 0.467468 0.469945
0.483450 0.484179 0.486365
0.497666 0.498314 0.500256
0.499589 0.500226 0.502135
0.499589 0.500226 0.502135
0.343552 0.345138 0.349895
0.343552 0.345138 0.349895
0.345418 0.346991 0.351712
0.359257 0.360741 0.365191
0.375719 0.377097 0.381231
0.394317 0.395578 0.399362
0.414552 0.415688 0.419098
0.435910 0.436917 0.439940
0.457864 0.458741 0.461373
0.479877 0.480626 0.482874
0.501407 0.502033 0.503911
0.521909 0.522420 0.523953
0.540844 0.541251 0.542470
0.557679 0.557993 0.558937
0.571886 0.572124 0.572838
0.573806 0.574033 0.574716
0.573806 0.574033 0.574716
0.416350 0.417476 0.420853
0.416350 0.417476 0.420853
0.418254 0.419368 0.422710
0.432357 0.433386 0.436472
0.449095 0.450024 0.452811
0.467958 0.468776 0.471231
0.488424 0.489124 0.491225
0.509964 0.510542 0.512275
0.532037 0.532492 0.533857
0.554103 0.554437 0.555439
0.575620 0.575838 0.576491
0.596051 0.596160 0.596488
0.614869 0.614880 0.614912
0.631558 0.631483 0.631256
0.645613 0.645465 0.645023
0.647510 0.647352 0.646881
0.647510 0.647352 0.646881
0.488484 0.489183 0.491282
0.488484 0.489183 0.491282
0.490405 0.491094 0.493160
0.504627 0.505235 0.507058
0.521470 0.521983 0.523524
0.540405 0.540814 0.542040
0.560896 0.561193 0.562084
0.582401 0.582582 0.583127
0.604374 0.604440 0.604637
0.626275 0.626227 0.626082
0.647568 0.647410 0.646938
0.667728 0.667469 0.666690
0.686247 0.685895 0.684838
0.702629 0.702196 0.700896
0.716394 0.715894 0.714392
0.718250 0.717740 0.716211
0.718250 0.717740 0.716211
0.557441 0.557757 0.558704
0.557441 0.557757 0.558704
0.559363 0.559668 0.560584
0.573568 0.573797 0.574484
0.590360 0.590499 0.590917
0.609194 0.609234 0.609355
0.629524 0.629459 0.629263
0.650801 0.650627 0.650105
0.672482 0.672198 0.671348
0.694027 0.693636 0.692464
0.714913 0.714419 0.712939
0.734631 0.734042 0.732274
0.752694 0.752017 0.749989
0.768632 0.767880 0.765623
0.781995 0.781179 0.778733
0.783794 0.782970 0.780498
0.783794 0.782970 0.780498
0.620871 0.620850 0.620789
0.620871 0.620850 0.620789
0.622777 0.622747 0.622656
0.636858 0.636755 0.636447
0.653470 0.653283 0.652720
0.672063 0.671782 0.670938
0.692085 0.691704 0.690560
0.712985 0.712501 0.711049
0.734222 0.733635 0.731873
0.755267 0.754578 0.752513
0.775609 0.774824 0.772468
0.794759 0.793884 0.791258
0.812253 0.811296 0.808426
0.827651 0.826622 0.823538
0.840530 0.839443 0.836180
0.842262 0.841167 0.837880
0.842262 0.841167 0.837880
0.676694 0.676390 0.675476
0.676694 0.676390 0.675476
0.678575 0.678261 0.677320
0.692455 0.692072 0.690923
0.708802 0.708338 0.706948
0.727062 0.726509 0.724851
0.746680 0.746032 0.744090
0.767109 0.766364 0.764129
0.787813 0.786970 0.784442
0.808273 0.807335 0.804520
0.827996 0.826966 0.823877
0.846512 0.845398 0.842053
0.863382 0.862190 0.858614
0.878192 0.876933 0.873156
0.890552 0.889238 0.885293
0.892213 0.890890 0.886924
0.892213 0.890890 0.886924
0.723154 0.722620 0.721019
0.723154 0.722620 0.721019
0.725004 0.724462 0.722834
0.738648 0.738040 0.736214
0.754694 0.754008 0.751951
0.772584 0.771813 0.769501
0.791767 0.790906 0.788322
0.811698 0.810744 0.807881
0.831850 0.830803 0.827660
0.851716 0.850577 0.847161
0.870816 0.869591 0.865914
0.888702 0.887396 0.883476
0.904957 0.903577 0.899439
0.919193 0.917750 0.913421
0.931049 0.929553 0.925066
0.932640 0.931137 0.926628
0.932640 0.931137 0.926628
0.729374 0.728810 0.727118
0.729374 0.728810 0.727118
0.731219 0.730647 0.728928
0.744827 0.744189 0.742273
0.760826 0.760111 0.757966
0.778661 0.777861 0.775462
0.797778 0.796889 0.794220
0.817635 0.816653 0.813707
0.837705 0.836631 0.833407
0.857483 0.856318 0.852823
0.876493 0.875241 0.871487
0.894286 0.892955 0.888960
0.910452 0.909048 0.904836
0.924605 0.923138 0.918736
0.936388 0.934869 0.930310
0.937969 0.936442 0.931863
0.937969 0.936442 0.931863
0.729374 0.728810 0.727118
0.729374 0.728810 0.727118
0.731219 0.730647 0.728928
0.744827 0.744189 0.742273
0.760826 0.760111 0.757966
0.778661 0.777861 0.775462
0.797778 0.796889 0.794220
0.817635 0.816653 0.813707
0.837705 0.836631 0.833407
0.857483 0.856318 0.852823
0.876493 0.875241 0.871487
0.894286 0.892955 0.888960
0.910452 0.909048 0.904836
0.924605 0.923138 0.918736
0.936388 0.934869 0.930310
0.937969 0.936442 0.931863
0.937969 0.936442 0.931863
0.009256 0.013651 0.026835
0.009256 0.013651 0.026835
0.010603 0.014982 0.028120
0.020683 0.024948 0.037744
0.032883 0.037014 0.049408
0.046934 0.050916 0.062863
0.062536 0.066358 0.077826
0.079350 0.083007 0.093977
0.096996 0.100485 0.110952
0.115051 0.118375 0.128345
0.133055 0.136218 0.145710
0.150512 0.153526 0.162567
0.166903 0.169780 0.178411
0.181691 0.184447 0.192717
0.194329 0.196985 0.204951
0.196047 0.198689 0.206616
0.196047 0.198689 0.206616
0.009256 0.013651 0.026835
0.009256 0.013651 0.026835
0.010603 0.014982 0.028120
0.020683 0.024948 0.037744
0.032883 0.037014 0.049408
0.046934 0.050916 0.062863
0.062536 0.066358 0.077826
0.079350 0.083007 0.093977
0.096996 0.100485 0.110952
0.115051 0.118375 0.128345
0.133055 0.136218 0.145710
0.150512 0.153526 0.162567
0.166903 0.169780 0.178411
0.181691 0.184447 0.192717
0.194329 0.196985 0.204951
0.196047 0.198689 0.206616
0.196047 0.198689 0.206616
0.013802 0.018145 0.031173
0.013802 0.018145 0.031173
0.015162 0.019489 0.032470
0.025337 0.029550 0.042191
0.037646 0.041726 0.053966
0.051815 0.055747 0.067542
0.067541 0.071314 0.082631
0.084480 0.088088 0.098910
0.102248 0.105688 0.116009
0.120420 0.123695 0.133521
0.138531 0.141647 0.150996
0.156085 0.159052 0.167953
0.172562 0.175393 0.183884
0.187423 0.190133 0.198264
0.200119 0.202729 0.210559
0.201845 0.204442 0.212231
0.201845 0.204442 0.212231
0.048745 0.052709 0.064599
0.048745 0.052709 0.064599
0.050196 0.054145 0.065990
0.061040 0.064877 0.076390
0.074117 0.077825 0.088948
0.089120 0.092683 0.103372
0.105712 0.109121 0.119346
0.123522 0.126770 0.136513
0.142140 0.145225 0.154480
0.161118 0.164043 0.172817
0.179975 0.182745 0.191056
0.198201 0.200826 0.208702
0.215265 0.217758 0.225236
0.230622 0.232998 0.240127
0.243718 0.245996 0.252833
0.245496 0.247762 0.254559
0.245496 0.247762 0.254559
0.092917 0.096444 0.107026
0.092917 0.096444 0.107026
0.094467 0.097979 0.108517
0.106023 0.109429 0.119645
0.119917 0.123197 0.133036
0.135803 0.138943 0.148363
0.153310 0.156300 0.165270
0.172033 0.174868 0.183372
0.191536 0.194213 0.202247
0.211348 0.213871 0.221439
0.230970 0.233344 0.240465
0.249880 0.252113 0.258814
0.267536 0.269641 0.275959
0.283387 0.285381 0.291361
0.296878 0.298777 0.304476
0.298709 0.300595 0.306256
0.298709 0.300595 0.306256
0.145813 0.148867 0.158028
0.145813 0.148867 0.158028
0.147459 0.150499 0.159618
0.159717 0.162653 0.171463
0.174410 0.177226 0.185672
0.191155 0.193836 0.201878
0.209544 0.212081 0.219691
0.229142 0.231529 0.238691
0.249484 0.251720 0.258429
0.270077 0.272165 0.278428
0.290408 0.292352 0.298185
0.309940 0.311750 0.317180
0.328128 0.329815 0.334878
0.344416 0.345996 0.350736
0.358251 0.359741 0.364211
0.360126 0.361604 0.366038
0.360126 0.361604 0.366038
0.206424 0.208985 0.216668
0.206424 0.208985 0.216668
0.208158 0.210706 0.218348
0.221056 0.223504 0.230850
0.236473 0.238805 0.245803
0.253988 0.256191 0.262802
0.273159 0.275225 0.281422
0.293522 0.295445 0.301213
0.314586 0.316364 0.321700
0.335840 0.337476 0.342385
0.356755 0.358255 0.362754
0.376789 0.378161 0.382275
0.395392 0.396647 0.400411
0.412013 0.413165 0.416621
0.426099 0.427165 0.430365
0.428006 0.429061 0.432226
0.428006 0.429061 0.432226
0.273215 0.275280 0.281476
0.273215 0.275280 0.281476
0.275024 0.277077 0.283234
0.288459 0.290417 0.296291
0.304477 0.306324 0.311866
0.322623 0.324347 0.329520
0.342423 0.344016 0.348795
0.363385 0.364842 0.369213
0.385000 0.386319 0.390278
0.406739 0.407923 0.411477
0.428065 0.429120 0.432283
0.448432 0.449365 0.452164
0.467293 0.468116 0.470582
0.484103 0.484828 0.487002
0.498319 0.498963 0.500894
0.500242 0.500875 0.502773
0.500242 0.500875 0.502773
0.344186 0.345767 0.350511
0.344186 0.345767 0.350511
0.346052 0.347621 0.352329
0.359894 0.361373 0.365812
0.376359 0.377733 0.381855
0.394960 0.396217 0.399989
0.415198 0.416330 0.419728
0.436559 0.437562 0.440573
0.458515 0.459388 0.462008
0.480529 0.481275 0.483511
0.502060 0.502682 0.504550
0.522562 0.523070 0.524592
0.541498 0.541900 0.543108
0.558331 0.558642 0.559575
0.572538 0.572773 0.573476
0.574458 0.574682 0.575354
0.574458 0.574682 0.575354
0.416997 0.418119 0.421484
0.416997 0.418119 0.421484
0.418901 0.420011 0.423341
0.433006 0.434031 0.437105
0.449745 0.450671 0.453446
0.468610 0.469424 0.471867
0.489077 0.489773 0.491862
0.510617 0.511191 0.512914
0.532691 0.533142 0.534495
0.554756 0.555086 0.556077
0.576272 0.576486 0.577129
0.596701 0.596807 0.597125
0.615518 0.615525 0.615547
0.632205 0.632126 0.631889
0.646257 0.646106 0.645654
0.648154 0.647993 0.647511
0.648154 0.647993 0.647511
0.489136 0.489832 0.491920
0.489136 0.489832 0.491920
0.491058 0.491743 0.493798
0.505280 0.505884 0.507697
0.522123 0.522633 0.524162
0.541058 0.541463 0.542679
0.561549 0.561842 0.562723
0.583052 0.583230 0.583765
0.605024 0.605086 0.605273
0.626922 0.626871 0.626715
0.648212 0.648051 0.647569
0.668369 0.668106 0.667318
0.686884 0.686529 0.685463
0.703262 0.702826 0.701517
0.717025 0.716521 0.715010
0.718880 0.718367 0.716829
0.718880 0.718367 0.716829
0.558094 0.558406 0.559342
0.558094 0.558406 0.559342
0.560015 0.560317 0.561222
0.574220 0.574446 0.575122
0.591010 0.591146 0.591554
0.609843 0.609880 0.609991
0.630170 0.630102 0.629897
0.651445 0.651268 0.650736
0.673121 0.672835 0.671975
0.694662 0.694268 0.693087
0.715543 0.715047 0.713557
0.735257 0.734664 0.732887
0.753314 0.752635 0.750598
0.769247 0.768492 0.766227
0.782606 0.781787 0.779333
0.784404 0.783577 0.781097
0.784404 0.783577 0.781097
0.621518 0.621495 0.621423
0.621518 0.621495 0.621423
0.623425 0.623391 0.623290
0.637503 0.637397 0.637079
0.654113 0.653922 0.653350
0.672703 0.672419 0.671565
0.692721 0.692336 0.691184
0.713616 0.713129 0.711668
0.734848 0.734257 0.732486
0.755887 0.755195 0.753121
0.776222 0.775434 0.773070
0.795366 0.794488 0.791853
0.812854 0.811894 0.809015
0.828245 0.827214 0.824121
0.841119 0.840028 0.836758
0.842850 0.841752 0.838457
0.842850 0.841752 0.838457
0.677333 0.677025 0.676102
0.677333 0.677025 0.676102
0.679214 0.678897 0.677945
0.693091 0.692705 0.691546
0.709434 0.708967 0.707568
0.727689 0.727134 0.725467
0.747302 0.746652 0.744701
0.767725 0.766977 0.764733
0.788422 0.787576 0.785039
0.808875 0.807934 0.805110
0.828590 0.827557 0.824460
0.847098 0.845981 0.842628
0.863960 0.862765 0.859182
0.878763 0.877501 0.873716
0.891117 0.889799 0.885847
0.892776 0.891451 0.887477
0.892776 0.891451 0.887477
0.723782 0.723246 0.721635
0.723782 0.723246 0.721635
0.725632 0.725087 0.723450
0.739273 0.738661 0.736826
0.755314 0.754625 0.752559
0.773199 0.772425 0.770103
0.792375 0.791511 0.788918
0.812299 0.811342 0.808470
0.832442 0.831392 0.828241
0.852300 0.851158 0.847734
0.871391 0.870162 0.866478
0.889267 0.887958 0.884031
0.905513 0.904131 0.899985
0.919741 0.918295 0.913959
0.931590 0.930091 0.925597
0.933179 0.931674 0.927158
0.933179 0.931674 0.927158
0.730001 0.729434 0.727733
0.730001 0.729434 0.727733
0.731846 0.731270 0.729543
0.745450 0.744809 0.742884
0.761444 0.760726 0.758573
0.779273 0.778471 0.776063
0.798384 0.797491 0.794814
0.818233 0.817249 0.814294
0.838295 0.837218 0.833986
0.858064 0.856896 0.853393
0.877064 0.875810 0.872048
0.894849 0.893515 0.889512
0.911005 0.909598 0.905379
0.925149 0.923680 0.919271
0.936925 0.935404 0.930838
0.938505 0.936976 0.932389
0.938505 0.936976 0.932389
0.730001 0.729434 0.727733
0.730001 0.729434 0.727733
0.731846 0.731270 0.729543
0.745450 0.744809 0.742884
0.761444 0.760726 0.758573
0.779273 0.778471 0.776063
0.798384 0.797491 0.794814
0.818233 0.817249 0.814294
0.838295 0.837218 0.833986
0.858064 0.856896 0.853393
0.877064 0.875810 0.872048
0.894849 0.893515 0.889512
0.911005 0.909598 0.905379
0.925149 0.923680 0.919271
0.936925 0.935404 0.930838
0.938505 0.936976 0.932389
0.938505 0.936976 0.932389
0.012646 0.017002 0.030070
0.012646 0.017002 0.030070
0.014003 0.018343 0.031364
0.024154 0.028381 0.041060
0.036436 0.040529 0.052808
0.050575 0.054520 0.066353
0.066270 0.070055 0.081410
0.083177 0.086797 0.097657
0.100915 0.104367 0.114725
0.119057 0.122344 0.132206
0.137141 0.140269 0.149654
0.154671 0.157649 0.166585
0.171126 0.173968 0.182495
0.185968 0.188690 0.196857
0.198650 0.201272 0.209136
0.200374 0.202982 0.210806
0.200374 0.202982 0.210806
0.012646 0.017002 0.030070
