backend/app/assets/luts/mono_contrast.cube
TITLE "ZipZop mono_contrast"
LUT_3D_SIZE 9
DOMAIN_MIN 0.0 0.0 0.0
DOMAIN_MAX 1.0 1.0 1.0
0.008800 0.013200 0.026400
0.010145 0.014530 0.027683
0.032405 0.036541 0.048950
0.062033 0.065860 0.077343
0.096468 0.099962 0.110444
0.132504 0.135672 0.145178
0.166333 0.169215 0.177860
0.193746 0.196406 0.204387
0.195464 0.198110 0.206050
0.013341 0.017689 0.030733
0.014699 0.019032 0.032029
0.037163 0.041248 0.053504
0.067034 0.070812 0.082144
0.101716 0.105162 0.115497
0.137976 0.141097 0.150461
0.171990 0.174825 0.183330
0.199533 0.202148 0.209992
0.201259 0.203860 0.211663
0.092392 0.095924 0.106521
0.093940 0.097458 0.108011
0.119374 0.122659 0.132513
0.152747 0.155742 0.164727
0.190954 0.193636 0.201683
0.230371 0.232750 0.239884
0.266924 0.269034 0.275364
0.296257 0.298160 0.303872
0.298087 0.299978 0.305652
0.205836 0.208401 0.216097
0.207569 0.210121 0.217777
0.235872 0.238209 0.245220
0.272545 0.274615 0.280826
0.313959 0.315742 0.321091
0.356119 0.357623 0.362134
0.394749 0.396008 0.399784
0.425451 0.426522 0.429733
0.427358 0.428417 0.431594
0.343552 0.345138 0.349895
0.345418 0.346991 0.351712
0.375719 0.377097 0.381231
0.414552 0.415688 0.419098
0.457864 0.458741 0.461373
0.501407 0.502033 0.503911
0.540844 0.541251 0.542470
0.571886 0.572124 0.572838
0.573806 0.574033 0.574716
0.488484 0.489183 0.491282
0.490405 0.491094 0.493160
0.521470 0.521983 0.523524
0.560896 0.561193 0.562084
0.604374 0.604440 0.604637
0.647568 0.647410 0.646938
0.686247 0.685895 0.684838
0.716394 0.715894 0.714392
0.718250 0.717740 0.716211
0.620871 0.620850 0.620789
0.622777 0.622747 0.622656
0.653470 0.653283 0.652720
0.692085 0.691704 0.690560
0.734222 0.733635 0.731873
0.775609 0.774824 0.772468
0.812253 0.811296 0.808426
0.840530 0.839443 0.836180
0.842262 0.841167 0.837880
0.723154 0.722620 0.721019
0.725004 0.724462 0.722834
0.754694 0.754008 0.751951
0.791767 0.790906 0.788322
0.831850 0.830803 0.827660
0.870816 0.869591 0.865914
0.904957 0.903577 0.899439
0.931049 0.929553 0.925066
0.932640 0.931137 0.926628
0.729374 0.728810 0.727118
0.731219 0.730647 0.728928
0.760826 0.760111 0.757966
0.797778 0.796889 0.794220
0.837705 0.836631 0.833407
0.876493 0.875241 0.871487
0.910452 0.909048 0.904836
0.936388 0.934869 0.930310
0.937969 0.936442 0.931863
0.009256 0.013651 0.026835
0.010603 0.014982 0.028120
0.032883 0.037014 0.049408
0.062536 0.066358 0.077826
0.096996 0.100485 0.110952
0.133055 0.136218 0.145710
0.166903 0.169780 0.178411
0.194329 0.196985 0.204951
0.196047 0.198689 0.206616
0.013802 0.018145 0.031173
0.015162 0.019489 0.032470
0.037646 0.041726 0.053966
0.067541 0.071314 0.082631
0.102248 0.105688 0.116009
0.138531 0.141647 0.150996
0.172562 0.175393 0.183884
0.200119 0.202729 0.210559
0.201845 0.204442 0.212231
0.092917 0.096444 0.107026
0.094467 0.097979 0.108517
0.119917 0.123197 0.133036
0.153310 0.156300 0.165270
0.191536 0.194213 0.202247
0.230970 0.233344 0.240465
0.267536 0.269641 0.275959
0.296878 0.298777 0.304476
0.298709 0.300595 0.306256
0.206424 0.208985 0.216668
0.208158 0.210706 0.218348
0.236473 0.238805 0.245803
0.273159 0.275225 0.281422
0.314586 0.316364 0.321700
0.356755 0.358255 0.362754
0.395392 0.396647 0.400411
0.426099 0.427165 0.430365
0.428006 0.429061 0.432226
0.344186 0.345767 0.350511
0.346052 0.347621 0.352329
0.376359 0.377733 0.381855
0.415198 0.416330 0.419728
0.458515 0.459388 0.462008
0.502060 0.502682 0.504550
0.541498 0.541900 0.543108
0.572538 0.572773 0.573476
0.574458 0.574682 0.575354
0.489136 0.489832 0.491920
0.491058 0.491743 0.493798
0.522123 0.522633 0.524162
0.561549 0.561842 0.562723
0.605024 0.605086 0.605273
0.648212 0.648051 0.647569
0.686884 0.686529 0.685463
0.717025 0.716521 0.715010
0.718880 0.718367 0.716829
0.621518 0.621495 0.621423
0.623425 0.623391 0.623290
0.654113 0.653922 0.653350
0.692721 0.692336 0.691184
0.734848 0.734257 0.732486
0.776222 0.775434 0.773070
0.812854 0.811894 0.809015
0.841119 0.840028 0.836758
0.842850 0.841752 0.838457
0.723782 0.723246 0.721635
0.725632 0.725087 0.723450
0.755314 0.754625 0.752559
0.792375 0.791511 0.788918
0.832442 0.831392 0.828241
0.871391 0.870162 0.866478
0.905513 0.904131 0.899985
0.931590 0.930091 0.925597
0.933179 0.931674 0.927158
0.730001 0.729434 0.727733
0.731846 0.731270 0.729543
0.761444 0.760726 0.758573
0.798384 0.797491 0.794814
0.838295 0.837218 0.833986
0.877064 0.875810 0.872048
0.911005 0.909598 0.905379
0.936925 0.935404 0.930838
0.938505 0.936976 0.932389
0.016691 0.021001 0.033931
0.018059 0.022353 0.035237
0.040670 0.044718 0.056862
0.070717 0.074458 0.085682
0.105578 0.108988 0.119216
0.142000 0.145086 0.154345
0.176145 0.178947 0.187350
0.203784 0.206365 0.214109
0.205515 0.208083 0.215787
0.021307 0.025565 0.038340
0.022688 0.026930 0.039659
0.045500 0.049497 0.061488
0.075784 0.079476 0.090550
0.110886 0.114248 0.124331
0.147527 0.150566 0.159683
0.181850 0.184606 0.192871
0.209616 0.212152 0.219761
0.211354 0.213877 0.221445
0.101455 0.104902 0.115245
0.103021 0.106454 0.116753
0.128736 0.131938 0.141543
0.162438 0.165352 0.174093
0.200970 0.203573 0.211384
0.240674 0.242975 0.249879
0.277451 0.279486 0.285592
0.306939 0.308769 0.314261
0.308778 0.310596 0.316049
0.215965 0.218453 0.225915
0.217712 0.220186 0.227608
0.246210 0.248471 0.255252
0.283104 0.285100 0.291086
0.324724 0.326435 0.331566
0.367050 0.368484 0.372784
0.405798 0.406988 0.410559
0.436569 0.437573 0.440583
0.438480 0.439472 0.442448
0.354438 0.355953 0.360497
0.356311 0.357814 0.362321
0.386714 0.388022 0.391949
0.425647 0.426716 0.429924
0.469033 0.469845 0.472281
0.512610 0.513173 0.514862
0.552045 0.552391 0.553426
0.583063 0.583241 0.583775
0.584980 0.585148 0.585652
0.499681 0.500317 0.502225
0.501604 0.502229 0.504104
0.532676 0.533127 0.534481
0.572084 0.572320 0.573031
0.615503 0.615511 0.615533
0.658599 0.658386 0.657745
0.697156 0.696749 0.695531
0.727184 0.726631 0.724971
0.729032 0.728469 0.726783
0.631967 0.631889 0.631656
0.633870 0.633782 0.633520
0.664485 0.664241 0.663512
0.702972 0.702537 0.701233
0.744931 0.744292 0.742375
0.786101 0.785266 0.782762
0.822515 0.821510 0.818497
0.850587 0.849454 0.846053
0.852306 0.851165 0.847740
0.733914 0.733328 0.731570
0.735756 0.735161 0.733377
0.765301 0.764565 0.762356
0.802162 0.801252 0.798522
0.841973 0.840878 0.837596
0.880627 0.879357 0.875547
0.914452 0.913030 0.908764
0.940273 0.938736 0.934126
0.941846 0.940302 0.935671
0.740105 0.739490 0.737643
0.741943 0.741318 0.739444
0.771401 0.770636 0.768340
0.808135 0.807197 0.804384
0.847784 0.846663 0.843301
0.886254 0.884958 0.881072
0.919892 0.918446 0.914107
0.945553 0.943993 0.939313
0.947116 0.945549 0.940848
0.026292 0.030495 0.043105
0.027686 0.031874 0.044437
0.050710 0.054653 0.066482
0.081246 0.084884 0.095799
0.116602 0.119912 0.129840
0.153473 0.156461 0.165428
0.187983 0.190689 0.198807
0.215882 0.218370 0.225834
0.217628 0.220103 0.227527
0.030997 0.035149 0.047604
0.032403 0.036540 0.048949
0.055623 0.059515 0.071193
0.086389 0.089978 0.100745
0.121980 0.125241 0.135025
0.159062 0.162004 0.170830
0.193744 0.196405 0.204385
0.221765 0.224209 0.231538
0.223519 0.225949 0.233238
0.112424 0.115771 0.125812
0.114011 0.117344 0.127342
0.140053 0.143156 0.152465
0.174135 0.176952 0.185405
0.213043 0.215553 0.223082
0.253076 0.255286 0.261917
0.290110 0.292057 0.297896
0.319773 0.321517 0.326747
0.321622 0.323353 0.328546
0.228169 0.230564 0.237748
0.229930 0.232312 0.239456
0.258654 0.260824 0.267333
0.295799 0.297706 0.303427
0.337652 0.339276 0.344150
0.380164 0.381514 0.385565
0.419039 0.420148 0.423476
0.449884 0.450809 0.453581
0.451799 0.452712 0.455451
0.367502 0.368932 0.373224
0.369383 0.370801 0.375057
0.399897 0.401124 0.404804
0.438939 0.439928 0.442896
0.482400 0.483135 0.485338
0.526005 0.526493 0.527958
0.565425 0.565697 0.566515
0.596403 0.596510 0.596833
0.598317 0.598414 0.598707
0.513072 0.513633 0.515314
0.514996 0.515546 0.517195
0.546068 0.546445 0.547578
0.585440 0.585606 0.586102
0.628777 0.628716 0.628532
0.671742 0.671463 0.670624
0.710141 0.709671 0.708260
0.740018 0.739402 0.737557
0.741855 0.741231 0.739358
0.645197 0.645051 0.644615
0.647094 0.646938 0.646473
0.677607 0.677297 0.676370
0.715930 0.715432 0.713936
0.757663 0.756963 0.754863
0.798559 0.797666 0.794986
0.834686 0.833625 0.830443
0.862505 0.861317 0.857753
0.864207 0.863011 0.859425
0.746710 0.746062 0.744120
0.748541 0.747885 0.745916
0.777904 0.777108 0.774720
0.814499 0.813532 0.810629
0.853971 0.852822 0.849375
0.892240 0.890917 0.886950
0.925675 0.924203 0.919787
0.951163 0.949578 0.944823
0.952714 0.951123 0.946347
0.752866 0.752189 0.750158
0.754692 0.754006 0.751949
0.783963 0.783138 0.780664
0.820425 0.819430 0.816445
0.859728 0.858553 0.855027
0.897805 0.896458 0.892416
0.931048 0.929552 0.925065
0.956370 0.954762 0.949938
0.957911 0.956297 0.951452
0.037123 0.041209 0.053466
0.038546 0.042616 0.054828
0.062013 0.065841 0.077324
0.093073 0.096599 0.107177
0.128961 0.132161 0.141760
0.166311 0.169193 0.177838
0.201210 0.203812 0.211616
0.229386 0.231771 0.238928
0.231148 0.233520 0.240637
0.041923 0.045957 0.058062
0.043357 0.047377 0.059436
0.067014 0.070792 0.082126
0.098299 0.101776 0.112207
0.134414 0.137566 0.147021
0.171967 0.174803 0.183309
0.207031 0.209587 0.217256
0.235323 0.237664 0.244687
0.237093 0.239421 0.246404
0.124724 0.127961 0.137672
0.126334 0.129557 0.139225
0.152725 0.155721 0.164706
0.187213 0.189925 0.198061
0.226520 0.228927 0.236148
0.266900 0.269010 0.275341
0.304203 0.306052 0.311600
0.334048 0.335696 0.340641
0.335908 0.337543 0.342451
0.241785 0.244078 0.250957
0.243561 0.245841 0.252681
0.272522 0.274592 0.280802
0.309929 0.311739 0.317169
0.352023 0.353553 0.358144
0.394724 0.395983 0.399759
0.433725 0.434746 0.437807
0.464640 0.465477 0.467990
0.466558 0.467384 0.469863
0.382011 0.383350 0.387365
0.383900 0.385226 0.389206
0.414527 0.415663 0.419074
0.453673 0.454575 0.457280
0.497200 0.497850 0.499800
0.540819 0.541225 0.542445
0.580207 0.580400 0.580980
0.611130 0.611160 0.611251
0.613040 0.613060 0.613121
0.527888 0.528366 0.529799
0.529812 0.530279 0.531680
0.560871 0.561168 0.562060
0.600190 0.600277 0.600540
0.643417 0.643281 0.642872
0.686222 0.685870 0.684814
0.724430 0.723891 0.722271
0.754128 0.753444 0.751395
0.755953 0.755261 0.753186
0.659782 0.659563 0.658904
0.661672 0.661443 0.660756
0.692060 0.691679 0.690536
0.730187 0.729619 0.727916
0.771653 0.770886 0.768587
0.812230 0.811273 0.808403
0.848024 0.846902 0.843536
0.875551 0.874303 0.870562
0.877234 0.875979 0.872215
0.760775 0.760061 0.757916
0.762595 0.761871 0.759701
0.791744 0.790882 0.788299
0.828029 0.826999 0.823909
0.867110 0.865901 0.862275
0.904935 0.903556 0.899418
0.937925 0.936398 0.931819
0.963031 0.961394 0.956482
0.964558 0.962914 0.957982
0.766889 0.766145 0.763914
0.768703 0.767951 0.765693
0.797755 0.796865 0.794197
0.833900 0.832843 0.829672
0.872804 0.871570 0.867866
0.910430 0.909026 0.904815
0.943220 0.941670 0.937021
0.968156 0.966496 0.961516
0.969672 0.968006 0.963006
0.048170 0.052139 0.064047
0.049620 0.053574 0.065437
0.073518 0.077232 0.088372
0.105088 0.108502 0.118744
0.141489 0.144580 0.153852
0.179301 0.182077 0.190404
0.214573 0.217071 0.224565
0.243012 0.245296 0.252148
0.244790 0.247061 0.253873
0.053061 0.056980 0.068737
0.054523 0.058427 0.070138
0.078606 0.082270 0.093262
0.110393 0.113759 0.123855
0.147013 0.150057 0.159187
0.185021 0.187751 0.195940
0.220451 0.222904 0.230263
0.249001 0.251241 0.257961
0.250785 0.253012 0.259693
0.137195 0.140323 0.149706
0.138827 0.141940 0.151281
0.165555 0.168443 0.177107
0.200432 0.203039 0.210862
0.240121 0.242426 0.249342
0.280830 0.282841 0.288876
0.318386 0.320139 0.325398
0.348401 0.349955 0.354616
0.350270 0.351811 0.356437
0.255517 0.257709 0.264286
0.257308 0.259488 0.266026
0.286493 0.288465 0.294380
0.324147 0.325861 0.331003
0.366464 0.367901 0.372213
0.409337 0.410505 0.414011
0.448448 0.449380 0.452179
0.479419 0.480171 0.482426
0.481340 0.482080 0.484303
0.396578 0.397826 0.401568
0.398474 0.399709 0.403416
0.429200 0.430248 0.433391
0.468435 0.469251 0.471697
0.512011 0.512577 0.514276
0.555626 0.555952 0.556928
0.594966 0.595081 0.595426
0.625821 0.625775 0.625637
0.627726 0.627670 0.627502
0.542701 0.543097 0.544286
0.544624 0.545010 0.546167
0.575659 0.575876 0.576529
0.614908 0.614919 0.614950
0.658009 0.657799 0.657167
0.700635 0.700212 0.698942
0.738638 0.738029 0.736203
0.768142 0.767393 0.765143
0.769955 0.769197 0.766921
0.674312 0.674019 0.673142
0.676194 0.675892 0.674986
0.706445 0.705993 0.704637
0.744359 0.743723 0.741814
0.785540 0.784708 0.782212
0.825781 0.824761 0.821703
0.861226 0.860044 0.856497
0.888448 0.887142 0.883226
0.890111 0.888798 0.884860
0.774743 0.773962 0.771619
0.776549 0.775760 0.773391
0.805472 0.804547 0.801770
0.841433 0.840341 0.837066
0.880104 0.878836 0.875033
0.917468 0.916033 0.911727
0.949996 0.948416 0.943677
0.974709 0.973020 0.967953
0.976211 0.974515 0.969429
0.780813 0.780003 0.777573
0.782613 0.781795 0.779340
0.811433 0.810479 0.807620
0.847246 0.846128 0.842773
0.885733 0.884440 0.880561
0.922890 0.921431 0.917052
0.955211 0.953609 0.948800
0.979748 0.978037 0.972904
0.981239 0.979521 0.974369
0.058337 0.062202 0.073797
0.059812 0.063662 0.075212
0.084089 0.087700 0.098533
0.116105 0.119419 0.129361
0.152956 0.155949 0.164928
0.191170 0.193850 0.201892
0.226765 0.229170 0.236386
0.255431 0.257624 0.264203
0.257223 0.259403 0.265943
0.063310 0.067125 0.078569
0.064796 0.068596 0.079996
0.089253 0.092815 0.103500
0.121480 0.124746 0.134543
0.158543 0.161489 0.170328
0.196946 0.199581 0.207486
0.232692 0.235053 0.242135
0.261465 0.263614 0.270062
0.263262 0.265399 0.271808
0.148612 0.151642 0.160732
0.150263 0.153279 0.162326
0.177285 0.180077 0.188453
0.212500 0.215014 0.222556
0.252518 0.254733 0.261375
0.293510 0.295433 0.301202
0.331282 0.332948 0.337948
0.361438 0.362908 0.367316
0.363316 0.364773 0.369145
0.268028 0.270130 0.276437
0.269832 0.271921 0.278189
0.299208 0.301092 0.306742
0.337072 0.338700 0.343585
0.379576 0.380930 0.384991
0.422588 0.423675 0.426938
0.461785 0.462639 0.465201
0.492797 0.493472 0.495497
0.494719 0.495383 0.497375
0.409793 0.410959 0.414456
0.411694 0.412848 0.416310
0.442500 0.443468 0.446372
0.481801 0.482539 0.484753
0.525405 0.525897 0.527371
0.569002 0.569255 0.570015
0.608285 0.608330 0.608465
0.639068 0.638954 0.638611
0.640967 0.640843 0.640472
0.556088 0.556411 0.557380
0.558009 0.558322 0.559260
0.589010 0.589157 0.589597
0.628183 0.628125 0.627950
0.671155 0.670878 0.670048
0.713604 0.713117 0.711656
0.751406 0.750736 0.748726
0.780727 0.779917 0.777489
0.782527 0.781709 0.779255
0.687396 0.687038 0.685964
0.689271 0.688903 0.687802
0.719386 0.718871 0.717325
0.757094 0.756397 0.754305
0.798003 0.797112 0.794441
0.837924 0.836849 0.833622
0.873039 0.871804 0.868097
0.899975 0.898618 0.894546
0.901620 0.900255 0.896162
0.787282 0.786442 0.783921
0.789076 0.788227 0.785681
0.817783 0.816801 0.813853
0.853436 0.852290 0.848850
0.891722 0.890402 0.886442
0.928654 0.927169 0.922713
0.960751 0.959124 0.954242
0.985097 0.983362 0.978159
0.986575 0.984834 0.979611
0.793309 0.792441 0.789835
0.795097 0.794220 0.791589
0.823696 0.822686 0.819656
0.859196 0.858023 0.854504
0.897290 0.895945 0.891910
0.934008 0.932499 0.927972
0.965892 0.964242 0.959292
0.990057 0.988301 0.983032
0.991524 0.989761 0.984473
0.066466 0.070249 0.081599
0.067959 0.071727 0.083032
0.092528 0.096058 0.106651
0.124886 0.128122 0.137829
0.162081 0.164998 0.173748
0.200601 0.203208 0.211027
0.236442 0.238775 0.245773
0.265280 0.267402 0.273768
0.267082 0.269191 0.275518
0.071501 0.075235 0.086435
0.073005 0.076724 0.087880
0.097750 0.101232 0.111677
0.130315 0.133502 0.143065
0.167715 0.170586 0.179196
0.206420 0.208981 0.216663
0.242407 0.244695 0.251560
0.271347 0.273426 0.279662
0.273155 0.275221 0.281418
0.157699 0.160652 0.169512
0.159364 0.162303 0.171122
0.186610 0.189327 0.197478
0.222083 0.224524 0.231846
0.262351 0.264494 0.270923
0.303555 0.305409 0.310970
0.341487 0.343086 0.347884
0.371749 0.373152 0.377363
0.373632 0.375023 0.379198
0.277946 0.279978 0.286073
0.279759 0.281778 0.287835
0.309280 0.311094 0.316538
0.347299 0.348860 0.353543
0.389940 0.391228 0.395094
0.433052 0.434076 0.437150
0.472307 0.473100 0.475479
0.503344 0.503959 0.505804
0.505267 0.505871 0.507684
0.420231 0.421333 0.424639
0.422136 0.423227 0.426498
0.452997 0.453903 0.456621
0.492341 0.493019 0.495052
0.535958 0.536391 0.537690
0.579530 0.579727 0.580318
0.618758 0.618749 0.618721
0.649478 0.649310 0.648809
0.651373 0.651196 0.650665
0.566627 0.566893 0.567691
0.568547 0.568803 0.569570
0.599515 0.599606 0.599879
0.638618 0.638506 0.638170
0.681477 0.681149 0.680164
0.723778 0.723241 0.721631
0.761413 0.760695 0.758542
0.790580 0.789724 0.787157
0.792370 0.791506 0.788914
0.697666 0.697257 0.696031
0.699534 0.699116 0.697862
0.729536 0.728971 0.727277
0.767073 0.766328 0.764094
0.807756 0.806820 0.804012
0.847416 0.846297 0.842939
0.882262 0.880985 0.877153
0.908965 0.907567 0.903375
0.910595 0.909190 0.904976
0.797099 0.796212 0.793554
0.798882 0.797987 0.795304
0.827412 0.826385 0.823304
0.862814 0.861624 0.858056
0.900786 0.899425 0.895343
0.937367 0.935844 0.931272
0.969115 0.967451 0.962459
0.993165 0.991395 0.986085
0.994625 0.992848 0.987519
0.803091 0.802176 0.799433
0.804867 0.803945 0.801177
0.833286 0.832232 0.829069
0.868529 0.867314 0.863668
0.906305 0.904919 0.900763
0.942666 0.941119 0.936477
0.974196 0.972510 0.967450
0.998061 0.996270 0.990895
0.999509 0.997711 0.992318
0.066973 0.070751 0.082085
0.068467 0.072230 0.083520
0.093053 0.096579 0.107157
0.125433 0.128664 0.138356
0.162648 0.165560 0.174297
0.201188 0.203789 0.211594
0.237043 0.239371 0.246356
0.265892 0.268010 0.274362
0.267694 0.269799 0.276113
0.072012 0.075740 0.086925
0.073517 0.077230 0.088371
0.098279 0.101756 0.112187
0.130864 0.134047 0.143596
0.168286 0.171151 0.179748
0.207008 0.209565 0.217234
0.243010 0.245294 0.252146
0.271961 0.274035 0.280258
0.273769 0.275830 0.282014
0.158264 0.161213 0.170058
0.159930 0.162865 0.171669
0.187190 0.189902 0.198039
0.222679 0.225115 0.232423
0.262962 0.265100 0.271516
0.304179 0.306028 0.311576
0.342120 0.343715 0.348500
0.372388 0.373788 0.377986
0.374272 0.375659 0.379821
0.278561 0.280589 0.286671
0.280376 0.282390 0.288434
0.309905 0.311715 0.317146
0.347933 0.349490 0.354161
0.390582 0.391867 0.395721
0.433700 0.434721 0.437783
0.472959 0.473748 0.476115
0.503997 0.504608 0.506443
0.505920 0.506521 0.508323
0.420878 0.421976 0.425270
0.422784 0.423870 0.427130
0.453648 0.454550 0.457256
0.492994 0.493668 0.495690
0.536611 0.537041 0.538329
0.580182 0.580375 0.580956
0.619406 0.619394 0.619355
0.650121 0.649951 0.649439
0.652016 0.651836 0.651295
0.567279 0.567542 0.568330
0.569199 0.569452 0.570209
0.600165 0.600252 0.600515
0.639263 0.639148 0.638802
0.682115 0.681784 0.680789
0.724406 0.723866 0.722247
0.762031 0.761310 0.759148
0.791188 0.790330 0.787754
0.792978 0.792111 0.789510
0.698300 0.697888 0.696653
0.700168 0.699747 0.698484
0.730163 0.729595 0.727892
0.767689 0.766941 0.764698
0.808358 0.807419 0.804603
0.848001 0.846879 0.843514
0.882831 0.881551 0.877711
0.909519 0.908119 0.903919
0.911147 0.909740 0.905519
0.797705 0.796815 0.794148
0.799487 0.798590 0.795897
0.828006 0.826976 0.823887
0.863392 0.862200 0.858624
0.901345 0.899981 0.895892
0.937904 0.936378 0.931799
0.969630 0.967963 0.962964
0.993661 0.991889 0.986573
0.995120 0.993341 0.988005
0.803694 0.802777 0.800026
0.805470 0.804545 0.801769
0.833878 0.832821 0.829650
0.869104 0.867886 0.864233
0.906860 0.905472 0.901308
0.943199 0.941650 0.937001
0.974707 0.973018 0.967952
0.998553 0.996760 0.991379
1.000000 0.998200 0.992800
