backend/app/assets/luts/mono_contrast.cube
TITLE "ZipZop mono_contrast"
LUT_3D_SIZE 5
DOMAIN_MIN 0.0 0.0 0.0
DOMAIN_MAX 1.0 1.0 1.0
0.008800 0.013200 0.026400
0.032405 0.036541 0.048950
0.096468 0.099962 0.110444
0.166333 0.169215 0.177860
0.195464 0.198110 0.206050
0.092392 0.095924 0.106521
0.119374 0.122659 0.132513
0.190954 0.193636 0.201683
0.266924 0.269034 0.275364
0.298087 0.299978 0.305652
0.343552 0.345138 0.349895
0.375719 0.377097 0.381231
0.457864 0.458741 0.461373
0.540844 0.541251 0.542470
0.573806 0.574033 0.574716
0.620871 0.620850 0.620789
0.653470 0.653283 0.652720
0.734222 0.733635 0.731873
0.812253 0.811296 0.808426
0.842262 0.841167 0.837880
0.729374 0.728810 0.727118
0.760826 0.760111 0.757966
0.837705 0.836631 0.833407
0.910452 0.909048 0.904836
0.937969 0.936442 0.931863
0.016691 0.021001 0.033931
0.040670 0.044718 0.056862
0.105578 0.108988 0.119216
0.176145 0.178947 0.187350
0.205515 0.208083 0.215787
0.101455 0.104902 0.115245
0.128736 0.131938 0.141543
0.200970 0.203573 0.211384
0.277451 0.279486 0.285592
0.308778 0.310596 0.316049
0.354438 0.355953 0.360497
0.386714 0.388022 0.391949
0.469033 0.469845 0.472281
0.552045 0.552391 0.553426
0.584980 0.585148 0.585652
0.631967 0.631889 0.631656
0.664485 0.664241 0.663512
0.744931 0.744292 0.742375
0.822515 0.821510 0.818497
0.852306 0.851165 0.847740
0.740105 0.739490 0.737643
0.771401 0.770636 0.768340
0.847784 0.846663 0.843301
0.919892 0.918446 0.914107
0.947116 0.945549 0.940848
0.037123 0.041209 0.053466
0.062013 0.065841 0.077324
0.128961 0.132161 0.141760
0.201210 0.203812 0.211616
0.231148 0.233520 0.240637
0.124724 0.127961 0.137672
0.152725 0.155721 0.164706
0.226520 0.228927 0.236148
0.304203 0.306052 0.311600
0.335908 0.337543 0.342451
0.382011 0.383350 0.387365
0.414527 0.415663 0.419074
0.497200 0.497850 0.499800
0.580207 0.580400 0.580980
0.613040 0.613060 0.613121
0.659782 0.659563 0.658904
0.692060 0.691679 0.690536
0.771653 0.770886 0.768587
0.848024 0.846902 0.843536
0.877234 0.875979 0.872215
0.766889 0.766145 0.763914
0.797755 0.796865 0.794197
0.872804 0.871570 0.867866
0.943220 0.941670 0.937021
0.969672 0.968006 0.963006
0.058337 0.062202 0.073797
0.084089 0.087700 0.098533
0.152956 0.155949 0.164928
0.226765 0.229170 0.236386
0.257223 0.259403 0.265943
0.148612 0.151642 0.160732
0.177285 0.180077 0.188453
0.252518 0.254733 0.261375
0.331282 0.332948 0.337948
0.363316 0.364773 0.369145
0.409793 0.410959 0.414456
0.442500 0.443468 0.446372
0.525405 0.525897 0.527371
0.608285 0.608330 0.608465
0.640967 0.640843 0.640472
0.687396 0.687038 0.685964
0.719386 0.718871 0.717325
0.798003 0.797112 0.794441
0.873039 0.871804 0.868097
0.901620 0.900255 0.896162
0.793309 0.792441 0.789835
0.823696 0.822686 0.819656
0.897290 0.895945 0.891910
0.965892 0.964242 0.959292
0.991524 0.989761 0.984473
0.066973 0.070751 0.082085
0.093053 0.096579 0.107157
0.162648 0.165560 0.174297
0.237043 0.239371 0.246356
0.267694 0.269799 0.276113
0.158264 0.161213 0.170058
0.187190 0.189902 0.198039
0.262962 0.265100 0.271516
0.342120 0.343715 0.348500
0.374272 0.375659 0.379821
0.420878 0.421976 0.425270
0.453648 0.454550 0.457256
0.536611 0.537041 0.538329
0.619406 0.619394 0.619355
0.652016 0.651836 0.651295
0.698300 0.697888 0.696653
0.730163 0.729595 0.727892
0.808358 0.807419 0.804603
0.882831 0.881551 0.877711
0.911147 0.909740 0.905519
0.803694 0.802777 0.800026
0.833878 0.832821 0.829650
0.906860 0.905472 0.901308
0.974707 0.973018 0.967952
1.000000 0.998200 0.992800
