backend/app/assets/luts/vlog_clean.cube
TITLE "ZipZop vlog_clean"
LUT_3D_SIZE 17
DOMAIN_MIN 0.0 0.0 0.0
DOMAIN_MAX 1.0 1.0 1.0
0.001837 0.005017 0.010317
0.013665 0.004847 0.010118
0.062736 0.004163 0.009316
0.119877 0.003409 0.008424
0.183904 0.002618 0.007476
0.253603 0.001820 0.006505
0.327722 0.001042 0.005541
0.404973 0.000307 0.004610
0.484026 0.000000 0.003734
0.563519 0.000000 0.002929
0.642060 0.000000 0.002209
0.718234 0.000000 0.001581
0.790607 0.000000 0.001047
0.857739 0.000000 0.000606
0.918186 0.000000 0.000253
0.970505 0.000000 0.000000
0.983175 0.000000 0.000000
0.001329 0.016450 0.009656
0.013188 0.016293 0.009463
0.062378 0.015662 0.008685
0.119651 0.014969 0.007820
0.183818 0.014244 0.006902
0.253657 0.013516 0.005964
0.327915 0.012811 0.005036
0.405296 0.012150 0.004142
0.484471 0.011551 0.003303
0.564073 0.011026 0.002537
0.642709 0.010583 0.001854
0.718962 0.010224 0.001262
0.791401 0.009946 0.000762
0.858585 0.009744 0.000354
0.919071 0.009607 0.000030
0.971419 0.009523 0.000000
0.984095 0.009508 0.000000
0.000000 0.064407 0.007129
0.011433 0.064300 0.006960
0.061096 0.063875 0.006279
0.118891 0.063417 0.005528
0.183604 0.062950 0.004737
0.253996 0.062495 0.003938
0.328792 0.062073 0.003157
0.406682 0.061698 0.002416
0.486324 0.061384 0.001734
0.566342 0.061137 0.001126
0.645337 0.060960 0.000599
0.721890 0.060852 0.000158
0.794570 0.060806 0.000000
0.861940 0.060813 0.000000
0.922564 0.060861 0.000000
0.975007 0.060933 0.000000
0.987703 0.060954 0.000000
0.000000 0.121211 0.004616
0.009845 0.121156 0.004474
0.060013 0.120944 0.003909
0.118361 0.120729 0.003291
0.183651 0.120527 0.002650
0.254621 0.120354 0.002014
0.329976 0.120221 0.001405
0.408389 0.120140 0.000844
0.488503 0.120115 0.000347
0.568935 0.120150 0.000000
0.648278 0.120243 0.000000
0.725114 0.120388 0.000000
0.798012 0.120575 0.000000
0.865542 0.120793 0.000000
0.926273 0.121024 0.000000
0.978784 0.121251 0.000000
0.991492 0.121310 0.000000
0.000000 0.185892 0.002347
0.008648 0.185887 0.002237
0.059321 0.185882 0.001801
0.118221 0.185900 0.001335
0.184082 0.185952 0.000864
0.255619 0.186047 0.000411
0.331514 0.186190 0.000000
0.410425 0.186386 0.000000
0.490980 0.186635 0.000000
0.571786 0.186934 0.000000
0.651434 0.187278 0.000000
0.728503 0.187658 0.000000
0.801567 0.188060 0.000000
0.869202 0.188470 0.000000
0.929990 0.188869 0.000000
0.982520 0.189237 0.000000
0.995228 0.189329 0.000000
0.000000 0.257292 0.000532
0.008039 0.257332 0.000457
0.059194 0.257511 0.000164
0.118614 0.257738 0.000000
0.185009 0.258016 0.000000
0.257067 0.258348 0.000000
0.333451 0.258733 0.000000
0.412799 0.259171 0.000000
0.493729 0.259656 0.000000
0.574839 0.260183 0.000000
0.654716 0.260741 0.000000
0.731940 0.261318 0.000000
0.805092 0.261900 0.000000
0.872757 0.262469 0.000000
0.933530 0.263005 0.000000
0.986015 0.263487 0.000226
0.998708 0.263607 0.000297
0.000000 0.334051 0.000000
0.008184 0.334129 0.000000
0.059774 0.334460 0.000000
0.119659 0.334857 0.000000
0.186522 0.335319 0.000000
0.259027 0.335841 0.000000
0.335818 0.336419 0.000000
0.415516 0.337047 0.000000
0.496727 0.337716 0.000000
0.578042 0.338415 0.000000
0.658047 0.339134 0.000000
0.735327 0.339858 0.000259
0.808468 0.340569 0.000701
0.876070 0.341251 0.001167
0.936741 0.341882 0.001632
0.989105 0.342442 0.002070
1.000000 0.342580 0.002181
0.000000 0.414630 0.000000
0.009202 0.414736 0.000000
0.061163 0.415177 0.000000
0.121436 0.415697 0.000000
0.188680 0.416289 0.000000
0.261537 0.416944 0.000000
0.338630 0.417653 0.000000
0.418568 0.418406 0.000000
0.499946 0.419193 0.000436
0.581350 0.420000 0.000961
0.661366 0.420814 0.001556
0.738584 0.421620 0.002204
0.811603 0.422402 0.002884
0.879035 0.423140 0.003571
0.939509 0.423816 0.004236
0.991666 0.424411 0.004847
1.000000 0.424556 0.005000
0.000000 0.497345 0.000000
0.011161 0.497466 0.000000
0.063414 0.497972 0.000000
0.123985 0.498561 0.000000
0.191509 0.499223 0.000218
0.264607 0.499945 0.000653
0.341886 0.500716 0.001183
0.421940 0.501523 0.001807
0.503356 0.502354 0.002523
0.584720 0.503195 0.003319
0.664620 0.504032 0.004181
0.741652 0.504851 0.005089
0.814430 0.505635 0.006016
0.881582 0.506369 0.006932
0.941756 0.507035 0.007804
0.993620 0.507615 0.008595
1.000000 0.507757 0.008791
0.001382 0.580423 0.000700
0.014066 0.580549 0.000783
0.066528 0.581070 0.001147
0.127299 0.581671 0.001610
0.194994 0.582340 0.002179
0.268215 0.583061 0.002857
0.345554 0.583822 0.003644
0.425595 0.584608 0.004537
0.506920 0.585408 0.005526
0.588113 0.586207 0.006598
0.667767 0.586992 0.007733
0.744489 0.587751 0.008904
0.816907 0.588470 0.010083
0.883670 0.589136 0.011233
0.943449 0.589735 0.012315
0.994935 0.590253 0.013288
1.000000 0.590378 0.013528
0.005142 0.662069 0.002882
0.017862 0.662188 0.003007
0.070446 0.662676 0.003543
0.131318 0.663234 0.004206
0.199075 0.663848 0.004998
0.272302 0.664501 0.005918
0.349580 0.665182 0.006963
0.429483 0.665875 0.008124
0.510590 0.666570 0.009388
0.591486 0.667253 0.010735
0.670773 0.667915 0.012142
0.747069 0.668545 0.013578
0.819019 0.669134 0.015008
0.885293 0.669671 0.016391
0.944587 0.670149 0.017684
0.995619 0.670558 0.018839
1.000000 0.670656 0.019124
0.009691 0.740527 0.005832
0.022424 0.740628 0.005997
0.075050 0.741039 0.006702
0.135930 0.741504 0.007561
0.203647 0.742006 0.008573
0.276772 0.742532 0.009731
0.353876 0.743069 0.011029
0.433527 0.743604 0.012453
0.514303 0.744127 0.013986
0.594794 0.744630 0.015605
0.673607 0.745104 0.017279
0.749378 0.745543 0.018974
0.820768 0.745943 0.020651
0.886470 0.746299 0.022263
0.945206 0.746608 0.023763
0.995723 0.746866 0.025097
1.000000 0.746928 0.025425
0.014838 0.814138 0.009398
0.027569 0.814212 0.009603
0.080163 0.814511 0.010470
0.140970 0.814839 0.011518
0.208558 0.815185 0.012740
0.281489 0.815533 0.014128
0.358324 0.815874 0.015669
0.437631 0.816197 0.017347
0.517985 0.816495 0.019139
0.597982 0.816763 0.021017
0.676242 0.816998 0.022949
0.751412 0.817197 0.024894
0.822174 0.817362 0.026808
0.887245 0.817493 0.028640
0.945371 0.817595 0.030338
0.995330 0.817671 0.031845
1.000000 0.817687 0.032214
0.020337 0.881386 0.013377
0.033050 0.881427 0.013618
0.085554 0.881586 0.014638
0.146223 0.881749 0.015863
0.213615 0.881903 0.017283
0.286281 0.882039 0.018886
0.362780 0.882146 0.020656
0.441674 0.882220 0.022571
0.521545 0.882256 0.024606
0.600992 0.882252 0.026729
0.678646 0.882212 0.028901
0.753171 0.882137 0.031080
0.823269 0.882036 0.033216
0.887677 0.881915 0.035256
0.945171 0.881784 0.037140
0.994553 0.881655 0.038807
1.000000 0.881622 0.039216
0.025889 0.940923 0.017516
0.038574 0.940927 0.017791
0.090948 0.940932 0.018949
0.151436 0.940912 0.020335
0.218586 0.940858 0.021936
0.290946 0.940762 0.023734
0.367069 0.940618 0.025712
0.445518 0.940424 0.027843
0.524876 0.940179 0.030099
0.603752 0.939888 0.032444
0.680788 0.939556 0.034836
0.754661 0.939193 0.037228
0.824092 0.938812 0.039566
0.887841 0.938427 0.041793
0.944709 0.938055 0.043847
0.993523 0.937714 0.045661
1.000000 0.937629 0.046106
0.031157 0.991566 0.021527
0.043809 0.991533 0.021831
0.096032 0.991383 0.023110
0.156320 0.991180 0.024637
0.223213 0.990918 0.026395
0.295256 0.990591 0.028365
0.370998 0.990198 0.030524
0.449005 0.989739 0.032844
0.527862 0.989218 0.035293
0.606186 0.988643 0.037832
0.682629 0.988027 0.040416
0.755883 0.987383 0.042994
0.824686 0.986730 0.045509
0.887818 0.986089 0.047900
0.944101 0.985483 0.050102
0.992387 0.984936 0.052044
1.000000 0.984801 0.052520
0.032497 1.000000 0.022558
0.045140 1.000000 0.022869
0.097322 1.000000 0.024179
0.157555 1.000000 0.025740
0.224379 1.000000 0.027536
0.296338 1.000000 0.029548
0.371981 1.000000 0.031751
0.449872 1.000000 0.034117
0.528600 1.000000 0.036613
0.606783 1.000000 0.039199
0.683074 0.999591 0.041830
0.756171 0.998875 0.044453
0.824814 0.998152 0.047011
0.887790 0.997445 0.049442
0.943925 0.996779 0.051680
0.992079 0.996179 0.053653
1.000000 0.996031 0.054136
0.001784 0.004959 0.022226
0.013616 0.004789 0.022035
0.062699 0.004108 0.021264
0.119853 0.003357 0.020407
0.183895 0.002569 0.019497
0.253608 0.001775 0.018565
0.327741 0.001000 0.017641
0.405005 0.000270 0.016750
0.484071 0.000000 0.015912
0.563575 0.000000 0.015145
0.642126 0.000000 0.014459
0.718308 0.000000 0.013862
0.790688 0.000000 0.013356
0.857825 0.000000 0.012940
0.918276 0.000000 0.012608
0.970598 0.000000 0.012355
0.983269 0.000000 0.012298
0.001279 0.016397 0.021591
0.013141 0.016240 0.021406
0.062343 0.015612 0.020658
0.119629 0.014921 0.019827
0.183810 0.014199 0.018946
0.253663 0.013475 0.018047
0.327935 0.012774 0.017158
0.405329 0.012117 0.016302
0.484516 0.011522 0.015501
0.564129 0.011001 0.014771
0.642774 0.010561 0.014122
0.719035 0.010206 0.013560
0.791481 0.009932 0.013088
0.858670 0.009733 0.012703
0.919160 0.009599 0.012400
0.971510 0.009518 0.012170
0.984187 0.009503 0.012119
0.000000 0.064370 0.019164
0.011394 0.064264 0.019002
0.061069 0.063842 0.018349
0.118876 0.063386 0.017629
0.183602 0.062921 0.016872
0.254007 0.062470 0.016108
0.328815 0.062051 0.015362
0.406717 0.061680 0.014656
0.486369 0.061369 0.014008
0.566397 0.061126 0.013431
0.645400 0.060952 0.012934
0.721960 0.060847 0.012520
0.794645 0.060805 0.012188
0.862019 0.060815 0.011934
0.922645 0.060865 0.011749
0.975091 0.060940 0.011621
0.987787 0.060962 0.011595
0.000000 0.121192 0.016756
0.009817 0.121138 0.016621
0.059995 0.120928 0.016080
0.118353 0.120715 0.015490
0.183656 0.120516 0.014879
0.254637 0.120345 0.014273
0.330002 0.120215 0.013695
0.408426 0.120137 0.013165
0.488549 0.120116 0.012696
0.568989 0.120154 0.012300
0.648339 0.120250 0.011982
0.725180 0.120398 0.011741
0.798082 0.120588 0.011575
0.865614 0.120808 0.011474
0.926348 0.121042 0.011427
0.978859 0.121271 0.011420
0.991567 0.121330 0.011423
0.000000 0.185890 0.014590
0.008631 0.185886 0.014486
0.059313 0.185882 0.014072
0.118223 0.185902 0.013629
0.184095 0.185957 0.013183
0.255641 0.186054 0.012757
0.331546 0.186199 0.012369
0.410465 0.186398 0.012037
0.491027 0.186649 0.011772
0.571840 0.186951 0.011580
0.651493 0.187298 0.011464
0.728565 0.187680 0.011419
0.801632 0.188085 0.011440
0.869268 0.188497 0.011512
0.930056 0.188898 0.011622
0.982586 0.189268 0.011750
0.995294 0.189361 0.011786
0.000000 0.257305 0.012871
0.008035 0.257346 0.012800
0.059198 0.257526 0.012525
0.118626 0.257755 0.012245
0.185030 0.258035 0.011981
0.257096 0.258368 0.011752
0.333487 0.258756 0.011574
0.412843 0.259195 0.011460
0.493778 0.259683 0.011419
0.574892 0.260212 0.011452
0.654772 0.260772 0.011557
0.731998 0.261352 0.011729
0.805151 0.261935 0.011955
0.872816 0.262506 0.012218
0.933588 0.263044 0.012500
0.986071 0.263528 0.012778
0.998764 0.263647 0.012850
0.000000 0.334078 0.011770
0.008193 0.334156 0.011735
0.059790 0.334487 0.011611
0.119682 0.334886 0.011506
0.186551 0.335349 0.011437
0.259063 0.335873 0.011420
0.335860 0.336452 0.011468
0.415563 0.337081 0.011590
0.496777 0.337752 0.011788
0.578095 0.338453 0.012063
0.658101 0.339174 0.012408
0.735381 0.339899 0.012812
0.808521 0.340612 0.013258
0.876121 0.341295 0.013727
0.936790 0.341927 0.014193
0.989151 0.342489 0.014632
1.000000 0.342627 0.014743
0.000000 0.414666 0.011421
0.009226 0.414772 0.011424
0.061191 0.415213 0.011459
0.121470 0.415735 0.011537
0.188719 0.416327 0.011675
0.261581 0.416983 0.011882
0.338679 0.417693 0.012168
0.418619 0.418448 0.012538
0.499998 0.419235 0.012990
0.581403 0.420043 0.013520
0.661418 0.420859 0.014117
0.738634 0.421666 0.014766
0.811650 0.422448 0.015445
0.879079 0.423187 0.016130
0.939548 0.423865 0.016792
0.991702 0.424460 0.017400
1.000000 0.424605 0.017552
0.000000 0.497386 0.011906
0.011199 0.497508 0.011950
0.063456 0.498013 0.012148
0.124031 0.498603 0.012418
0.191559 0.499265 0.012770
0.264659 0.499988 0.013210
0.341940 0.500759 0.013743
0.421995 0.501567 0.014369
0.503411 0.502398 0.015085
0.584773 0.503240 0.015879
0.664670 0.504078 0.016737
0.741698 0.504897 0.017640
0.814471 0.505682 0.018560
0.881618 0.506416 0.019469
0.941787 0.507082 0.020334
0.993646 0.507663 0.021116
1.000000 0.507805 0.021311
0.001434 0.580466 0.013257
0.014120 0.580592 0.013341
0.066584 0.581113 0.013707
0.127357 0.581714 0.014172
0.195054 0.582382 0.014741
0.268276 0.583103 0.015418
0.345615 0.583864 0.016203
0.425655 0.584650 0.017091
0.506978 0.585450 0.018074
0.588167 0.586249 0.019138
0.667815 0.587034 0.020263
0.744532 0.587793 0.021423
0.816944 0.588513 0.022590
0.883699 0.589178 0.023727
0.943471 0.589777 0.024797
0.994951 0.590295 0.025758
1.000000 0.590421 0.025996
0.005210 0.662110 0.015443
0.017930 0.662228 0.015568
0.070516 0.662716 0.016102
0.131389 0.663274 0.016762
0.199146 0.663887 0.017549
0.272372 0.664540 0.018463
0.349648 0.665219 0.019500
0.429547 0.665912 0.020650
0.510650 0.666606 0.021902
0.591541 0.667289 0.023235
0.670820 0.667950 0.024626
0.747109 0.668580 0.026045
0.819051 0.669168 0.027457
0.885316 0.669705 0.028823
0.944601 0.670183 0.030099
0.995626 0.670591 0.031239
1.000000 0.670689 0.031520
0.009774 0.740561 0.018378
0.022508 0.740662 0.018542
0.075133 0.741073 0.019241
0.136013 0.741536 0.020093
0.203728 0.742038 0.021095
0.276851 0.742563 0.022242
0.353950 0.743098 0.023526
0.433596 0.743632 0.024934
0.514366 0.744154 0.026448
0.594849 0.744656 0.028046
0.673654 0.745129 0.029699
0.749415 0.745567 0.031372
0.820795 0.745966 0.033026
0.886487 0.746322 0.034616
0.945213 0.746630 0.036094
0.995720 0.746887 0.037409
1.000000 0.746948 0.037732
0.014936 0.814163 0.021912
0.027666 0.814237 0.022115
0.080259 0.814535 0.022973
0.141064 0.814862 0.024009
0.208649 0.815206 0.025217
0.281576 0.815553 0.026589
0.358406 0.815892 0.028111
0.437705 0.816213 0.029766
0.518051 0.816510 0.031534
0.598039 0.816776 0.033387
0.676288 0.817009 0.035292
0.751446 0.817207 0.037209
0.822197 0.817371 0.039095
0.887255 0.817501 0.040900
0.945371 0.817602 0.042572
0.995319 0.817676 0.044056
1.000000 0.817692 0.044420
0.020448 0.881400 0.025846
0.033161 0.881441 0.026085
0.085662 0.881598 0.027092
0.146328 0.881760 0.028302
0.213715 0.881912 0.029704
0.286376 0.882046 0.031285
0.362867 0.882151 0.033031
0.441753 0.882223 0.034919
0.521613 0.882256 0.036925
0.601049 0.882251 0.039017
0.678691 0.882208 0.041157
0.753204 0.882132 0.043303
0.823288 0.882029 0.045407
0.887683 0.881906 0.047415
0.945164 0.881774 0.049270
0.994534 0.881644 0.050911
1.000000 0.881610 0.051314
0.026012 0.940924 0.029933
0.038697 0.940928 0.030204
0.091067 0.940932 0.031347
0.151551 0.940910 0.032714
0.218695 0.940854 0.034293
0.291048 0.940755 0.036066
0.367162 0.940609 0.038015
0.445601 0.940412 0.040115
0.524948 0.940165 0.042337
0.603811 0.939871 0.044646
0.680833 0.939537 0.047001
0.754691 0.939172 0.049356
0.824108 0.938789 0.051658
0.887843 0.938402 0.053850
0.944696 0.938028 0.055870
0.993498 0.937685 0.057656
1.000000 0.937600 0.058093
0.031291 0.991555 0.033889
0.043942 0.991522 0.034189
0.096162 0.991370 0.035451
0.156443 0.991165 0.036956
0.223330 0.990900 0.038688
0.295364 0.990571 0.040629
0.371097 0.990175 0.042755
0.449092 0.989713 0.045041
0.527937 0.989189 0.047452
0.606247 0.988612 0.049951
0.682674 0.987992 0.052494
0.755913 0.987346 0.055031
0.824699 0.986690 0.057506
0.887816 0.986047 0.059859
0.944083 0.985439 0.062024
0.992357 0.984890 0.063935
1.000000 0.984755 0.064403
0.032634 1.000000 0.034906
0.045276 1.000000 0.035213
0.097454 1.000000 0.036504
0.157681 1.000000 0.038042
0.224498 1.000000 0.039812
0.296448 1.000000 0.041794
0.372081 1.000000 0.043963
0.449960 1.000000 0.046294
0.528675 1.000000 0.048751
0.606843 1.000000 0.051296
0.683119 0.999553 0.053885
0.756200 0.998833 0.056466
0.824827 0.998108 0.058984
0.887787 0.997399 0.061375
0.943907 0.996730 0.063576
0.992047 0.996129 0.065518
1.000000 0.995981 0.065993
0.001571 0.004721 0.071516
0.013415 0.004554 0.071356
0.062548 0.003883 0.070713
0.119758 0.003145 0.069998
0.183858 0.002370 0.069242
0.253630 0.001590 0.068472
0.327821 0.000832 0.067712
0.405140 0.000117 0.066983
0.484256 0.000000 0.066303
0.563806 0.000000 0.065685
0.642397 0.000000 0.065139
0.718612 0.000000 0.064670
0.791020 0.000000 0.064279
0.858179 0.000000 0.063963
0.918647 0.000000 0.063717
0.970981 0.000000 0.063534
0.983654 0.000000 0.063494
0.001075 0.016177 0.070985
0.012948 0.016023 0.070831
0.062200 0.015405 0.070207
0.119541 0.014726 0.069516
0.183778 0.014017 0.068787
0.253690 0.013307 0.068045
0.328017 0.012621 0.067316
0.405466 0.011980 0.066619
0.484702 0.011401 0.065971
0.564359 0.010897 0.065386
0.643043 0.010473 0.064873
0.719337 0.010133 0.064435
0.791809 0.009874 0.064074
0.859018 0.009689 0.063786
0.919524 0.009568 0.063566
0.971886 0.009497 0.063405
0.984564 0.009485 0.063370
0.000000 0.064222 0.068967
0.011238 0.064118 0.068833
0.060958 0.063704 0.068294
0.118815 0.063259 0.067702
0.183594 0.062807 0.067082
0.254051 0.062368 0.066461
0.328911 0.061963 0.065859
0.406862 0.061606 0.065295
0.486558 0.061310 0.064783
0.566624 0.061081 0.064336
0.645661 0.060923 0.063958
0.722248 0.060832 0.063653
0.794954 0.060803 0.063417
0.862345 0.060826 0.063246
0.922982 0.060887 0.063132
0.975436 0.060972 0.063062
0.988133 0.060996 0.063049
0.000000 0.121116 0.066987
0.009703 0.121064 0.066877
0.059922 0.120862 0.066438
0.118326 0.120659 0.065962
0.183675 0.120470 0.065472
0.254704 0.120310 0.064992
0.330115 0.120193 0.064540
0.408580 0.120127 0.064133
0.488741 0.120119 0.063782
0.569213 0.120170 0.063495
0.648591 0.120279 0.063278
0.725453 0.120440 0.063127
0.798371 0.120642 0.063040
0.865914 0.120873 0.063006
0.926654 0.121117 0.063016
0.979168 0.121355 0.063054
0.991877 0.121416 0.063067
0.000000 0.185885 0.065243
0.008564 0.185883 0.065160
0.059283 0.185885 0.064834
0.118233 0.185913 0.064489
0.184146 0.185977 0.064147
0.255733 0.186083 0.063826
0.331677 0.186239 0.063545
0.410631 0.186448 0.063315
0.491224 0.186711 0.063145
0.572062 0.187024 0.063042
0.651735 0.187382 0.063005
0.728821 0.187775 0.063031
0.801897 0.188190 0.063111
0.869539 0.188612 0.063233
0.930329 0.189021 0.063383
0.982857 0.189399 0.063543
0.995565 0.189493 0.063586
0.000000 0.257363 0.063911
0.008020 0.257406 0.063858
0.059215 0.257591 0.063657
0.118678 0.257826 0.063457
0.185117 0.258113 0.063277
0.257217 0.258454 0.063133
0.333639 0.258850 0.063040
0.413022 0.259298 0.063005
0.493980 0.259795 0.063037
0.575112 0.260333 0.063135
0.655004 0.260902 0.063298
0.732238 0.261491 0.063517
0.805393 0.262083 0.063782
0.873057 0.262661 0.064076
0.933824 0.263206 0.064381
0.986302 0.263696 0.064675
0.998993 0.263817 0.064750
0.000000 0.334188 0.063144
0.008234 0.334267 0.063124
0.059858 0.334603 0.063057
0.119778 0.335006 0.063014
0.186676 0.335474 0.063009
0.259215 0.336004 0.063056
0.336035 0.336590 0.063164
0.415757 0.337225 0.063341
0.496986 0.337903 0.063588
0.578314 0.338611 0.063904
0.658325 0.339338 0.064282
0.735604 0.340070 0.064711
0.808740 0.340790 0.065174
0.876331 0.341478 0.065653
0.936990 0.342117 0.066125
0.989339 0.342683 0.066564
1.000000 0.342822 0.066674
0.000000 0.414814 0.063058
0.009326 0.414921 0.063072
0.061313 0.415365 0.063148
0.121613 0.415889 0.063270
0.188884 0.416486 0.063450
0.261765 0.417145 0.063699
0.338878 0.417859 0.064021
0.418831 0.418618 0.064421
0.500216 0.419410 0.064897
0.581621 0.420223 0.065443
0.661633 0.421043 0.066048
0.738841 0.421855 0.066697
0.811845 0.422641 0.067371
0.879258 0.423385 0.068045
0.939711 0.424066 0.068693
0.991848 0.424664 0.069285
1.000000 0.424811 0.069433
0.000000 0.497557 0.063726
0.011360 0.497679 0.063776
0.063633 0.498186 0.063999
0.124224 0.498777 0.064293
0.191766 0.499440 0.064666
0.264878 0.500165 0.065124
0.342166 0.500938 0.065669
0.422224 0.501748 0.066301
0.503638 0.502582 0.067014
0.584993 0.503425 0.067798
0.664877 0.504266 0.068640
0.741890 0.505087 0.069518
0.814642 0.505874 0.070410
0.881767 0.506610 0.071287
0.941913 0.507279 0.072118
0.993750 0.507862 0.072869
1.000000 0.508004 0.073055
0.001654 0.580643 0.065173
0.014343 0.580769 0.065259
0.066818 0.581289 0.065633
0.127601 0.581890 0.066103
0.195304 0.582558 0.066672
0.268530 0.583279 0.067344
0.345869 0.584039 0.068116
0.425904 0.584825 0.068984
0.507215 0.585625 0.069940
0.588389 0.586424 0.070968
0.668017 0.587209 0.072050
0.744709 0.587968 0.073162
0.817093 0.588688 0.074277
0.883819 0.589354 0.075361
0.943562 0.589953 0.076378
0.995014 0.590472 0.077291
1.000000 0.590597 0.077516
0.005494 0.662276 0.067369
0.018215 0.662395 0.067492
0.070806 0.662880 0.068018
0.131683 0.663436 0.068664
0.199440 0.664046 0.069431
0.272663 0.664697 0.070316
0.349929 0.665374 0.071316
0.429816 0.666065 0.072422
0.510899 0.666756 0.073620
0.591766 0.667437 0.074892
0.671016 0.668096 0.076216
0.747272 0.668724 0.077563
0.819179 0.669310 0.078901
0.885408 0.669846 0.080192
0.944658 0.670322 0.081396
0.995649 0.670729 0.082471
1.000000 0.670827 0.082736
0.010120 0.740703 0.070233
0.022854 0.740803 0.070392
0.075479 0.741210 0.071067
0.136356 0.741670 0.071887
0.204065 0.742167 0.072848
0.277177 0.742688 0.073945
0.354260 0.743219 0.075169
0.433885 0.743748 0.076508
0.514627 0.744266 0.077945
0.595078 0.744763 0.079458
0.673846 0.745232 0.081019
0.749567 0.745666 0.082597
0.820905 0.746061 0.084154
0.886553 0.746413 0.085649
0.945238 0.746718 0.087038
0.995707 0.746973 0.088272
1.000000 0.747034 0.088575
0.015341 0.814267 0.073630
0.028071 0.814340 0.073824
0.080659 0.814632 0.074642
0.141455 0.814955 0.075629
0.209028 0.815293 0.076778
0.281937 0.815633 0.078078
0.358743 0.815966 0.079518
0.438013 0.816281 0.081083
0.518324 0.816571 0.082750
0.598272 0.816831 0.084494
0.676477 0.817057 0.086284
0.751588 0.817249 0.088084
0.822289 0.817407 0.089853
0.887299 0.817532 0.091544
0.945367 0.817628 0.093110
0.995272 0.817699 0.094497
1.000000 0.817714 0.094838
0.020910 0.881457 0.077375
0.033621 0.881496 0.077601
0.086113 0.881648 0.078555
0.146765 0.881802 0.079699
0.214133 0.881948 0.081023
0.286770 0.882073 0.082515
0.363231 0.882170 0.084158
0.442081 0.882233 0.085934
0.521899 0.882259 0.087818
0.601288 0.882245 0.089779
0.678879 0.882194 0.091785
0.753337 0.882110 0.093793
0.823365 0.881999 0.095761
0.887705 0.881870 0.097637
0.945133 0.881732 0.099369
0.994456 0.881596 0.100901
1.000000 0.881561 0.101276
0.026525 0.940930 0.081240
0.039207 0.940932 0.081495
0.091564 0.940928 0.082573
0.152028 0.940898 0.083861
0.219149 0.940833 0.085345
0.291472 0.940725 0.087011
0.367550 0.940569 0.088840
0.445947 0.940362 0.090808
0.525245 0.940105 0.092889
0.604055 0.939800 0.095049
0.681019 0.939456 0.097251
0.754817 0.939082 0.099450
0.824172 0.938690 0.101598
0.887847 0.938295 0.103642
0.944643 0.937914 0.105525
0.993393 0.937565 0.107189
1.000000 0.937478 0.107596
0.031848 0.991508 0.084966
0.044496 0.991473 0.085248
0.096698 0.991313 0.086434
0.156957 0.991099 0.087847
0.223815 0.990824 0.089472
0.295815 0.990484 0.091290
0.371506 0.990076 0.093281
0.449453 0.989603 0.095418
0.528244 0.989067 0.097671
0.606495 0.988478 0.100005
0.682860 0.987847 0.102378
0.756033 0.987190 0.104743
0.824753 0.986524 0.107049
0.887805 0.985871 0.109241
0.944011 0.985255 0.111257
0.992229 0.984699 0.113035
1.000000 0.984562 0.113471
0.033202 1.000000 0.085922
0.045840 1.000000 0.086210
0.098000 1.000000 0.087422
0.158203 1.000000 0.088866
0.224991 1.000000 0.090525
0.296905 1.000000 0.092381
0.372495 1.000000 0.094411
0.450325 1.000000 0.096589
0.528985 1.000000 0.098885
0.607093 1.000000 0.101260
0.683305 0.999391 0.103675
0.756319 0.998661 0.106081
0.824878 0.997925 0.108426
0.887772 0.997206 0.110653
0.943830 0.996529 0.112701
0.991914 0.995920 0.114508
1.000000 0.995770 0.114950
0.001329 0.004451 0.128689
0.013187 0.004287 0.128565
0.062377 0.003628 0.128065
0.119651 0.002903 0.127514
0.183818 0.002144 0.126934
0.253657 0.001381 0.126346
0.327915 0.000640 0.125771
0.405297 0.000000 0.125226
0.484471 0.000000 0.124724
0.564074 0.000000 0.124275
0.642710 0.000000 0.123887
0.718963 0.000000 0.123562
0.791402 0.000000 0.123300
0.858586 0.000000 0.123097
0.919072 0.000000 0.122947
0.971421 0.000000 0.122843
0.984096 0.000000 0.122822
0.000842 0.015928 0.128277
