backend/app/assets/luts/vlog_clean.cube
TITLE "ZipZop vlog_clean"
LUT_3D_SIZE 5
DOMAIN_MIN 0.0 0.0 0.0
DOMAIN_MAX 1.0 1.0 1.0
0.001837 0.005017 0.010317
0.183904 0.002618 0.007476
0.484026 0.000000 0.003734
0.790607 0.000000 0.001047
0.983175 0.000000 0.000000
0.000000 0.185892 0.002347
0.184082 0.185952 0.000864
0.490980 0.186635 0.000000
0.801567 0.188060 0.000000
0.995228 0.189329 0.000000
0.000000 0.497345 0.000000
0.191509 0.499223 0.000218
0.503356 0.502354 0.002523
0.814430 0.505635 0.006016
1.000000 0.507757 0.008791
0.014838 0.814138 0.009398
0.208558 0.815185 0.012740
0.517985 0.816495 0.019139
0.822174 0.817362 0.026808
1.000000 0.817687 0.032214
0.032497 1.000000 0.022558
0.224379 1.000000 0.027536
0.528600 1.000000 0.036613
0.824814 0.998152 0.047011
1.000000 0.996031 0.054136
0.001064 0.004155 0.192486
0.183777 0.001898 0.191295
0.484711 0.000000 0.189878
0.791825 0.000000 0.189102
0.984584 0.000000 0.188953
0.000000 0.185882 0.189435
0.184283 0.186035 0.189065
0.491706 0.186872 0.189014
0.802540 0.188458 0.189654
0.996214 0.189828 0.190409
0.000000 0.497977 0.190593
0.192285 0.499871 0.191687
0.504197 0.503032 0.194059
0.815055 0.506348 0.197206
1.000000 0.508493 0.199558
0.016353 0.814514 0.200063
0.209967 0.815499 0.202791
0.518997 0.816714 0.207864
0.822510 0.817490 0.213794
1.000000 0.817762 0.217914
0.034612 1.000000 0.210523
0.226211 1.000000 0.214351
0.529749 1.000000 0.221239
0.825000 0.997465 0.229034
1.000000 0.995243 0.234336
0.000000 0.002868 0.488438
0.183639 0.000840 0.489678
0.485822 0.000000 0.491638
0.793735 0.000000 0.493572
0.986762 0.000000 0.494769
0.000000 0.185932 0.492542
0.184678 0.186237 0.493740
0.492889 0.187326 0.495673
0.804060 0.189171 0.497630
0.997717 0.190707 0.498868
0.000203 0.499008 0.499116
0.193615 0.500929 0.500384
0.505570 0.504139 0.502496
0.816022 0.507513 0.504716
1.000000 0.509699 0.506157
0.018920 0.815075 0.506449
0.212326 0.815962 0.507959
0.520656 0.817025 0.510527
0.823018 0.817658 0.513284
1.000000 0.817845 0.515099
0.038151 1.000000 0.511788
0.229255 1.000000 0.513533
0.531631 0.999500 0.516523
0.825270 0.996286 0.519752
1.000000 0.993901 0.521886
0.000000 0.001706 0.787044
0.183585 0.000000 0.790432
0.486943 0.000000 0.795313
0.795579 0.000000 0.799501
0.988828 0.000000 0.801762
0.000000 0.186064 0.797353
0.185163 0.186524 0.799834
0.494087 0.187866 0.803295
0.805520 0.189974 0.806114
0.999112 0.191677 0.807551
0.001426 0.500053 0.807808
0.195045 0.502002 0.808967
0.506969 0.505266 0.810363
0.816938 0.508701 0.811198
1.000000 0.510928 0.811445
0.021643 0.815583 0.811470
0.214795 0.816373 0.811478
0.522349 0.817287 0.811084
0.823484 0.817780 0.810212
1.000000 0.817883 0.809441
0.041852 1.000000 0.810735
0.232415 1.000000 0.810114
0.533553 0.998497 0.808750
0.825504 0.995017 0.806957
1.000000 0.992472 0.805641
0.000000 0.001048 0.973529
0.183595 0.000000 0.978107
0.487643 0.000000 0.984572
0.796690 0.000000 0.989929
0.990054 0.000000 0.992707
0.000000 0.186189 0.987208
0.185510 0.186744 0.990344
0.494838 0.188246 0.994525
0.806395 0.190518 0.997648
0.999925 0.192325 0.999066
0.002259 0.500709 0.999301
0.195982 0.502677 1.000000
0.507849 0.505974 1.000000
0.817481 0.509448 1.000000
1.000000 0.511703 1.000000
0.023411 0.815871 0.999914
0.216381 0.816602 0.998847
0.523416 0.817425 0.996387
0.823753 0.817832 0.993035
1.000000 0.817885 0.990517
0.044229 1.000000 0.994933
0.234433 1.000000 0.992702
0.534767 0.997828 0.988406
0.825632 0.994185 0.983269
1.000000 0.991541 0.979669
