backend/app/assets/luts/vlog_clean.cube
TITLE "ZipZop vlog_clean"
LUT_3D_SIZE 9
DOMAIN_MIN 0.0 0.0 0.0
DOMAIN_MAX 1.0 1.0 1.0
0.001837 0.005017 0.010317
0.062736 0.004163 0.009316
0.183904 0.002618 0.007476
0.327722 0.001042 0.005541
0.484026 0.000000 0.003734
0.642060 0.000000 0.002209
0.790607 0.000000 0.001047
0.918186 0.000000 0.000253
0.983175 0.000000 0.000000
0.000000 0.064407 0.007129
0.061096 0.063875 0.006279
0.183604 0.062950 0.004737
0.328792 0.062073 0.003157
0.486324 0.061384 0.001734
0.645337 0.060960 0.000599
0.794570 0.060806 0.000000
0.922564 0.060861 0.000000
0.987703 0.060954 0.000000
0.000000 0.185892 0.002347
0.059321 0.185882 0.001801
0.184082 0.185952 0.000864
0.331514 0.186190 0.000000
0.490980 0.186635 0.000000
0.651434 0.187278 0.000000
0.801567 0.188060 0.000000
0.929990 0.188869 0.000000
0.995228 0.189329 0.000000
0.000000 0.334051 0.000000
0.059774 0.334460 0.000000
0.186522 0.335319 0.000000
0.335818 0.336419 0.000000
0.496727 0.337716 0.000000
0.658047 0.339134 0.000000
0.808468 0.340569 0.000701
0.936741 0.341882 0.001632
1.000000 0.342580 0.002181
0.000000 0.497345 0.000000
0.063414 0.497972 0.000000
0.191509 0.499223 0.000218
0.341886 0.500716 0.001183
0.503356 0.502354 0.002523
0.664620 0.504032 0.004181
0.814430 0.505635 0.006016
0.941756 0.507035 0.007804
1.000000 0.507757 0.008791
0.005142 0.662069 0.002882
0.070446 0.662676 0.003543
0.199075 0.663848 0.004998
0.349580 0.665182 0.006963
0.510590 0.666570 0.009388
0.670773 0.667915 0.012142
0.819019 0.669134 0.015008
0.944587 0.670149 0.017684
1.000000 0.670656 0.019124
0.014838 0.814138 0.009398
0.080163 0.814511 0.010470
0.208558 0.815185 0.012740
0.358324 0.815874 0.015669
0.517985 0.816495 0.019139
0.676242 0.816998 0.022949
0.822174 0.817362 0.026808
0.945371 0.817595 0.030338
1.000000 0.817687 0.032214
0.025889 0.940923 0.017516
0.090948 0.940932 0.018949
0.218586 0.940858 0.021936
0.367069 0.940618 0.025712
0.524876 0.940179 0.030099
0.680788 0.939556 0.034836
0.824092 0.938812 0.039566
0.944709 0.938055 0.043847
1.000000 0.937629 0.046106
0.032497 1.000000 0.022558
0.097322 1.000000 0.024179
0.224379 1.000000 0.027536
0.371981 1.000000 0.031751
0.528600 1.000000 0.036613
0.683074 0.999591 0.041830
0.824814 0.998152 0.047011
0.943925 0.996779 0.051680
1.000000 0.996031 0.054136
0.001571 0.004721 0.071516
0.062548 0.003883 0.070713
0.183858 0.002370 0.069242
0.327821 0.000832 0.067712
0.484256 0.000000 0.066303
0.642397 0.000000 0.065139
0.791020 0.000000 0.064279
0.918647 0.000000 0.063717
0.983654 0.000000 0.063494
0.000000 0.064222 0.068967
0.060958 0.063704 0.068294
0.183594 0.062807 0.067082
0.328911 0.061963 0.065859
0.486558 0.061310 0.064783
0.645661 0.060923 0.063958
0.794954 0.060803 0.063417
0.922982 0.060887 0.063132
0.988133 0.060996 0.063049
0.000000 0.185885 0.065243
0.059283 0.185885 0.064834
0.184146 0.185977 0.064147
0.331677 0.186239 0.063545
0.491224 0.186711 0.063145
0.651735 0.187382 0.063005
0.801897 0.188190 0.063111
0.930329 0.189021 0.063383
0.995565 0.189493 0.063586
0.000000 0.334188 0.063144
0.059858 0.334603 0.063057
0.186676 0.335474 0.063009
0.336035 0.336590 0.063164
0.496986 0.337903 0.063588
0.658325 0.339338 0.064282
0.808740 0.340790 0.065174
0.936990 0.342117 0.066125
1.000000 0.342822 0.066674
0.000000 0.497557 0.063726
0.063633 0.498186 0.063999
0.191766 0.499440 0.064666
0.342166 0.500938 0.065669
0.503638 0.502582 0.067014
0.664877 0.504266 0.068640
0.814642 0.505874 0.070410
0.941913 0.507279 0.072118
1.000000 0.508004 0.073055
0.005494 0.662276 0.067369
0.070806 0.662880 0.068018
0.199440 0.664046 0.069431
0.349929 0.665374 0.071316
0.510899 0.666756 0.073620
0.671016 0.668096 0.076216
0.819179 0.669310 0.078901
0.944658 0.670322 0.081396
1.000000 0.670827 0.082736
0.015341 0.814267 0.073630
0.080659 0.814632 0.074642
0.209028 0.815293 0.076778
0.358743 0.815966 0.079518
0.518324 0.816571 0.082750
0.676477 0.817057 0.086284
0.822289 0.817407 0.089853
0.945367 0.817628 0.093110
1.000000 0.817714 0.094838
0.026525 0.940930 0.081240
0.091564 0.940928 0.082573
0.219149 0.940833 0.085345
0.367550 0.940569 0.088840
0.525245 0.940105 0.092889
0.681019 0.939456 0.097251
0.824172 0.938690 0.101598
0.944643 0.937914 0.105525
1.000000 0.937478 0.107596
0.033202 1.000000 0.085922
0.098000 1.000000 0.087422
0.224991 1.000000 0.090525
0.372495 1.000000 0.094411
0.528985 1.000000 0.098885
0.683305 0.999391 0.103675
0.824878 0.997925 0.108426
0.943830 0.996529 0.112701
1.000000 0.995770 0.114950
0.001064 0.004155 0.192486
0.062193 0.003349 0.192059
0.183777 0.001898 0.191295
0.328022 0.000433 0.190533
0.484711 0.000000 0.189878
0.643057 0.000000 0.189395
0.791825 0.000000 0.189102
0.919542 0.000000 0.188974
0.984584 0.000000 0.188953
0.000000 0.063871 0.191155
0.060700 0.063381 0.190818
0.183585 0.062539 0.190234
0.329153 0.061761 0.189686
0.487020 0.061179 0.189264
0.646295 0.060864 0.189019
0.795704 0.060812 0.188953
0.923796 0.060955 0.189022
0.988967 0.061095 0.189101
0.000000 0.185882 0.189435
0.059224 0.185903 0.189282
0.184283 0.186035 0.189065
0.332003 0.186347 0.188956
0.491706 0.186872 0.189014
0.652323 0.187598 0.189257
0.802540 0.188458 0.189654
0.930984 0.189333 0.190124
0.996214 0.189828 0.190409
0.000000 0.334463 0.189014
0.060038 0.334891 0.189090
0.186992 0.335787 0.189329
0.336469 0.336932 0.189762
0.497501 0.338278 0.190412
0.658869 0.339747 0.191259
0.809267 0.341231 0.192227
0.937469 0.342586 0.193192
1.000000 0.343306 0.193731
0.000000 0.497977 0.190593
0.064082 0.498610 0.190929
0.192285 0.499871 0.191687
0.342727 0.501378 0.192736
0.504197 0.503032 0.194059
0.665384 0.504728 0.195590
0.815055 0.506348 0.197206
0.942212 0.507763 0.198732
1.000000 0.508493 0.199558
0.006206 0.662681 0.194399
0.071533 0.663280 0.195011
0.200171 0.664435 0.196317
0.350627 0.665752 0.198019
0.511512 0.667122 0.200054
0.671495 0.668451 0.202308
0.819488 0.669656 0.204607
0.944787 0.670661 0.206724
1.000000 0.671162 0.207853
0.016353 0.814514 0.200063
0.081654 0.814866 0.200946
0.209967 0.815499 0.202791
0.359577 0.816141 0.205132
0.518997 0.816714 0.207864
0.676939 0.817169 0.210826
0.822510 0.817490 0.213794
0.945348 0.817688 0.216489
1.000000 0.817762 0.217914
0.027799 0.940932 0.206591
0.092795 0.940909 0.207716
0.220273 0.940774 0.210041
0.368508 0.940462 0.212954
0.525976 0.939948 0.216307
0.681474 0.939250 0.219898
0.824326 0.938439 0.223461
0.944504 0.937625 0.226670
1.000000 0.937170 0.228358
0.034612 1.000000 0.210523
0.099354 1.000000 0.211774
0.226211 1.000000 0.214351
0.373518 1.000000 0.217562
0.529749 1.000000 0.221239
0.683759 0.998985 0.225160
0.825000 0.997465 0.229034
0.943633 0.996025 0.232511
1.000000 0.995243 0.234336
0.000499 0.003519 0.334880
0.061801 0.002749 0.334873
0.183700 0.001372 0.334897
0.328267 0.000000 0.334988
0.485246 0.000000 0.335165
0.643823 0.000000 0.335428
0.792755 0.000000 0.335753
0.920571 0.000000 0.336094
0.985648 0.000000 0.336289
0.000000 0.063483 0.334907
0.060424 0.063026 0.334943
0.183592 0.062249 0.335053
0.329446 0.061548 0.335249
0.487565 0.061051 0.335544
0.647031 0.060820 0.335928
0.796567 0.060849 0.336370
0.924728 0.061061 0.336814
0.989920 0.061235 0.337063
0.000000 0.185896 0.335399
0.059180 0.185941 0.335526
0.184462 0.186122 0.335820
0.332398 0.186492 0.336240
0.492275 0.187080 0.336783
0.653008 0.187870 0.337425
0.803281 0.188790 0.338115
0.931732 0.189719 0.338777
0.996952 0.190240 0.339138
0.000000 0.334797 0.336785
0.060277 0.335239 0.337032
0.187383 0.336164 0.337567
0.336992 0.337345 0.338277
0.498108 0.338729 0.339142
0.659502 0.340239 0.340117
0.809872 0.341760 0.341127
0.938011 0.343149 0.342068
1.000000 0.343886 0.342575
0.000000 0.498473 0.339360
0.064635 0.499109 0.339751
0.192914 0.500379 0.340573
0.343398 0.501897 0.341630
0.504856 0.503564 0.342878
0.665974 0.505273 0.344247
0.815528 0.506907 0.345634
0.942545 0.508335 0.346905
1.000000 0.509072 0.347582
0.007073 0.663151 0.343187
0.072414 0.663744 0.343736
0.201051 0.664887 0.344877
0.351459 0.666190 0.346315
0.512236 0.667547 0.347984
0.672054 0.668864 0.349786
0.819839 0.670058 0.351586
0.944923 0.671055 0.353218
1.000000 0.671553 0.354080
0.017572 0.814791 0.347991
0.082850 0.815127 0.348702
0.211091 0.815729 0.350167
0.360570 0.816335 0.351993
0.519793 0.816870 0.354089
0.677479 0.817289 0.356328
0.822760 0.817577 0.358545
0.945310 0.817747 0.360540
1.000000 0.817808 0.361589
0.029326 0.940917 0.353116
0.094269 0.940870 0.353976
0.221614 0.940686 0.355738
0.369646 0.940319 0.357920
0.526841 0.939747 0.360406
0.682007 0.938992 0.363044
0.824497 0.938128 0.365642
0.944327 0.937270 0.367967
1.000000 0.936793 0.369186
0.036299 1.000000 0.356100
0.100971 1.000000 0.357039
0.227665 1.000000 0.358959
0.374733 1.000000 0.361330
0.530652 0.999983 0.364024
0.684291 0.998490 0.366874
0.825134 0.996908 0.369673
0.943388 0.995415 0.372174
1.000000 0.994607 0.373483
0.000000 0.002868 0.488438
0.061410 0.002138 0.488858
0.183639 0.000840 0.489678
0.328543 0.000000 0.490628
0.485822 0.000000 0.491638
0.644638 0.000000 0.492641
0.793735 0.000000 0.493572
0.921650 0.000000 0.494366
0.986762 0.000000 0.494769
0.000000 0.063096 0.489840
0.060157 0.062674 0.490252
0.183622 0.061967 0.491059
0.329774 0.061349 0.491997
0.488152 0.060942 0.492998
0.647815 0.060803 0.493997
0.797478 0.060918 0.494928
0.925704 0.061204 0.495725
0.990914 0.061417 0.496131
0.000000 0.185932 0.492542
0.059164 0.186003 0.492946
0.184678 0.186237 0.493740
0.332835 0.186669 0.494671
0.492889 0.187326 0.495673
0.653737 0.188185 0.496681
0.804060 0.189171 0.497630
0.932511 0.190156 0.498449
0.997717 0.190707 0.498868
0.000000 0.335167 0.495677
0.060565 0.335625 0.496083
0.187827 0.336583 0.496887
0.337567 0.337801 0.497838
0.498764 0.339228 0.498872
0.660177 0.340780 0.499923
0.810508 0.342343 0.500921
0.938570 0.343768 0.501789
1.000000 0.344523 0.502235
0.000203 0.499008 0.499116
0.065263 0.499649 0.499540
0.193615 0.500929 0.500384
0.344135 0.502458 0.501391
0.505570 0.504139 0.502496
0.666603 0.505864 0.503630
0.816022 0.507513 0.504716
0.942881 0.508955 0.505666
1.000000 0.509699 0.506157
0.008043 0.663650 0.502759
0.073394 0.664236 0.503216
0.202023 0.665366 0.504131
0.352370 0.666655 0.505229
0.513021 0.667999 0.506444
0.672651 0.669303 0.507699
0.820205 0.670486 0.508907
0.945048 0.671474 0.509970
1.000000 0.671968 0.510521
0.018920 0.815075 0.506449
0.084170 0.815394 0.506951
0.212326 0.815962 0.507959
0.361655 0.816530 0.509175
0.520656 0.817025 0.510527
0.678058 0.817405 0.511929
0.823018 0.817658 0.513284
0.945251 0.817799 0.514479
1.000000 0.817845 0.515099
0.031007 0.940879 0.509905
0.095888 0.940806 0.510455
0.223083 0.940571 0.511563
0.370888 0.940145 0.512904
0.527779 0.939511 0.514399
0.682579 0.938695 0.515953
0.824671 0.937775 0.517457
0.944120 0.936871 0.518786
1.000000 0.936370 0.519477
0.038151 1.000000 0.511788
0.102746 1.000000 0.512367
0.229255 1.000000 0.513533
0.376058 1.000000 0.514947
0.531631 0.999500 0.516523
0.684863 0.997934 0.518163
0.825270 0.996286 0.519752
0.943108 0.994737 0.521156
1.000000 0.993901 0.521886
0.000000 0.002251 0.642707
0.061050 0.001561 0.643528
0.183600 0.000342 0.645094
0.328831 0.000000 0.646845
0.486401 0.000000 0.648624
0.645444 0.000000 0.650304
0.794698 0.000000 0.651782
0.922703 0.000000 0.652979
0.987846 0.000000 0.653565
0.000000 0.062738 0.645399
0.059921 0.062352 0.646161
0.183675 0.061716 0.647614
0.330115 0.061181 0.649235
0.488742 0.060865 0.650880
0.648591 0.060818 0.652430
0.798371 0.061019 0.653791
0.926654 0.061380 0.654892
0.991878 0.061631 0.655429
0.000000 0.185990 0.650142
0.059180 0.186088 0.650796
0.184918 0.186375 0.652040
0.333286 0.186870 0.653423
0.493507 0.187595 0.654821
0.654459 0.188523 0.656133
0.804823 0.189575 0.657281
0.933266 0.190617 0.658206
0.998452 0.191197 0.658657
0.000000 0.335551 0.654826
0.060888 0.336025 0.655366
0.188296 0.337015 0.656389
0.338158 0.338272 0.657522
0.499426 0.339741 0.658661
0.660847 0.341337 0.659726
0.811129 0.342941 0.660653
0.939106 0.344402 0.661396
1.000000 0.345177 0.661758
0.000818 0.499547 0.658917
0.065926 0.500193 0.659349
0.194343 0.501482 0.660164
0.344888 0.503025 0.661063
0.506291 0.504720 0.661962
0.667229 0.506461 0.662798
0.816503 0.508125 0.663522
0.943195 0.509581 0.664100
1.000000 0.510333 0.664380
0.009053 0.664144 0.662164
0.074410 0.664722 0.662502
0.203022 0.665841 0.663141
0.353299 0.667116 0.663841
0.513814 0.668446 0.664539
0.673245 0.669738 0.665184
0.820558 0.670911 0.665741
0.945152 0.671890 0.666184
1.000000 0.672381 0.666398
0.020310 0.815345 0.664542
0.085528 0.815646 0.664808
0.213590 0.816181 0.665308
0.362759 0.816711 0.665856
0.521528 0.817167 0.666400
0.678635 0.817509 0.666903
0.823264 0.817727 0.667336
0.945172 0.817839 0.667680
1.000000 0.817871 0.667848
0.032730 0.940820 0.666158
0.097546 0.940720 0.666373
0.224582 0.940435 0.666777
0.372151 0.939950 0.667219
0.528728 0.939254 0.667658
0.683150 0.938377 0.668065
0.824836 0.937402 0.668417
0.943894 0.936451 0.668699
1.000000 0.935927 0.668836
0.040047 1.000000 0.666855
0.104559 1.000000 0.667048
0.230877 1.000000 0.667410
0.377404 1.000000 0.667807
0.532621 0.998992 0.668203
0.685434 0.997354 0.668570
0.825395 0.995640 0.668889
0.942810 0.994036 0.669146
1.000000 0.993172 0.669272
0.000000 0.001706 0.787044
0.060742 0.001054 0.788215
0.183585 0.000000 0.790432
0.329112 0.000000 0.792874
0.486943 0.000000 0.795313
0.646189 0.000000 0.797567
0.795579 0.000000 0.799501
0.923661 0.000000 0.801029
0.988828 0.000000 0.801762
0.000000 0.062432 0.790860
0.059731 0.062079 0.791926
0.183746 0.061508 0.793935
0.330445 0.061052 0.796139
0.489294 0.060820 0.798327
0.649308 0.060859 0.800333
0.799189 0.061142 0.802042
0.927517 0.061573 0.803380
0.992750 0.061859 0.804018
0.000000 0.186064 0.797353
0.059225 0.186187 0.798217
0.185163 0.186524 0.799834
0.333720 0.187077 0.801585
0.494087 0.187866 0.803295
0.655126 0.188860 0.804833
0.805520 0.189974 0.806114
0.933948 0.191069 0.807093
0.999112 0.191677 0.807551
0.000000 0.335921 0.803302
0.061218 0.336410 0.803943
0.188756 0.337430 0.805124
0.338723 0.338723 0.806373
0.500047 0.340232 0.807555
0.661466 0.341869 0.808575
0.811694 0.343513 0.809383
0.939585 0.345008 0.809965
1.000000 0.345799 0.810224
0.001426 0.500053 0.807808
0.066575 0.500703 0.808224
0.195045 0.502002 0.808967
0.345606 0.503556 0.809712
0.506969 0.505266 0.810363
0.667808 0.507021 0.810864
0.816938 0.508701 0.811198
0.943468 0.510170 0.811385
1.000000 0.510928 0.811445
0.010031 0.664598 0.810493
0.075390 0.665171 0.810699
0.203978 0.666278 0.811035
0.354181 0.667541 0.811311
0.514560 0.668858 0.811470
0.673797 0.670139 0.811490
0.820877 0.671303 0.811387
0.945231 0.672275 0.811208
1.000000 0.672762 0.811086
0.021643 0.815583 0.811470
0.086827 0.815868 0.811495
0.214795 0.816373 0.811478
0.363805 0.816868 0.811349
0.522349 0.817287 0.811084
0.679172 0.817593 0.810691
0.823484 0.817780 0.810212
0.945082 0.817865 0.809720
1.000000 0.817883 0.809441
0.034374 0.940744 0.811221
0.099125 0.940621 0.811101
0.226005 0.940288 0.810804
0.373346 0.939750 0.810355
0.529620 0.938996 0.809755
0.683683 0.938063 0.809035
0.824980 0.937037 0.808260
0.943667 0.936043 0.807521
1.000000 0.935497 0.807120
0.041852 1.000000 0.810735
0.106283 1.000000 0.810546
0.232415 1.000000 0.810114
0.378677 0.999989 0.809511
0.533553 0.998497 0.808750
0.685968 0.996792 0.807873
0.825504 0.995017 0.806957
0.942517 0.993361 0.806101
1.000000 0.992472 0.805641
0.000000 0.001264 0.910649
0.060501 0.000644 0.912102
0.183588 0.000000 0.914838
0.329360 0.000000 0.917831
0.487407 0.000000 0.920790
0.646819 0.000000 0.923489
0.796319 0.000000 0.925773
0.924460 0.000000 0.927548
0.989646 0.000000 0.928389
0.000000 0.062191 0.915365
0.059589 0.061867 0.916672
0.183822 0.061353 0.919122
0.330736 0.060963 0.921784
0.489768 0.060804 0.924391
0.649914 0.060917 0.926743
0.799874 0.061268 0.928708
0.928236 0.061759 0.930214
0.993474 0.062076 0.930919
0.000000 0.186143 0.923234
0.059286 0.186288 0.924261
0.185389 0.186666 0.926162
0.334100 0.187270 0.928187
0.494584 0.188114 0.930120
0.655692 0.189164 0.931807
0.806103 0.190331 0.933161
0.934513 0.191472 0.934151
0.999656 0.192103 0.934597
0.000000 0.336246 0.930127
0.061524 0.336748 0.930837
0.189166 0.337793 0.932119
0.339216 0.339118 0.933427
0.500581 0.340661 0.934601
0.661991 0.342333 0.935539
0.812166 0.344011 0.936205
0.939978 0.345535 0.936616
1.000000 0.346342 0.936770
0.001972 0.500488 0.934842
0.067153 0.501142 0.935226
0.195662 0.502449 0.935873
0.346230 0.504014 0.936446
0.507552 0.505735 0.936842
0.668300 0.507503 0.937014
0.817301 0.509196 0.936975
0.943686 0.510676 0.936793
1.000000 0.511441 0.936649
0.010893 0.664982 0.936902
0.076251 0.665550 0.936977
0.204814 0.666648 0.937020
0.354946 0.667900 0.936893
0.515202 0.669208 0.936549
0.674266 0.670479 0.935993
0.821140 0.671635 0.935286
0.945285 0.672601 0.934541
1.000000 0.673085 0.934114
0.022809 0.815776 0.936547
0.087961 0.816048 0.936348
0.215842 0.816527 0.935854
0.364712 0.816993 0.935109
0.523055 0.817381 0.934110
0.679629 0.817657 0.932909
0.823664 0.817816 0.931612
0.944991 0.817879 0.930371
1.000000 0.817886 0.929694
0.035807 0.940665 0.934590
0.100500 0.940521 0.934167
0.227241 0.940148 0.933237
0.374379 0.939564 0.931987
0.530389 0.938761 0.930456
0.684137 0.937781 0.928732
0.825096 0.936711 0.926955
0.943461 0.935681 0.925311
1.000000 0.935117 0.924433
0.043422 1.000000 0.933036
0.107782 1.000000 0.932503
0.233749 1.000000 0.931360
0.379778 0.999607 0.929862
0.534356 0.998057 0.928070
0.686423 0.996296 0.926090
0.825591 0.994469 0.924079
0.942255 0.992770 0.922238
1.000000 0.991858 0.921260
0.000000 0.001048 0.973529
0.060386 0.000444 0.975119
0.183595 0.000000 0.978107
0.329489 0.000000 0.981365
0.487643 0.000000 0.984572
0.647137 0.000000 0.987482
0.796690 0.000000 0.989929
0.924860 0.000000 0.991818
0.990054 0.000000 0.992707
0.000000 0.062076 0.978681
0.059525 0.061766 0.980104
0.183867 0.061281 0.982766
0.330887 0.060925 0.985645
0.490009 0.060803 0.988450
0.650220 0.060953 0.990963
0.800218 0.061341 0.993044
0.928595 0.061862 0.994623
0.993834 0.062194 0.995356
0.000000 0.186189 0.987208
0.059324 0.186344 0.988311
0.185510 0.186744 0.990344
0.334297 0.187374 0.992494
0.494838 0.188246 0.994525
0.655977 0.189324 0.996272
0.806395 0.190518 0.997648
0.934794 0.191682 0.998633
0.999925 0.192325 0.999066
0.000000 0.336414 0.994532
0.061687 0.336922 0.995271
0.189380 0.337981 0.996592
0.339470 0.339322 0.997916
0.500853 0.340882 0.999070
0.662256 0.342573 0.999952
0.812402 0.344267 1.000000
0.940172 0.345807 1.000000
1.000000 0.346621 1.000000
0.002259 0.500709 0.999301
0.067455 0.501365 0.999663
0.195982 0.502677 1.000000
0.346551 0.504247 1.000000
0.507849 0.505974 1.000000
0.668549 0.507749 1.000000
0.817481 0.509448 1.000000
0.943791 0.510935 1.000000
1.000000 0.511703 1.000000
0.011340 0.665176 1.000000
0.076697 0.665741 1.000000
0.205245 0.666834 1.000000
0.355339 0.668082 1.000000
0.515530 0.669384 0.999917
0.674504 0.670651 0.999053
0.821271 0.671803 0.998025
0.945307 0.672766 0.996982
1.000000 0.673249 0.996394
0.023411 0.815871 0.999914
0.088546 0.816136 0.999595
0.216381 0.816602 0.998847
0.365176 0.817053 0.997774
0.523416 0.817425 0.996387
0.679861 0.817686 0.994762
0.823753 0.817832 0.993035
0.944941 0.817884 0.991401
1.000000 0.817885 0.990517
0.036544 0.940620 0.997049
0.101206 0.940465 0.996466
0.227876 0.940072 0.995203
0.374909 0.939464 0.993532
0.530782 0.938637 0.991513
0.684368 0.937633 0.989265
0.825153 0.936541 0.986965
0.943352 0.935492 0.984850
1.000000 0.934919 0.983722
0.044229 1.000000 0.994933
0.108552 1.000000 0.994219
0.234433 1.000000 0.992702
0.380342 0.999407 0.990736
0.534767 0.997828 0.988406
0.686654 0.996039 0.985850
0.825632 0.994185 0.983269
0.942118 0.992464 0.980916
1.000000 0.991541 0.979669
